luts/PowerGrade Cinematic Landscape.cube
TITLE "PowerGrade Cinematic Landscape"
LUT_3D_SIZE 9
0.035761 0.035761 0.035761
0.140713 0.031623 0.031623
0.245161 0.025291 0.025291
0.373871 0.018855 0.018855
0.507950 0.012151 0.012151
0.641855 0.005456 0.005456
0.769448 0.000000 0.000000
0.854744 0.000000 0.000000
0.905383 0.000000 0.000000
0.023844 0.139245 0.015601
0.140713 0.137021 0.027032
0.245161 0.133949 0.025291
0.373871 0.127514 0.018855
0.507950 0.120810 0.012151
0.641855 0.114115 0.005456
0.769448 0.108528 0.000000
0.854744 0.108003 0.000000
0.905383 0.107740 0.000000
0.016117 0.241759 0.000000
0.139289 0.241759 0.000000
0.245161 0.237272 0.014052
0.373871 0.235153 0.018855
0.507950 0.228449 0.012151
0.641855 0.221754 0.005456
0.769448 0.216039 0.000000
0.854744 0.214993 0.000000
0.905383 0.214469 0.000000
0.024531 0.367969 0.000000
0.140781 0.367969 0.000000
0.256472 0.367969 0.000000
0.373871 0.360813 0.001036
0.507950 0.360970 0.012151
0.641855 0.354274 0.005456
0.769448 0.348400 0.000000
0.854744 0.346714 0.000000
0.905383 0.345869 0.000000
0.033333 0.500000 0.000000
0.146370 0.500000 0.000000
0.258864 0.500000 0.000000
0.397488 0.500000 0.000000
0.507950 0.490391 0.000000
0.641855 0.492907 0.005456
0.769448 0.486867 0.000000
0.854744 0.484510 0.000000
0.905383 0.483330 0.000000
0.042135 0.632031 0.000000
0.153382 0.632031 0.000000
0.264094 0.632031 0.000000
0.400523 0.632031 0.000000
0.542644 0.632031 0.000000
0.641855 0.619962 0.000000
0.769448 0.625333 0.000000
0.854744 0.622307 0.000000
0.905383 0.620790 0.000000
0.050634 0.759509 0.000000
0.160772 0.759509 0.000000
0.270381 0.759509 0.000000
0.405450 0.759509 0.000000
0.546154 0.759509 0.000000
0.685844 0.759509 0.000000
0.769448 0.744706 0.000000
0.854744 0.755351 0.000000
0.905383 0.753511 0.000000
0.056523 0.847841 0.000000
0.166096 0.847841 0.000000
0.275144 0.847841 0.000000
0.409522 0.847841 0.000000
0.549505 0.847841 0.000000
0.689307 0.847841 0.000000
0.806662 0.847841 0.000000
0.854744 0.830466 0.000000
0.905383 0.841331 0.000000
0.060045 0.900673 0.000000
0.169336 0.900673 0.000000
0.278103 0.900673 0.000000
0.412134 0.900673 0.000000
0.551757 0.900673 0.000000
0.691199 0.900673 0.000000
0.820478 0.900673 0.000000
0.885614 0.900673 0.000000
0.905383 0.881667 0.000000
0.025551 0.025551 0.137777
0.140713 0.031623 0.137661
0.245161 0.025291 0.132408
0.373871 0.018855 0.125972
0.507950 0.012151 0.119268
0.641855 0.005456 0.112573
0.769448 0.000000 0.106989
0.854744 0.000000 0.106471
0.905383 0.000000 0.106212
0.031729 0.139245 0.137720
0.140713 0.139187 0.137661
0.245161 0.133949 0.132408
0.373871 0.127514 0.125972
0.507950 0.120810 0.119268
0.641855 0.114115 0.112573
0.769448 0.107735 0.106193
0.854744 0.103470 0.101929
0.905383 0.100938 0.099397
0.000000 0.241759 0.103609
0.124116 0.241759 0.111782
0.245161 0.239834 0.127970
0.373871 0.235153 0.125972
0.507950 0.228449 0.119268
0.641855 0.221754 0.112573
0.769448 0.215375 0.106193
0.854744 0.211110 0.101929
0.905383 0.208578 0.099397
0.000000 0.367969 0.088467
0.103081 0.367969 0.080229
0.233641 0.367969 0.080229
0.373871 0.363371 0.114954
0.507950 0.360970 0.119268
0.641855 0.354274 0.112573
0.769448 0.347895 0.106193
0.854744 0.343630 0.101929
0.905383 0.341098 0.099397
0.000000 0.500000 0.076541
0.081076 0.500000 0.047221
0.211636 0.500000 0.047221
0.372524 0.500000 0.047221
0.507950 0.492496 0.100950
0.641855 0.492907 0.112573
0.769448 0.486528 0.106193
0.854744 0.482263 0.101929
0.905383 0.479731 0.099397
0.000000 0.632031 0.065999
0.059071 0.632031 0.014213
0.189631 0.632031 0.014213
0.350519 0.632031 0.014213
0.518117 0.632031 0.014213
0.641855 0.621589 0.086827
0.769448 0.625160 0.106193
0.854744 0.620896 0.101929
0.905383 0.618364 0.099397
0.000000 0.759509 0.056423
0.054220 0.759509 0.000000
0.181814 0.759509 0.000000
0.339047 0.759509 0.000000
0.502838 0.759509 0.000000
0.666417 0.759509 0.000000
0.769448 0.745903 0.072033
0.854744 0.754748 0.101929
0.905383 0.752216 0.099397
0.000000 0.847841 0.049986
0.060028 0.847841 0.000000
0.184743 0.847841 0.000000
0.338427 0.847841 0.000000
0.498522 0.847841 0.000000
0.658410 0.847841 0.000000
0.798039 0.847841 0.000000
0.854744 0.831462 0.059654
0.905383 0.842768 0.094257
0.000000 0.900673 0.046190
0.063511 0.900673 0.000000
0.186822 0.900673 0.000000
0.338777 0.900673 0.000000
0.497070 0.900673 0.000000
0.655158 0.900673 0.000000
0.805794 0.900673 0.000000
0.881188 0.900673 0.012030
0.905383 0.882578 0.051991
0.009419 0.009419 0.238387
0.135829 0.025629 0.238387
0.245161 0.025291 0.238048
0.373871 0.018855 0.231612
0.507950 0.012151 0.224908
0.641855 0.005456 0.218213
0.769448 0.000000 0.212502
0.854744 0.000000 0.211474
0.905383 0.000000 0.210958
0.009419 0.126357 0.238387
0.128015 0.126357 0.238387
0.245161 0.133949 0.238048
0.373871 0.127514 0.231612
0.507950 0.120810 0.224908
0.641855 0.114115 0.218213
0.769448 0.107735 0.211834
0.854744 0.103470 0.207569
0.905383 0.100938 0.205037
0.025461 0.241759 0.238218
0.135660 0.241759 0.238218
0.245161 0.241589 0.238048
0.373871 0.235153 0.231612
0.507950 0.228449 0.224908
0.641855 0.221754 0.218213
0.769448 0.215375 0.211834
0.854744 0.211110 0.207569
0.905383 0.208578 0.205037
0.000000 0.367969 0.199906
0.083899 0.367969 0.187053
0.225257 0.367969 0.205991
0.373871 0.365931 0.227302
0.507950 0.360970 0.224908
0.641855 0.354274 0.218213
0.769448 0.347895 0.211834
0.854744 0.343630 0.207569
0.905383 0.341098 0.205037
0.000000 0.500000 0.184901
0.050891 0.500000 0.143043
0.203252 0.500000 0.172983
0.364140 0.500000 0.172983
0.507950 0.495030 0.213297
0.641855 0.492907 0.218213
0.769448 0.486528 0.211834
0.854744 0.482263 0.207569
0.905383 0.479731 0.205037
0.000000 0.632031 0.172643
0.017883 0.632031 0.099032
0.181247 0.632031 0.139975
0.342134 0.632031 0.139975
0.509733 0.632031 0.139975
0.641855 0.624113 0.199174
0.769448 0.625160 0.211834
0.854744 0.620896 0.207569
0.905383 0.618364 0.205037
0.000000 0.759509 0.162004
0.000000 0.759509 0.069251
0.160000 0.759509 0.108106
0.320888 0.759509 0.108106
0.488487 0.759509 0.108106
0.655869 0.759509 0.108106
0.769448 0.748417 0.184381
0.854744 0.754748 0.207569
0.905383 0.752216 0.205037
0.000000 0.847841 0.155026
0.000000 0.847841 0.060588
0.145278 0.847841 0.086023
0.306166 0.847841 0.086023
0.473765 0.847841 0.086023
0.641147 0.847841 0.086023
0.794248 0.847841 0.104570
0.854744 0.833964 0.172001
0.905383 0.844964 0.205037
0.000000 0.900673 0.150959
0.000000 0.900673 0.055714
0.136473 0.900673 0.072815
0.297361 0.900673 0.072815
0.464960 0.900673 0.072815
0.632341 0.900673 0.072815
0.791833 0.900673 0.072815
0.878445 0.900673 0.124377
0.905383 0.885078 0.164339
0.000000 0.000000 0.362072
0.122913 0.009521 0.362072
0.239315 0.019445 0.362072
0.373871 0.018855 0.361483
0.507950 0.012151 0.354779
0.641855 0.005456 0.348083
0.769448 0.000000 0.342217
0.854744 0.000000 0.340560
0.905383 0.000000 0.339730
0.000000 0.114825 0.362072
0.111936 0.110277 0.362072
0.239315 0.128104 0.362072
0.373871 0.127514 0.361483
0.507950 0.120810 0.354779
0.641855 0.114115 0.348083
0.769448 0.107735 0.341704
0.854744 0.103470 0.337439
0.905383 0.100938 0.334907
0.000000 0.228574 0.362072
0.111936 0.226118 0.362072
0.229962 0.226118 0.362072
0.373871 0.235153 0.361483
0.507950 0.228449 0.354779
0.641855 0.221754 0.348083
0.769448 0.215375 0.341704
0.854744 0.211110 0.337439
0.905383 0.208578 0.334907
0.019150 0.367969 0.361778
0.129350 0.367969 0.361778
0.239020 0.367969 0.361778
0.373871 0.367674 0.361483
0.507950 0.360970 0.354779
0.641855 0.354274 0.348083
0.769448 0.347895 0.341704
0.854744 0.343630 0.337439
0.905383 0.341098 0.334907
0.000000 0.500000 0.322945
0.050891 0.500000 0.297650
0.181451 0.500000 0.306354
0.353832 0.500000 0.327591
0.507950 0.498215 0.351413
0.641855 0.492907 0.348083
0.769448 0.486528 0.341704
0.854744 0.482263 0.337439
0.905383 0.479731 0.334907
0.000000 0.632031 0.303747
0.017883 0.632031 0.253639
0.148443 0.632031 0.262344
0.331827 0.632031 0.294583
0.499426 0.632031 0.294583
0.641855 0.627245 0.337290
0.769448 0.625160 0.341704
0.854744 0.620896 0.337439
0.905383 0.618364 0.334907
0.000000 0.759509 0.291801
0.000000 0.759509 0.221062
0.116574 0.759509 0.219851
0.310581 0.759509 0.262713
0.478180 0.759509 0.262713
0.645561 0.759509 0.262713
0.769448 0.751519 0.322496
0.854744 0.754748 0.337439
0.905383 0.752216 0.334907
0.000000 0.847841 0.284158
0.000000 0.847841 0.208886
0.094491 0.847841 0.190407
0.295859 0.847841 0.240630
0.463458 0.847841 0.240630
0.630839 0.847841 0.240630
0.789672 0.847841 0.242685
0.854744 0.837045 0.310117
0.905383 0.844964 0.334907
0.000000 0.900673 0.279759
0.000000 0.900673 0.202301
0.081283 0.900673 0.172796
0.287054 0.900673 0.227422
0.454653 0.900673 0.227422
0.622034 0.900673 0.227422
0.781526 0.900673 0.227422
0.874947 0.900673 0.262493
0.905383 0.888151 0.302455
0.000000 0.000000 0.492050
0.113177 0.000000 0.492050
0.232816 0.012946 0.492050
0.367962 0.012946 0.492050
0.507950 0.012151 0.491255
0.641855 0.005456 0.484560
0.769448 0.000000 0.478529
0.854744 0.000000 0.476213
0.905383 0.000000 0.475053
0.000000 0.111595 0.492050
0.095039 0.093380 0.492050
0.223616 0.108457 0.492050
0.367962 0.121605 0.492050
0.507950 0.120810 0.491255
0.641855 0.114115 0.484560
0.769448 0.107735 0.478180
0.854744 0.103470 0.473915
0.905383 0.100938 0.471383
0.000000 0.222143 0.492050
0.095039 0.209221 0.492050
0.213065 0.209221 0.492050
0.367962 0.229244 0.492050
0.507950 0.228449 0.491255
0.641855 0.221754 0.484560
0.769448 0.215375 0.478180
0.854744 0.211110 0.473915
0.905383 0.208578 0.471383
0.000000 0.358244 0.492050
0.095039 0.351838 0.492050
0.213065 0.351838 0.492050
0.358507 0.351838 0.492050
0.507950 0.360970 0.491255
0.641855 0.354274 0.484560
0.769448 0.347895 0.478180
0.854744 0.343630 0.473915
0.905383 0.341098 0.471383
0.012549 0.500000 0.491653
0.122748 0.500000 0.491653
0.232419 0.500000 0.491653
0.367564 0.500000 0.491653
0.507950 0.499603 0.491255
0.641855 0.492907 0.484560
0.769448 0.486528 0.478180
0.854744 0.482263 0.473915
0.905383 0.479731 0.471383
0.000000 0.632031 0.458133
0.036916 0.632031 0.430488
0.148443 0.632031 0.424816
0.309331 0.632031 0.435541
0.488595 0.632031 0.457055
0.641855 0.630646 0.482432
0.769448 0.625160 0.478180
0.854744 0.620896 0.473915
0.905383 0.618364 0.471383
0.000000 0.759509 0.428201
0.000000 0.759509 0.380597
0.116574 0.759509 0.382323
0.277461 0.759509 0.393049
0.467348 0.759509 0.425185
0.634730 0.759509 0.425185
0.769448 0.754811 0.467638
0.854744 0.754748 0.473915
0.905383 0.752216 0.471383
0.000000 0.847841 0.419860
0.000000 0.847841 0.364728
0.094491 0.847841 0.352879
0.255378 0.847841 0.363605
0.452626 0.847841 0.403102
0.620008 0.847841 0.403102
0.779499 0.847841 0.403102
0.854744 0.840291 0.455259
0.905383 0.844964 0.471383
0.000000 0.900673 0.415110
0.000000 0.900673 0.356346
0.081283 0.900673 0.335269
0.242170 0.900673 0.345994
0.443821 0.900673 0.389894
0.611203 0.900673 0.389894
0.770694 0.900673 0.389894
0.870990 0.900673 0.407635
0.905383 0.891384 0.447596
0.000000 0.000000 0.622192
0.111352 0.000000 0.622192
0.222169 0.000000 0.622192
0.361455 0.006439 0.622192
0.502238 0.006439 0.622192
0.641855 0.005456 0.621208
0.769448 0.000000 0.615014
0.854744 0.000000 0.612037
0.905383 0.000000 0.610546
0.000000 0.109795 0.622192
0.078120 0.076462 0.622192
0.202498 0.084598 0.622192
0.361455 0.115098 0.622192
0.502238 0.115098 0.622192
0.641855 0.114115 0.621208
0.769448 0.107735 0.614829
0.854744 0.103470 0.610564
0.905383 0.100938 0.608032
0.000000 0.218560 0.622192
0.078120 0.192303 0.622192
0.196147 0.192303 0.622192
0.355940 0.214289 0.622192
0.502238 0.222737 0.622192
0.641855 0.221754 0.621208
0.769448 0.215375 0.614829
0.854744 0.211110 0.610564
0.905383 0.208578 0.608032
0.000000 0.352466 0.622192
0.078120 0.334920 0.622192
0.196147 0.334920 0.622192
0.341589 0.334920 0.622192
0.502238 0.355258 0.622192
0.641855 0.354274 0.621208
0.769448 0.347895 0.614829
0.854744 0.343630 0.610564
0.905383 0.341098 0.608032
0.000000 0.492549 0.622192
0.078120 0.484115 0.622192
0.196147 0.484115 0.622192
0.341589 0.484115 0.622192
0.493098 0.484115 0.622192
0.641855 0.492907 0.621208
0.769448 0.486528 0.614829
0.854744 0.482263 0.610564
0.905383 0.479731 0.608032
0.005947 0.632031 0.621700
0.116147 0.632031 0.621700
0.225817 0.632031 0.621700
0.360963 0.632031 0.621700
0.501746 0.632031 0.621700
0.641855 0.631540 0.621208
0.769448 0.625160 0.614829
0.854744 0.620896 0.610564
0.905383 0.618364 0.608032
0.000000 0.759509 0.593857
0.041172 0.759509 0.573557
0.143879 0.759509 0.565004
0.277461 0.759509 0.555725
0.445060 0.759509 0.566899
0.623885 0.759509 0.587862
0.769448 0.758225 0.612963
0.854744 0.754748 0.610564
0.905383 0.752216 0.608032
0.000000 0.847841 0.568273
0.000000 0.847841 0.523983
0.094491 0.847841 0.515556
0.255378 0.847841 0.526282
0.422977 0.847841 0.537455
0.609163 0.847841 0.565779
0.768654 0.847841 0.565779
0.854744 0.843563 0.600583
0.905383 0.844964 0.608032
0.000000 0.900673 0.553360
0.000000 0.900673 0.510584
0.081283 0.900673 0.497945
0.242170 0.900673 0.508671
0.409769 0.900673 0.519844
0.600358 0.900673 0.552571
0.759849 0.900673 0.552571
0.866346 0.900673 0.552960
0.905383 0.894628 0.592921
0.000000 0.000000 0.749100
0.110213 0.000000 0.749100
0.219898 0.000000 0.749100
0.355109 0.000094 0.749100
0.495892 0.000094 0.749100
0.636493 0.000094 0.749100
0.769448 0.000000 0.748108
0.854744 0.000000 0.744487
0.905383 0.000000 0.742673
0.000000 0.108672 0.749100
0.061622 0.059964 0.749100
0.180779 0.061331 0.749100
0.351274 0.102519 0.749100
0.495892 0.108752 0.749100
0.636493 0.108752 0.749100
0.769448 0.107735 0.748082
0.854744 0.103470 0.743817
0.905383 0.100938 0.741285
0.000000 0.216325 0.749100
0.061622 0.175805 0.749100
0.179649 0.175805 0.749100
0.336346 0.191022 0.749100
0.495892 0.216392 0.749100
0.636493 0.216392 0.749100
0.769448 0.215375 0.748082
0.854744 0.211110 0.743817
0.905383 0.208578 0.741285
0.000000 0.348862 0.749100
0.061622 0.318422 0.749100
0.179649 0.318422 0.749100
0.325091 0.318422 0.749100
0.492081 0.342889 0.749100
0.636493 0.348912 0.749100
0.769448 0.347895 0.748082
0.854744 0.343630 0.743817
0.905383 0.341098 0.741285
0.000000 0.487512 0.749100
0.061622 0.467617 0.749100
0.179649 0.467617 0.749100
0.325091 0.467617 0.749100
0.476600 0.467617 0.749100
0.636493 0.487545 0.749100
0.769448 0.486528 0.748082
0.854744 0.482263 0.743817
0.905383 0.479731 0.741285
0.000000 0.626162 0.749100
0.072831 0.618969 0.749100
0.182502 0.617475 0.749100
0.325091 0.616812 0.749100
0.476600 0.616812 0.749100
0.627913 0.616812 0.749100
0.769448 0.625160 0.748082
0.854744 0.620896 0.743817
0.905383 0.618364 0.741285
0.000000 0.759509 0.748585
0.109773 0.759509 0.748579
0.219443 0.759509 0.748579
0.354589 0.759509 0.748579
0.495372 0.759509 0.748579
0.635488 0.759509 0.748366
0.769448 0.759012 0.748082
0.854744 0.754748 0.743817
0.905383 0.752216 0.741285
0.000000 0.847841 0.736102
0.073505 0.847841 0.728089
0.176212 0.847841 0.723385
0.302777 0.847841 0.716121
0.434622 0.847841 0.704968
0.590359 0.847841 0.707249
0.758079 0.847841 0.724414
0.854744 0.846857 0.742297
0.905383 0.844964 0.741285
0.000000 0.900673 0.720757
0.032120 0.900673 0.700547
0.134828 0.900673 0.693384
0.261392 0.900673 0.681894
0.409769 0.900673 0.678479
0.577151 0.900673 0.689638
0.749273 0.900673 0.711206
0.855893 0.900673 0.711206
0.905383 0.897815 0.734635
0.000000 0.000000 0.840554
0.109615 0.000000 0.840554
0.218705 0.000000 0.840554
0.353134 0.000000 0.840554
0.493171 0.000000 0.840554
0.633026 0.000000 0.840554
0.766289 0.000000 0.840554
0.854744 0.000000 0.839935
0.905383 0.000000 0.837889
0.000000 0.108083 0.840554
0.049733 0.048075 0.840554
0.167760 0.048075 0.840554
0.338274 0.085752 0.840554
0.491320 0.104180 0.840554
0.631920 0.104180 0.840554
0.765893 0.104180 0.840554
0.854744 0.103470 0.839845
0.905383 0.100938 0.837313
0.000000 0.215152 0.840554
0.049733 0.163916 0.840554
0.167760 0.163916 0.840554
0.321261 0.174256 0.840554
0.491320 0.211819 0.840554
0.631920 0.211819 0.840554
0.765893 0.211819 0.840554
0.854744 0.211110 0.839845
0.905383 0.208578 0.837313
0.000000 0.346970 0.840554
0.049733 0.306533 0.840554
0.167760 0.306533 0.840554
0.313202 0.306533 0.840554
0.478498 0.326122 0.840554
0.631920 0.344339 0.840554
0.765893 0.344339 0.840554
0.854744 0.343630 0.839845
0.905383 0.341098 0.837313
0.000000 0.484868 0.840554
0.049733 0.455728 0.840554
0.167760 0.455728 0.840554
0.313202 0.455728 0.840554
0.464711 0.455728 0.840554
0.631912 0.482959 0.840554
0.765893 0.482972 0.840554
0.854744 0.482263 0.839845
0.905383 0.479731 0.837313
0.000000 0.622766 0.840554
0.049733 0.604923 0.840554
0.167760 0.604923 0.840554
0.313202 0.604923 0.840554
0.464711 0.604923 0.840554
0.616024 0.604923 0.840554
0.765893 0.621605 0.840554
0.854744 0.620896 0.839845
0.905383 0.618364 0.837313
0.000000 0.755908 0.840554
0.079786 0.752454 0.840554
0.189457 0.751927 0.840554
0.324602 0.750953 0.840554
0.465385 0.749138 0.840554
0.616024 0.748973 0.840554
0.760204 0.748973 0.840554
0.854744 0.754748 0.839845
0.905383 0.752216 0.837313
0.000000 0.847841 0.840234
0.105356 0.847841 0.840190
0.215027 0.847841 0.840190
0.350172 0.847841 0.840190
0.490955 0.847841 0.840190
0.631556 0.847841 0.840190
0.764926 0.847841 0.839921
0.854744 0.847496 0.839845
0.905383 0.844964 0.837313
0.000000 0.900673 0.838069
0.102715 0.900673 0.837549
0.207991 0.900673 0.835598
0.334556 0.900673 0.831420
0.466401 0.900673 0.826117
0.598074 0.900673 0.818366
0.736642 0.900673 0.814590
0.848272 0.900673 0.825525
0.905383 0.900202 0.836760
0.000000 0.000000 0.895665
0.109317 0.000000 0.895665
0.218108 0.000000 0.895665
0.352171 0.000000 0.895665
0.491826 0.000000 0.895665
0.631300 0.000000 0.895665
0.764199 0.000000 0.895665
0.853043 0.000000 0.895665
0.905383 0.000000 0.895265
0.000000 0.107788 0.895665
0.042569 0.040910 0.895665
0.160595 0.040910 0.895665
0.330000 0.075648 0.895665
0.488564 0.101424 0.895665
0.629165 0.101424 0.895665
0.763137 0.101424 0.895665
0.852698 0.101424 0.895665
0.905383 0.100938 0.895179
0.000000 0.214565 0.895665
0.042569 0.156751 0.895665
0.160595 0.156751 0.895665
0.311943 0.164152 0.895665
0.487375 0.207057 0.895665
0.629165 0.209064 0.895665
0.763137 0.209064 0.895665
0.852698 0.209064 0.895665
0.905383 0.208578 0.895179
0.000000 0.346024 0.895665
0.042569 0.299368 0.895665
0.160595 0.299368 0.895665
0.306038 0.299368 0.895665
0.469780 0.316018 0.895665
0.629165 0.341584 0.895665
0.763137 0.341584 0.895665
0.852698 0.341584 0.895665
0.905383 0.341098 0.895179
0.000000 0.483546 0.895665
0.042569 0.448564 0.895665
0.160595 0.448564 0.895665
0.306038 0.448564 0.895665
0.457547 0.448564 0.895665
0.624442 0.472855 0.895665
0.763137 0.480217 0.895665
0.852698 0.480217 0.895665
0.905383 0.479731 0.895179
0.000000 0.621068 0.895665
0.042569 0.597759 0.895665
0.160595 0.597759 0.895665
0.306038 0.597759 0.895665
0.457547 0.597759 0.895665
0.608860 0.597759 0.895665
0.763137 0.618850 0.895665
0.852698 0.618850 0.895665
0.905383 0.618364 0.895179
0.000000 0.753847 0.895665
0.059395 0.744844 0.895665
0.169066 0.743582 0.895665
0.306038 0.741809 0.895665
0.457547 0.741809 0.895665
0.608860 0.741809 0.895665
0.753040 0.741809 0.895665
0.852698 0.752702 0.895665
0.905383 0.752216 0.895179
0.000000 0.845852 0.895665
0.087661 0.844480 0.895665
0.197332 0.844325 0.895665
0.332477 0.844047 0.895665
0.473260 0.843562 0.895665
0.613861 0.842566 0.895665
0.753040 0.841624 0.895665
0.849425 0.841624 0.895665
0.905383 0.844964 0.895179
0.000000 0.900673 0.895458
0.102715 0.900673 0.895415
0.212385 0.900673 0.895415
0.347531 0.900673 0.895415
0.488314 0.900673 0.895415
0.628914 0.900673 0.895415
0.762887 0.900673 0.895415
0.851504 0.900673 0.894975
0.905383 0.900437 0.895179
