luts/PowerGrade Silver Bleach.cube
TITLE "PowerGrade Silver Bleach"
LUT_3D_SIZE 9
0.000000 0.000000 0.000000
0.087031 0.009719 0.009719
0.205176 0.075102 0.075102
0.344202 0.137681 0.137681
0.493875 0.197550 0.197550
0.643962 0.257585 0.257585
0.784228 0.313691 0.313691
0.887400 0.354960 0.354960
0.931676 0.372671 0.372671
0.010040 0.088086 0.010040
0.087151 0.088086 0.010040
0.205176 0.130945 0.075102
0.344202 0.190532 0.137681
0.493875 0.250402 0.197550
0.643962 0.310436 0.257585
0.784228 0.366543 0.313691
0.887400 0.407812 0.354960
0.931676 0.425522 0.372671
0.076823 0.207813 0.076823
0.131681 0.207813 0.076823
0.206151 0.207813 0.076823
0.344202 0.262368 0.137681
0.493875 0.322238 0.197550
0.643962 0.382272 0.257585
0.784228 0.438379 0.313691
0.887400 0.479647 0.354960
0.931676 0.497358 0.372671
0.139453 0.348633 0.139453
0.191672 0.348633 0.139453
0.262559 0.348633 0.139453
0.345974 0.348633 0.139453
0.493875 0.406730 0.197550
0.643962 0.466764 0.257585
0.784228 0.522871 0.313691
0.887400 0.564140 0.354960
0.931676 0.581850 0.372671
0.200000 0.500000 0.200000
0.252219 0.500000 0.200000
0.323106 0.500000 0.200000
0.406521 0.500000 0.200000
0.496325 0.500000 0.200000
0.643962 0.557585 0.257585
0.784228 0.613691 0.313691
0.887400 0.654960 0.354960
0.931676 0.672671 0.372671
0.260547 0.651367 0.260547
0.312765 0.651367 0.260547
0.383653 0.651367 0.260547
0.467068 0.651367 0.260547
0.556872 0.651367 0.260547
0.646924 0.651367 0.260547
0.784228 0.704512 0.313691
0.887400 0.745780 0.354960
0.931676 0.763491 0.372671
0.316875 0.792188 0.316875
0.369094 0.792188 0.316875
0.439981 0.792188 0.316875
0.523396 0.792188 0.316875
0.613200 0.792188 0.316875
0.703252 0.792188 0.316875
0.787412 0.792188 0.316875
0.887400 0.830272 0.354960
0.931676 0.847983 0.372671
0.356792 0.891979 0.356792
0.409010 0.891979 0.356792
0.479897 0.891979 0.356792
0.563313 0.891979 0.356792
0.653117 0.891979 0.356792
0.743169 0.891979 0.356792
0.827329 0.891979 0.356792
0.889232 0.891979 0.356792
0.931676 0.907858 0.372671
0.373513 0.933782 0.373513
0.425731 0.933782 0.373513
0.496618 0.933782 0.373513
0.580034 0.933782 0.373513
0.669838 0.933782 0.373513
0.759890 0.933782 0.373513
0.844050 0.933782 0.373513
0.905953 0.933782 0.373513
0.932518 0.933782 0.373513
0.010368 0.010368 0.089144
0.087277 0.010368 0.089144
0.205176 0.075102 0.131616
0.344202 0.137681 0.191167
0.493875 0.197550 0.251037
0.643962 0.257585 0.311071
0.784228 0.313691 0.367178
0.887400 0.354960 0.408446
0.931676 0.372671 0.426157
0.010368 0.088209 0.089144
0.087277 0.088209 0.089144
0.205176 0.130945 0.131616
0.344202 0.190532 0.191167
0.493875 0.250402 0.251037
0.643962 0.310436 0.311071
0.784228 0.366543 0.367178
0.887400 0.407812 0.408446
0.931676 0.425522 0.426157
0.076823 0.207813 0.133013
0.131681 0.207813 0.133013
0.206151 0.207813 0.133013
0.344202 0.262368 0.191167
0.493875 0.322238 0.251037
0.643962 0.382272 0.311071
0.784228 0.438379 0.367178
0.887400 0.479647 0.408446
0.931676 0.497358 0.426157
0.139453 0.348633 0.192940
0.191672 0.348633 0.192940
0.262559 0.348633 0.192940
0.345974 0.348633 0.192940
0.493875 0.406730 0.251037
0.643962 0.466764 0.311071
0.784228 0.522871 0.367178
0.887400 0.564140 0.408446
0.931676 0.581850 0.426157
0.200000 0.500000 0.253486
0.252219 0.500000 0.253486
0.323106 0.500000 0.253486
0.406521 0.500000 0.253486
0.496325 0.500000 0.253486
0.643962 0.557585 0.311071
0.784228 0.613691 0.367178
0.887400 0.654960 0.408446
0.931676 0.672671 0.426157
0.260547 0.651367 0.314033
0.312765 0.651367 0.314033
0.383653 0.651367 0.314033
0.467068 0.651367 0.314033
0.556872 0.651367 0.314033
0.646924 0.651367 0.314033
0.784228 0.704512 0.367178
0.887400 0.745780 0.408446
0.931676 0.763491 0.426157
0.316875 0.792188 0.370361
0.369094 0.792188 0.370361
0.439981 0.792188 0.370361
0.523396 0.792188 0.370361
0.613200 0.792188 0.370361
0.703252 0.792188 0.370361
0.787412 0.792188 0.370361
0.887400 0.830272 0.408446
0.931676 0.847983 0.426157
0.356792 0.891979 0.410278
0.409010 0.891979 0.410278
0.479897 0.891979 0.410278
0.563313 0.891979 0.410278
0.653117 0.891979 0.410278
0.743169 0.891979 0.410278
0.827329 0.891979 0.410278
0.889232 0.891979 0.410278
0.931676 0.907858 0.426157
0.373513 0.933782 0.426999
0.425731 0.933782 0.426999
0.496618 0.933782 0.426999
0.580034 0.933782 0.426999
0.669838 0.933782 0.426999
0.759890 0.933782 0.426999
0.844050 0.933782 0.426999
0.905953 0.933782 0.426999
0.932518 0.933782 0.426999
0.078531 0.078531 0.210457
0.133087 0.078531 0.210457
0.207147 0.078531 0.210457
0.344202 0.137681 0.263955
0.493875 0.197550 0.323824
0.643962 0.257585 0.383859
0.784228 0.313691 0.439966
0.887400 0.354960 0.481234
0.931676 0.372671 0.498945
0.078531 0.133748 0.210457
0.133087 0.133748 0.210457
0.207147 0.133748 0.210457
0.344202 0.190532 0.263955
0.493875 0.250402 0.323824
0.643962 0.310436 0.383859
0.784228 0.366543 0.439966
0.887400 0.407812 0.481234
0.931676 0.425522 0.498945
0.078531 0.208799 0.210457
0.133087 0.208799 0.210457
0.207147 0.208799 0.210457
0.344202 0.262368 0.263955
0.493875 0.322238 0.323824
0.643962 0.382272 0.383859
0.784228 0.438379 0.439966
0.887400 0.479647 0.481234
0.931676 0.497358 0.498945
0.139453 0.348633 0.265728
0.191672 0.348633 0.265728
0.262559 0.348633 0.265728
0.345974 0.348633 0.265728
0.493875 0.406730 0.323824
0.643962 0.466764 0.383859
0.784228 0.522871 0.439966
0.887400 0.564140 0.481234
0.931676 0.581850 0.498945
0.200000 0.500000 0.326274
0.252219 0.500000 0.326274
0.323106 0.500000 0.326274
0.406521 0.500000 0.326274
0.496325 0.500000 0.326274
0.643962 0.557585 0.383859
0.784228 0.613691 0.439966
0.887400 0.654960 0.481234
0.931676 0.672671 0.498945
0.260547 0.651367 0.386821
0.312765 0.651367 0.386821
0.383653 0.651367 0.386821
0.467068 0.651367 0.386821
0.556872 0.651367 0.386821
0.646924 0.651367 0.386821
0.784228 0.704512 0.439966
0.887400 0.745780 0.481234
0.931676 0.763491 0.498945
0.316875 0.792188 0.443149
0.369094 0.792188 0.443149
0.439981 0.792188 0.443149
0.523396 0.792188 0.443149
0.613200 0.792188 0.443149
0.703252 0.792188 0.443149
0.787412 0.792188 0.443149
0.887400 0.830272 0.481234
0.931676 0.847983 0.498945
0.356792 0.891979 0.483066
0.409010 0.891979 0.483066
0.479897 0.891979 0.483066
0.563313 0.891979 0.483066
0.653117 0.891979 0.483066
0.743169 0.891979 0.483066
0.827329 0.891979 0.483066
0.889232 0.891979 0.483066
0.931676 0.907858 0.498945
0.373513 0.933782 0.499787
0.425731 0.933782 0.499787
0.496618 0.933782 0.499787
0.580034 0.933782 0.499787
0.669838 0.933782 0.499787
0.759890 0.933782 0.499787
0.844050 0.933782 0.499787
0.905953 0.933782 0.499787
0.932518 0.933782 0.499787
0.141229 0.141229 0.353073
0.193448 0.141229 0.353073
0.264335 0.141229 0.353073
0.347750 0.141229 0.353073
0.493875 0.197550 0.409394
0.643962 0.257585 0.469428
0.784228 0.313691 0.525535
0.887400 0.354960 0.566804
0.931676 0.372671 0.584514
0.141229 0.194081 0.353073
0.193448 0.194081 0.353073
0.264335 0.194081 0.353073
0.347750 0.194081 0.353073
0.493875 0.250402 0.409394
0.643962 0.310436 0.469428
0.784228 0.366543 0.525535
0.887400 0.407812 0.566804
0.931676 0.425522 0.584514
0.141229 0.265917 0.353073
0.193448 0.265917 0.353073
0.264335 0.265917 0.353073
0.347750 0.265917 0.353073
0.493875 0.322238 0.409394
0.643962 0.382272 0.469428
0.784228 0.438379 0.525535
0.887400 0.479647 0.566804
0.931676 0.497358 0.584514
0.141229 0.350409 0.353073
0.193448 0.350409 0.353073
0.264335 0.350409 0.353073
0.347750 0.350409 0.353073
0.493875 0.406730 0.409394
0.643962 0.466764 0.469428
0.784228 0.522871 0.525535
0.887400 0.564140 0.566804
0.931676 0.581850 0.584514
0.200000 0.500000 0.411844
0.252219 0.500000 0.411844
0.323106 0.500000 0.411844
0.406521 0.500000 0.411844
0.496325 0.500000 0.411844
0.643962 0.557585 0.469428
0.784228 0.613691 0.525535
0.887400 0.654960 0.566804
0.931676 0.672671 0.584514
0.260547 0.651367 0.472391
0.312765 0.651367 0.472391
0.383653 0.651367 0.472391
0.467068 0.651367 0.472391
0.556872 0.651367 0.472391
0.646924 0.651367 0.472391
0.784228 0.704512 0.525535
0.887400 0.745780 0.566804
0.931676 0.763491 0.584514
0.316875 0.792188 0.528719
0.369094 0.792188 0.528719
0.439981 0.792188 0.528719
0.523396 0.792188 0.528719
0.613200 0.792188 0.528719
0.703252 0.792188 0.528719
0.787412 0.792188 0.528719
0.887400 0.830272 0.566804
0.931676 0.847983 0.584514
0.356792 0.891979 0.568636
0.409010 0.891979 0.568636
0.479897 0.891979 0.568636
0.563313 0.891979 0.568636
0.653117 0.891979 0.568636
0.743169 0.891979 0.568636
0.827329 0.891979 0.568636
0.889232 0.891979 0.568636
0.931676 0.907858 0.584514
0.373513 0.933782 0.585357
0.425731 0.933782 0.585357
0.496618 0.933782 0.585357
0.580034 0.933782 0.585357
0.669838 0.933782 0.585357
0.759890 0.933782 0.585357
0.844050 0.933782 0.585357
0.905953 0.933782 0.585357
0.932518 0.933782 0.585357
0.202450 0.202450 0.506125
0.254668 0.202450 0.506125
0.325556 0.202450 0.506125
0.408971 0.202450 0.506125
0.498775 0.202450 0.506125
0.643962 0.257585 0.561260
0.784228 0.313691 0.617366
0.887400 0.354960 0.658635
0.931676 0.372671 0.676345
0.202450 0.255302 0.506125
0.254668 0.255302 0.506125
0.325556 0.255302 0.506125
0.408971 0.255302 0.506125
0.498775 0.255302 0.506125
0.643962 0.310436 0.561260
0.784228 0.366543 0.617366
0.887400 0.407812 0.658635
0.931676 0.425522 0.676345
0.202450 0.327137 0.506125
0.254668 0.327137 0.506125
0.325556 0.327137 0.506125
0.408971 0.327137 0.506125
0.498775 0.327137 0.506125
0.643962 0.382272 0.561260
0.784228 0.438379 0.617366
0.887400 0.479647 0.658635
0.931676 0.497358 0.676345
0.202450 0.411630 0.506125
0.254668 0.411630 0.506125
0.325556 0.411630 0.506125
0.408971 0.411630 0.506125
0.498775 0.411630 0.506125
0.643962 0.466764 0.561260
0.784228 0.522871 0.617366
0.887400 0.564140 0.658635
0.931676 0.581850 0.676345
0.202450 0.502450 0.506125
0.254668 0.502450 0.506125
0.325556 0.502450 0.506125
0.408971 0.502450 0.506125
0.498775 0.502450 0.506125
0.643962 0.557585 0.561260
0.784228 0.613691 0.617366
0.887400 0.654960 0.658635
0.931676 0.672671 0.676345
0.260547 0.651367 0.564222
0.312765 0.651367 0.564222
0.383653 0.651367 0.564222
0.467068 0.651367 0.564222
0.556872 0.651367 0.564222
0.646924 0.651367 0.564222
0.784228 0.704512 0.617366
0.887400 0.745780 0.658635
0.931676 0.763491 0.676345
0.316875 0.792188 0.620550
0.369094 0.792188 0.620550
0.439981 0.792188 0.620550
0.523396 0.792188 0.620550
0.613200 0.792188 0.620550
0.703252 0.792188 0.620550
0.787412 0.792188 0.620550
0.887400 0.830272 0.658635
0.931676 0.847983 0.676345
0.356792 0.891979 0.660467
0.409010 0.891979 0.660467
0.479897 0.891979 0.660467
0.563313 0.891979 0.660467
0.653117 0.891979 0.660467
0.743169 0.891979 0.660467
0.827329 0.891979 0.660467
0.889232 0.891979 0.660467
0.931676 0.907858 0.676345
0.373513 0.933782 0.677188
0.425731 0.933782 0.677188
0.496618 0.933782 0.677188
0.580034 0.933782 0.677188
0.669838 0.933782 0.677188
0.759890 0.933782 0.677188
0.844050 0.933782 0.677188
0.905953 0.933782 0.677188
0.932518 0.933782 0.677188
0.263499 0.263499 0.658746
0.315717 0.263499 0.658746
0.386604 0.263499 0.658746
0.470020 0.263499 0.658746
0.559824 0.263499 0.658746
0.649876 0.263499 0.658746
0.784228 0.313691 0.708939
0.887400 0.354960 0.750208
0.931676 0.372671 0.767918
0.263499 0.316350 0.658746
0.315717 0.316350 0.658746
0.386604 0.316350 0.658746
0.470020 0.316350 0.658746
0.559824 0.316350 0.658746
0.649876 0.316350 0.658746
0.784228 0.366543 0.708939
0.887400 0.407812 0.750208
0.931676 0.425522 0.767918
0.263499 0.388186 0.658746
0.315717 0.388186 0.658746
0.386604 0.388186 0.658746
0.470020 0.388186 0.658746
0.559824 0.388186 0.658746
0.649876 0.388186 0.658746
0.784228 0.438379 0.708939
0.887400 0.479647 0.750208
0.931676 0.497358 0.767918
0.263499 0.472678 0.658746
0.315717 0.472678 0.658746
0.386604 0.472678 0.658746
0.470020 0.472678 0.658746
0.559824 0.472678 0.658746
0.649876 0.472678 0.658746
0.784228 0.522871 0.708939
0.887400 0.564140 0.750208
0.931676 0.581850 0.767918
0.263499 0.563499 0.658746
0.315717 0.563499 0.658746
0.386604 0.563499 0.658746
0.470020 0.563499 0.658746
0.559824 0.563499 0.658746
0.649876 0.563499 0.658746
0.784228 0.613691 0.708939
0.887400 0.654960 0.750208
0.931676 0.672671 0.767918
0.263499 0.654319 0.658746
0.315717 0.654319 0.658746
0.386604 0.654319 0.658746
0.470020 0.654319 0.658746
0.559824 0.654319 0.658746
0.649876 0.654319 0.658746
0.784228 0.704512 0.708939
0.887400 0.745780 0.750208
0.931676 0.763491 0.767918
0.316875 0.792188 0.712123
0.369094 0.792188 0.712123
0.439981 0.792188 0.712123
0.523396 0.792188 0.712123
0.613200 0.792188 0.712123
0.703252 0.792188 0.712123
0.787412 0.792188 0.712123
0.887400 0.830272 0.750208
0.931676 0.847983 0.767918
0.356792 0.891979 0.752040
0.409010 0.891979 0.752040
0.479897 0.891979 0.752040
0.563313 0.891979 0.752040
0.653117 0.891979 0.752040
0.743169 0.891979 0.752040
0.827329 0.891979 0.752040
0.889232 0.891979 0.752040
0.931676 0.907858 0.767918
0.373513 0.933782 0.768760
0.425731 0.933782 0.768760
0.496618 0.933782 0.768760
0.580034 0.933782 0.768760
0.669838 0.933782 0.768760
0.759890 0.933782 0.768760
0.844050 0.933782 0.768760
0.905953 0.933782 0.768760
0.932518 0.933782 0.768760
0.320028 0.320028 0.800071
0.372247 0.320028 0.800071
0.443134 0.320028 0.800071
0.526550 0.320028 0.800071
0.616353 0.320028 0.800071
0.706405 0.320028 0.800071
0.790565 0.320028 0.800071
0.887400 0.354960 0.835003
0.931676 0.372671 0.852713
0.320028 0.372880 0.800071
0.372247 0.372880 0.800071
0.443134 0.372880 0.800071
0.526550 0.372880 0.800071
0.616353 0.372880 0.800071
0.706405 0.372880 0.800071
0.790565 0.372880 0.800071
0.887400 0.407812 0.835003
0.931676 0.425522 0.852713
0.320028 0.444716 0.800071
0.372247 0.444716 0.800071
0.443134 0.444716 0.800071
0.526550 0.444716 0.800071
0.616353 0.444716 0.800071
0.706405 0.444716 0.800071
0.790565 0.444716 0.800071
0.887400 0.479647 0.835003
0.931676 0.497358 0.852713
0.320028 0.529208 0.800071
0.372247 0.529208 0.800071
0.443134 0.529208 0.800071
0.526550 0.529208 0.800071
0.616353 0.529208 0.800071
0.706405 0.529208 0.800071
0.790565 0.529208 0.800071
0.887400 0.564140 0.835003
0.931676 0.581850 0.852713
0.320028 0.620028 0.800071
0.372247 0.620028 0.800071
0.443134 0.620028 0.800071
0.526550 0.620028 0.800071
0.616353 0.620028 0.800071
0.706405 0.620028 0.800071
0.790565 0.620028 0.800071
0.887400 0.654960 0.835003
0.931676 0.672671 0.852713
0.320028 0.710849 0.800071
0.372247 0.710849 0.800071
0.443134 0.710849 0.800071
0.526550 0.710849 0.800071
0.616353 0.710849 0.800071
0.706405 0.710849 0.800071
0.790565 0.710849 0.800071
0.887400 0.745780 0.835003
0.931676 0.763491 0.852713
0.320028 0.795341 0.800071
0.372247 0.795341 0.800071
0.443134 0.795341 0.800071
0.526550 0.795341 0.800071
0.616353 0.795341 0.800071
0.706405 0.795341 0.800071
0.790565 0.795341 0.800071
0.887400 0.830272 0.835003
0.931676 0.847983 0.852713
0.356792 0.891979 0.836834
0.409010 0.891979 0.836834
0.479897 0.891979 0.836834
0.563313 0.891979 0.836834
0.653117 0.891979 0.836834
0.743169 0.891979 0.836834
0.827329 0.891979 0.836834
0.889232 0.891979 0.836834
0.931676 0.907858 0.852713
0.373513 0.933782 0.853555
0.425731 0.933782 0.853555
0.496618 0.933782 0.853555
0.580034 0.933782 0.853555
0.669838 0.933782 0.853555
0.759890 0.933782 0.853555
0.844050 0.933782 0.853555
0.905953 0.933782 0.853555
0.932518 0.933782 0.853555
0.358513 0.358513 0.896283
0.410732 0.358513 0.896283
0.481619 0.358513 0.896283
0.565034 0.358513 0.896283
0.654838 0.358513 0.896283
0.744890 0.358513 0.896283
0.829050 0.358513 0.896283
0.890953 0.358513 0.896283
0.931676 0.372671 0.910440
0.358513 0.411365 0.896283
0.410732 0.411365 0.896283
0.481619 0.411365 0.896283
0.565034 0.411365 0.896283
0.654838 0.411365 0.896283
0.744890 0.411365 0.896283
0.829050 0.411365 0.896283
0.890953 0.411365 0.896283
0.931676 0.425522 0.910440
0.358513 0.483201 0.896283
0.410732 0.483201 0.896283
0.481619 0.483201 0.896283
0.565034 0.483201 0.896283
0.654838 0.483201 0.896283
0.744890 0.483201 0.896283
0.829050 0.483201 0.896283
0.890953 0.483201 0.896283
0.931676 0.497358 0.910440
0.358513 0.567693 0.896283
0.410732 0.567693 0.896283
0.481619 0.567693 0.896283
0.565034 0.567693 0.896283
0.654838 0.567693 0.896283
0.744890 0.567693 0.896283
0.829050 0.567693 0.896283
0.890953 0.567693 0.896283
0.931676 0.581850 0.910440
0.358513 0.658513 0.896283
0.410732 0.658513 0.896283
0.481619 0.658513 0.896283
0.565034 0.658513 0.896283
0.654838 0.658513 0.896283
0.744890 0.658513 0.896283
0.829050 0.658513 0.896283
0.890953 0.658513 0.896283
0.931676 0.672671 0.910440
0.358513 0.749334 0.896283
0.410732 0.749334 0.896283
0.481619 0.749334 0.896283
0.565034 0.749334 0.896283
0.654838 0.749334 0.896283
0.744890 0.749334 0.896283
0.829050 0.749334 0.896283
0.890953 0.749334 0.896283
0.931676 0.763491 0.910440
0.358513 0.833826 0.896283
0.410732 0.833826 0.896283
0.481619 0.833826 0.896283
0.565034 0.833826 0.896283
0.654838 0.833826 0.896283
0.744890 0.833826 0.896283
0.829050 0.833826 0.896283
0.890953 0.833826 0.896283
0.931676 0.847983 0.910440
0.358513 0.893701 0.896283
0.410732 0.893701 0.896283
0.481619 0.893701 0.896283
0.565034 0.893701 0.896283
0.654838 0.893701 0.896283
0.744890 0.893701 0.896283
0.829050 0.893701 0.896283
0.890953 0.893701 0.896283
0.931676 0.907858 0.910440
0.373513 0.933782 0.911283
0.425731 0.933782 0.911283
0.496618 0.933782 0.911283
0.580034 0.933782 0.911283
0.669838 0.933782 0.911283
0.759890 0.933782 0.911283
0.844050 0.933782 0.911283
0.905953 0.933782 0.911283
0.932518 0.933782 0.911283
0.374290 0.374290 0.935726
0.426509 0.374290 0.935726
0.497396 0.374290 0.935726
0.580812 0.374290 0.935726
0.670615 0.374290 0.935726
0.760667 0.374290 0.935726
0.844827 0.374290 0.935726
0.906730 0.374290 0.935726
0.933296 0.374290 0.935726
0.374290 0.427142 0.935726
0.426509 0.427142 0.935726
0.497396 0.427142 0.935726
0.580812 0.427142 0.935726
0.670615 0.427142 0.935726
0.760667 0.427142 0.935726
0.844827 0.427142 0.935726
0.906730 0.427142 0.935726
0.933296 0.427142 0.935726
0.374290 0.498978 0.935726
0.426509 0.498978 0.935726
0.497396 0.498978 0.935726
0.580812 0.498978 0.935726
0.670615 0.498978 0.935726
0.760667 0.498978 0.935726
0.844827 0.498978 0.935726
0.906730 0.498978 0.935726
0.933296 0.498978 0.935726
0.374290 0.583470 0.935726
0.426509 0.583470 0.935726
0.497396 0.583470 0.935726
0.580812 0.583470 0.935726
0.670615 0.583470 0.935726
0.760667 0.583470 0.935726
0.844827 0.583470 0.935726
0.906730 0.583470 0.935726
0.933296 0.583470 0.935726
0.374290 0.674290 0.935726
0.426509 0.674290 0.935726
0.497396 0.674290 0.935726
0.580812 0.674290 0.935726
0.670615 0.674290 0.935726
0.760667 0.674290 0.935726
0.844827 0.674290 0.935726
0.906730 0.674290 0.935726
0.933296 0.674290 0.935726
0.374290 0.765111 0.935726
0.426509 0.765111 0.935726
0.497396 0.765111 0.935726
0.580812 0.765111 0.935726
0.670615 0.765111 0.935726
0.760667 0.765111 0.935726
0.844827 0.765111 0.935726
0.906730 0.765111 0.935726
0.933296 0.765111 0.935726
0.374290 0.849603 0.935726
0.426509 0.849603 0.935726
0.497396 0.849603 0.935726
0.580812 0.849603 0.935726
0.670615 0.849603 0.935726
0.760667 0.849603 0.935726
0.844827 0.849603 0.935726
0.906730 0.849603 0.935726
0.933296 0.849603 0.935726
0.374290 0.909478 0.935726
0.426509 0.909478 0.935726
0.497396 0.909478 0.935726
0.580812 0.909478 0.935726
0.670615 0.909478 0.935726
0.760667 0.909478 0.935726
0.844827 0.909478 0.935726
0.906730 0.909478 0.935726
0.933296 0.909478 0.935726
0.374290 0.934559 0.935726
0.426509 0.934559 0.935726
0.497396 0.934559 0.935726
0.580812 0.934559 0.935726
0.670615 0.934559 0.935726
0.760667 0.934559 0.935726
0.844827 0.934559 0.935726
0.906730 0.934559 0.935726
0.933296 0.934559 0.935726
