luts/PowerGrade Golden Hour.cube
TITLE "PowerGrade Golden Hour"
LUT_3D_SIZE 5
0.018118 0.018118 0.018118
0.260547 0.000000 0.000000
0.539941 0.000000 0.000000
0.810376 0.000000 0.000000
0.932666 0.000000 0.000000
0.000000 0.242125 0.000000
0.259948 0.240790 0.000000
0.536787 0.231832 0.000000
0.804274 0.229170 0.000000
0.929535 0.228460 0.000000
0.000000 0.500000 0.000000
0.247633 0.500000 0.000000
0.530225 0.498931 0.000000
0.800832 0.493036 0.000000
0.931271 0.491443 0.000000
0.000000 0.759375 0.000000
0.246902 0.759375 0.000000
0.537258 0.759375 0.000000
0.819510 0.758015 0.000000
0.938725 0.755845 0.000000
0.000000 0.911709 0.000000
0.253957 0.911709 0.000000
0.549075 0.911709 0.000000
0.826418 0.911709 0.000000
0.940133 0.911150 0.000000
0.018118 0.018118 0.224641
0.260547 0.000000 0.221957
0.539941 0.000000 0.213693
0.810178 0.000000 0.211346
0.932454 0.000000 0.211214
0.000000 0.242125 0.223401
0.259711 0.237729 0.216768
0.536125 0.212725 0.195173
0.803451 0.185993 0.169454
0.929225 0.173415 0.157851
0.000000 0.500000 0.217010
0.232141 0.500000 0.200940
0.530273 0.492432 0.153075
0.802095 0.424476 0.083919
0.932019 0.391995 0.049004
0.000000 0.759375 0.214226
0.209958 0.759375 0.171772
0.520778 0.759375 0.164151
0.821195 0.743920 0.070572
0.939185 0.714423 0.038920
0.000000 0.911709 0.206306
0.203092 0.911709 0.149432
0.521003 0.911709 0.148666
0.807214 0.911709 0.044607
0.940133 0.904603 0.037501
0.018118 0.018118 0.461213
0.252342 0.000000 0.461213
0.539941 0.000000 0.458479
0.809868 0.000000 0.453709
0.932211 0.000000 0.453702
0.018118 0.242125 0.461871
0.259447 0.242125 0.463323
0.535437 0.212794 0.458229
0.802634 0.186074 0.433787
0.928935 0.173444 0.423235
0.000000 0.500000 0.466485
0.231852 0.500000 0.466469
0.530649 0.492338 0.454258
0.803650 0.466734 0.429609
0.932793 0.456721 0.414770
0.000000 0.759375 0.458556
0.210844 0.759375 0.431053
0.524736 0.759375 0.425361
0.822750 0.743531 0.358099
0.939564 0.714328 0.324647
0.000000 0.911709 0.440908
0.203515 0.911709 0.400750
0.521020 0.911709 0.399809
0.807865 0.911709 0.333626
0.940133 0.904603 0.322899
0.018118 0.018118 0.702830
0.248844 0.000000 0.702830
0.535593 0.000000 0.702878
0.809457 0.000000 0.701578
0.931942 0.000000 0.701753
0.018118 0.242125 0.704344
0.259161 0.242125 0.706736
0.517240 0.195370 0.709676
0.801836 0.186154 0.703766
0.928673 0.173471 0.693918
0.018118 0.500000 0.713216
0.256045 0.500000 0.715528
0.531340 0.500000 0.714131
0.805361 0.469464 0.699045
0.933578 0.456642 0.678288
0.000000 0.759375 0.706164
0.211748 0.759375 0.694125
0.526598 0.759375 0.685847
0.824151 0.743181 0.651543
0.939853 0.717819 0.622469
0.000000 0.911709 0.680467
0.203816 0.911709 0.658406
0.521020 0.911709 0.657860
0.817024 0.911709 0.650324
0.940133 0.904603 0.616138
0.018118 0.018118 0.882756
0.252986 0.007611 0.882756
0.532570 0.000000 0.882899
0.807389 0.000000 0.883793
0.931650 0.000000 0.884329
0.018118 0.242125 0.884034
0.258856 0.242125 0.885562
0.505420 0.189882 0.887296
0.792279 0.177442 0.888957
0.928544 0.173483 0.886271
0.018118 0.500000 0.889240
0.256022 0.500000 0.890108
0.532328 0.500000 0.888562
0.799400 0.461500 0.884998
0.934364 0.456564 0.875170
0.000000 0.756764 0.884206
0.248747 0.756722 0.879668
0.549378 0.759375 0.875074
0.820791 0.748189 0.871235
0.940045 0.741308 0.861961
0.000000 0.911709 0.869837
0.203982 0.911709 0.864632
0.521020 0.911709 0.864577
0.819753 0.911709 0.864577
0.940133 0.904603 0.851044
