luts/PowerGrade Silver Bleach.cube
TITLE "PowerGrade Silver Bleach"
LUT_3D_SIZE 5
0.000000 0.000000 0.000000
0.205176 0.075102 0.075102
0.493875 0.197550 0.197550
0.784228 0.313691 0.313691
0.931676 0.372671 0.372671
0.076823 0.207813 0.076823
0.206151 0.207813 0.076823
0.493875 0.322238 0.197550
0.784228 0.438379 0.313691
0.931676 0.497358 0.372671
0.200000 0.500000 0.200000
0.323106 0.500000 0.200000
0.496325 0.500000 0.200000
0.784228 0.613691 0.313691
0.931676 0.672671 0.372671
0.316875 0.792188 0.316875
0.439981 0.792188 0.316875
0.613200 0.792188 0.316875
0.787412 0.792188 0.316875
0.931676 0.847983 0.372671
0.373513 0.933782 0.373513
0.496618 0.933782 0.373513
0.669838 0.933782 0.373513
0.844050 0.933782 0.373513
0.932518 0.933782 0.373513
0.078531 0.078531 0.210457
0.207147 0.078531 0.210457
0.493875 0.197550 0.323824
0.784228 0.313691 0.439966
0.931676 0.372671 0.498945
0.078531 0.208799 0.210457
0.207147 0.208799 0.210457
0.493875 0.322238 0.323824
0.784228 0.438379 0.439966
0.931676 0.497358 0.498945
0.200000 0.500000 0.326274
0.323106 0.500000 0.326274
0.496325 0.500000 0.326274
0.784228 0.613691 0.439966
0.931676 0.672671 0.498945
0.316875 0.792188 0.443149
0.439981 0.792188 0.443149
0.613200 0.792188 0.443149
0.787412 0.792188 0.443149
0.931676 0.847983 0.498945
0.373513 0.933782 0.499787
0.496618 0.933782 0.499787
0.669838 0.933782 0.499787
0.844050 0.933782 0.499787
0.932518 0.933782 0.499787
0.202450 0.202450 0.506125
0.325556 0.202450 0.506125
0.498775 0.202450 0.506125
0.784228 0.313691 0.617366
0.931676 0.372671 0.676345
0.202450 0.327137 0.506125
0.325556 0.327137 0.506125
0.498775 0.327137 0.506125
0.784228 0.438379 0.617366
0.931676 0.497358 0.676345
0.202450 0.502450 0.506125
0.325556 0.502450 0.506125
0.498775 0.502450 0.506125
0.784228 0.613691 0.617366
0.931676 0.672671 0.676345
0.316875 0.792188 0.620550
0.439981 0.792188 0.620550
0.613200 0.792188 0.620550
0.787412 0.792188 0.620550
0.931676 0.847983 0.676345
0.373513 0.933782 0.677188
0.496618 0.933782 0.677188
0.669838 0.933782 0.677188
0.844050 0.933782 0.677188
0.932518 0.933782 0.677188
0.320028 0.320028 0.800071
0.443134 0.320028 0.800071
0.616353 0.320028 0.800071
0.790565 0.320028 0.800071
0.931676 0.372671 0.852713
0.320028 0.444716 0.800071
0.443134 0.444716 0.800071
0.616353 0.444716 0.800071
0.790565 0.444716 0.800071
0.931676 0.497358 0.852713
0.320028 0.620028 0.800071
0.443134 0.620028 0.800071
0.616353 0.620028 0.800071
0.790565 0.620028 0.800071
0.931676 0.672671 0.852713
0.320028 0.795341 0.800071
0.443134 0.795341 0.800071
0.616353 0.795341 0.800071
0.790565 0.795341 0.800071
0.931676 0.847983 0.852713
0.373513 0.933782 0.853555
0.496618 0.933782 0.853555
0.669838 0.933782 0.853555
0.844050 0.933782 0.853555
0.932518 0.933782 0.853555
0.374290 0.374290 0.935726
0.497396 0.374290 0.935726
0.670615 0.374290 0.935726
0.844827 0.374290 0.935726
0.933296 0.374290 0.935726
0.374290 0.498978 0.935726
0.497396 0.498978 0.935726
0.670615 0.498978 0.935726
0.844827 0.498978 0.935726
0.933296 0.498978 0.935726
0.374290 0.674290 0.935726
0.497396 0.674290 0.935726
0.670615 0.674290 0.935726
0.844827 0.674290 0.935726
0.933296 0.674290 0.935726
0.374290 0.849603 0.935726
0.497396 0.849603 0.935726
0.670615 0.849603 0.935726
0.844827 0.849603 0.935726
0.933296 0.849603 0.935726
0.374290 0.934559 0.935726
0.497396 0.934559 0.935726
0.670615 0.934559 0.935726
0.844827 0.934559 0.935726
0.933296 0.934559 0.935726
