luts/PowerGrade Golden Hour.cube
TITLE "PowerGrade Golden Hour"
LUT_3D_SIZE 33
0.018118 0.018118 0.018118
0.048448 0.017374 0.017374
0.078253 0.014916 0.014916
0.107760 0.010886 0.010886
0.137227 0.006452 0.006452
0.166934 0.003237 0.003237
0.197178 0.000212 0.000212
0.228275 0.000000 0.000000
0.260547 0.000000 0.000000
0.294323 0.000000 0.000000
0.328973 0.000000 0.000000
0.363845 0.000000 0.000000
0.398894 0.000000 0.000000
0.434074 0.000000 0.000000
0.469338 0.000000 0.000000
0.504643 0.000000 0.000000
0.539941 0.000000 0.000000
0.575188 0.000000 0.000000
0.610338 0.000000 0.000000
0.645345 0.000000 0.000000
0.680163 0.000000 0.000000
0.714747 0.000000 0.000000
0.749046 0.000000 0.000000
0.781927 0.000000 0.000000
0.810376 0.000000 0.000000
0.834806 0.000000 0.000000
0.855792 0.000000 0.000000
0.873830 0.000000 0.000000
0.889342 0.000000 0.000000
0.902693 0.000000 0.000000
0.914194 0.000000 0.000000
0.924109 0.000000 0.000000
0.932666 0.000000 0.000000
0.017478 0.046323 0.017478
0.048448 0.046193 0.016256
0.078253 0.042073 0.010113
0.107760 0.034488 0.000850
0.137227 0.032495 0.000000
0.166934 0.031639 0.000000
0.197178 0.031059 0.000000
0.228275 0.030636 0.000000
0.260547 0.030313 0.000000
0.294323 0.030055 0.000000
0.328973 0.029849 0.000000
0.363845 0.029683 0.000000
0.398894 0.029547 0.000000
0.434074 0.029433 0.000000
0.469338 0.029337 0.000000
0.504643 0.029255 0.000000
0.539941 0.029184 0.000000
0.575188 0.029122 0.000000
0.610338 0.029068 0.000000
0.645337 0.029020 0.000000
0.680124 0.028977 0.000000
0.714649 0.028938 0.000000
0.748865 0.028904 0.000000
0.781683 0.028874 0.000000
0.810093 0.028850 0.000000
0.834498 0.028831 0.000000
0.855470 0.028815 0.000000
0.873501 0.028802 0.000000
0.889015 0.028792 0.000000
0.902372 0.028783 0.000000
0.913882 0.028775 0.000000
0.923810 0.028769 0.000000
0.932382 0.028764 0.000000
0.015374 0.074061 0.015374
0.047192 0.074061 0.015374
0.078253 0.073503 0.010113
0.107760 0.067264 0.000039
0.137227 0.064452 0.000000
0.166934 0.062753 0.000000
0.197178 0.061603 0.000000
0.228275 0.060765 0.000000
0.260547 0.060123 0.000000
0.294323 0.059612 0.000000
0.328973 0.059203 0.000000
0.363845 0.058874 0.000000
0.398894 0.058604 0.000000
0.434074 0.058379 0.000000
0.469338 0.058189 0.000000
0.504643 0.058026 0.000000
0.539932 0.057885 0.000000
0.575147 0.057762 0.000000
0.610240 0.057654 0.000000
0.645164 0.057559 0.000000
0.679870 0.057474 0.000000
0.714313 0.057398 0.000000
0.748444 0.057330 0.000000
0.781222 0.057271 0.000000
0.809624 0.057223 0.000000
0.834030 0.057185 0.000000
0.855010 0.057153 0.000000
0.873056 0.057128 0.000000
0.888588 0.057107 0.000000
0.901966 0.057089 0.000000
0.913499 0.057074 0.000000
0.923451 0.057062 0.000000
0.932047 0.057051 0.000000
0.011830 0.101512 0.011830
0.044447 0.101512 0.011830
0.075049 0.101512 0.006632
0.107760 0.100252 0.000039
0.137227 0.096079 0.000000
0.166934 0.093547 0.000000
0.197178 0.091832 0.000000
0.228275 0.090583 0.000000
0.260547 0.089626 0.000000
0.294323 0.088864 0.000000
0.328973 0.088254 0.000000
0.363845 0.087764 0.000000
0.398894 0.087362 0.000000
0.434062 0.087026 0.000000
0.469298 0.086742 0.000000
0.504551 0.086500 0.000000
0.539773 0.086290 0.000000
0.574917 0.086107 0.000000
0.609936 0.085947 0.000000
0.644781 0.085805 0.000000
0.679407 0.085678 0.000000
0.713767 0.085566 0.000000
0.747815 0.085464 0.000000
0.780572 0.085375 0.000000
0.808993 0.085304 0.000000
0.833423 0.085247 0.000000
0.854433 0.085200 0.000000
0.872511 0.085162 0.000000
0.888077 0.085130 0.000000
0.901489 0.085104 0.000000
0.913056 0.085082 0.000000
0.923042 0.085063 0.000000
0.931670 0.085048 0.000000
0.007639 0.128879 0.007639
0.040839 0.128879 0.007639
0.073463 0.128879 0.007639
0.104305 0.128879 0.000000
0.137227 0.127610 0.000000
0.166934 0.124246 0.000000
0.197178 0.121969 0.000000
0.228275 0.120310 0.000000
0.260547 0.119039 0.000000
0.294322 0.118027 0.000000
0.328962 0.117217 0.000000
0.363808 0.116566 0.000000
0.398812 0.116033 0.000000
0.433925 0.115587 0.000000
0.469099 0.115211 0.000000
0.504285 0.114889 0.000000
0.539437 0.114611 0.000000
0.574508 0.114368 0.000000
0.609449 0.114155 0.000000
0.644215 0.113966 0.000000
0.678761 0.113799 0.000000
0.713040 0.113649 0.000000
0.747008 0.113514 0.000000
0.779760 0.113396 0.000000
0.808224 0.113301 0.000000
0.832701 0.113225 0.000000
0.853759 0.113163 0.000000
0.871885 0.113112 0.000000
0.887497 0.113069 0.000000
0.900956 0.113034 0.000000
0.912567 0.113005 0.000000
0.922595 0.112980 0.000000
0.931263 0.112959 0.000000
0.004292 0.156384 0.004292
0.037655 0.156384 0.004292
0.070439 0.156384 0.004292
0.101388 0.156384 0.000000
0.134716 0.156384 0.000000
0.166934 0.155099 0.000000
0.197178 0.152256 0.000000
0.228265 0.150186 0.000000
0.260517 0.148600 0.000000
0.294255 0.147337 0.000000
0.328850 0.146327 0.000000
0.363646 0.145515 0.000000
0.398593 0.144850 0.000000
0.433644 0.144294 0.000000
0.468752 0.143824 0.000000
0.503869 0.143423 0.000000
0.538948 0.143075 0.000000
0.573942 0.142772 0.000000
0.608806 0.142506 0.000000
0.643494 0.142271 0.000000
0.677961 0.142062 0.000000
0.712162 0.141875 0.000000
0.746054 0.141707 0.000000
0.778814 0.141559 0.000000
0.807343 0.141439 0.000000
0.831885 0.141344 0.000000
0.853006 0.141266 0.000000
0.871193 0.141202 0.000000
0.886865 0.141149 0.000000
0.900380 0.141105 0.000000
0.912044 0.141068 0.000000
0.922121 0.141036 0.000000
0.930835 0.141010 0.000000
0.001504 0.184260 0.001504
0.034867 0.184260 0.001504
0.067652 0.184260 0.001504
0.100109 0.184260 0.001504
0.132091 0.184260 0.000000
0.165022 0.184260 0.000000
0.197134 0.182957 0.000000
0.228190 0.180471 0.000000
0.260401 0.178566 0.000000
0.294089 0.177049 0.000000
0.328631 0.175836 0.000000
0.363370 0.174860 0.000000
0.398255 0.174060 0.000000
0.433240 0.173393 0.000000
0.468279 0.172828 0.000000
0.503323 0.172345 0.000000
0.538327 0.171928 0.000000
0.573246 0.171564 0.000000
0.608034 0.171244 0.000000
0.642645 0.170961 0.000000
0.677036 0.170710 0.000000
0.711164 0.170485 0.000000
0.744984 0.170283 0.000000
0.777762 0.170104 0.000000
0.806374 0.169960 0.000000
0.830996 0.169844 0.000000
0.852195 0.169750 0.000000
0.870456 0.169673 0.000000
0.886197 0.169609 0.000000
0.899776 0.169556 0.000000
0.911500 0.169511 0.000000
0.921632 0.169473 0.000000
0.930397 0.169441 0.000000
0.000000 0.212755 0.000000
0.033151 0.212755 0.000000
0.065722 0.212755 0.000000
0.097960 0.212755 0.000000
0.130143 0.212755 0.000000
0.162572 0.212755 0.000000
0.195569 0.212755 0.000000
0.228047 0.211435 0.000000
0.260208 0.209203 0.000000
0.293835 0.207427 0.000000
0.328320 0.206005 0.000000
0.362996 0.204862 0.000000
0.397815 0.203924 0.000000
0.432731 0.203142 0.000000
0.467698 0.202480 0.000000
0.502669 0.201914 0.000000
0.537599 0.201425 0.000000
0.572443 0.200998 0.000000
0.607157 0.200623 0.000000
0.641695 0.200292 0.000000
0.676015 0.199997 0.000000
0.710073 0.199733 0.000000
0.743827 0.199496 0.000000
0.776631 0.199286 0.000000
0.805342 0.199116 0.000000
0.830059 0.198980 0.000000
0.851347 0.198869 0.000000
0.869691 0.198777 0.000000
0.885509 0.198702 0.000000
0.899159 0.198639 0.000000
0.910949 0.198586 0.000000
0.921141 0.198542 0.000000
0.929960 0.198504 0.000000
0.000000 0.242125 0.000000
0.032769 0.242125 0.000000
0.064958 0.242125 0.000000
0.096812 0.242125 0.000000
0.128605 0.242125 0.000000
0.160635 0.242125 0.000000
0.193220 0.242125 0.000000
0.226690 0.242125 0.000000
0.259948 0.240790 0.000000
0.293506 0.238745 0.000000
0.327929 0.237107 0.000000
0.362539 0.235791 0.000000
0.397290 0.234711 0.000000
0.432136 0.233810 0.000000
0.467031 0.233048 0.000000
0.501930 0.232396 0.000000
0.536787 0.231832 0.000000
0.571559 0.231340 0.000000
0.606201 0.230908 0.000000
0.640671 0.230526 0.000000
0.674925 0.230186 0.000000
0.708921 0.229882 0.000000
0.742617 0.229609 0.000000
0.775451 0.229366 0.000000
0.804274 0.229170 0.000000
0.829097 0.229012 0.000000
0.850482 0.228883 0.000000
0.868917 0.228777 0.000000
0.884818 0.228690 0.000000
0.898545 0.228617 0.000000
0.910404 0.228556 0.000000
0.920658 0.228504 0.000000
0.929535 0.228460 0.000000
0.000000 0.272635 0.000000
0.032453 0.272635 0.000000
0.064327 0.272635 0.000000
0.095863 0.272635 0.000000
0.127334 0.272635 0.000000
0.159034 0.272635 0.000000
0.191276 0.272635 0.000000
0.224388 0.272635 0.000000
0.258706 0.272635 0.000000
0.293116 0.271286 0.000000
0.327474 0.269424 0.000000
0.362017 0.267926 0.000000
0.396698 0.266698 0.000000
0.431474 0.265673 0.000000
0.466298 0.264806 0.000000
0.501126 0.264064 0.000000
0.535913 0.263423 0.000000
0.570617 0.262864 0.000000
0.605194 0.262372 0.000000
0.639601 0.261937 0.000000
0.673795 0.261550 0.000000
0.707736 0.261204 0.000000
0.741382 0.260893 0.000000
0.774251 0.260616 0.000000
0.803196 0.260391 0.000000
0.828132 0.260210 0.000000
0.849623 0.260063 0.000000
0.868153 0.259942 0.000000
0.884142 0.259842 0.000000
0.897948 0.259758 0.000000
0.909879 0.259688 0.000000
0.920199 0.259629 0.000000
0.929133 0.259579 0.000000
0.000000 0.304443 0.000000
0.032183 0.304443 0.000000
0.063788 0.304443 0.000000
0.095054 0.304443 0.000000
0.126250 0.304443 0.000000
0.157668 0.304443 0.000000
0.189617 0.304443 0.000000
0.222421 0.304443 0.000000
0.256413 0.304443 0.000000
0.291933 0.304443 0.000000
0.326968 0.303122 0.000000
0.361443 0.301435 0.000000
0.396056 0.300051 0.000000
0.430763 0.298897 0.000000
0.465518 0.297920 0.000000
0.500279 0.297084 0.000000
0.535002 0.296362 0.000000
0.569643 0.295731 0.000000
0.604160 0.295177 0.000000
0.638511 0.294687 0.000000
0.672655 0.294251 0.000000
0.706549 0.293861 0.000000
0.740154 0.293510 0.000000
0.773060 0.293197 0.000000
0.802136 0.292942 0.000000
0.827191 0.292737 0.000000
0.848791 0.292570 0.000000
0.867421 0.292433 0.000000
0.883500 0.292320 0.000000
0.897387 0.292225 0.000000
0.909390 0.292146 0.000000
0.919774 0.292079 0.000000
0.928766 0.292022 0.000000
0.000000 0.336700 0.000000
0.031953 0.336700 0.000000
0.063327 0.336700 0.000000
0.094362 0.336700 0.000000
0.125323 0.336700 0.000000
0.156500 0.336700 0.000000
0.188199 0.336700 0.000000
0.220739 0.336700 0.000000
0.254452 0.336700 0.000000
0.289672 0.336700 0.000000
0.325843 0.336700 0.000000
0.360835 0.335425 0.000000
0.395382 0.333882 0.000000
0.430022 0.332595 0.000000
0.464713 0.331507 0.000000
0.499412 0.330575 0.000000
0.534075 0.329769 0.000000
0.568660 0.329067 0.000000
0.603125 0.328449 0.000000
0.637429 0.327902 0.000000
0.671531 0.327416 0.000000
0.705389 0.326981 0.000000
0.738965 0.326590 0.000000
0.771911 0.326240 0.000000
0.801120 0.325954 0.000000
0.826298 0.325724 0.000000
0.848008 0.325537 0.000000
0.866739 0.325384 0.000000
0.882908 0.325257 0.000000
0.896876 0.325151 0.000000
0.908963 0.325062 0.000000
0.919447 0.324986 0.000000
0.928547 0.324922 0.000000
0.000000 0.369141 0.000000
0.031751 0.369141 0.000000
0.062926 0.369141 0.000000
0.093760 0.369141 0.000000
0.124517 0.369141 0.000000
0.155485 0.369141 0.000000
0.186966 0.369141 0.000000
0.219278 0.369141 0.000000
0.252748 0.369141 0.000000
0.287707 0.369141 0.000000
0.323630 0.369141 0.000000
0.359747 0.369141 0.000000
0.394691 0.367911 0.000000
0.429271 0.366491 0.000000
0.463903 0.365289 0.000000
0.498546 0.364260 0.000000
0.533157 0.363371 0.000000
0.567694 0.362595 0.000000
0.602116 0.361913 0.000000
0.636383 0.361309 0.000000
0.670453 0.360772 0.000000
0.704287 0.360291 0.000000
0.737844 0.359859 0.000000
0.770833 0.359472 0.000000
0.800177 0.359155 0.000000
0.825478 0.358900 0.000000
0.847299 0.358692 0.000000
0.866153 0.358522 0.000000
0.882468 0.358380 0.000000
0.896591 0.358262 0.000000
0.908824 0.358163 0.000000
0.919425 0.358079 0.000000
0.928616 0.358007 0.000000
0.000000 0.401727 0.000000
0.031573 0.401727 0.000000
0.062570 0.401727 0.000000
0.093226 0.401727 0.000000
0.123804 0.401727 0.000000
0.154588 0.401727 0.000000
0.185878 0.401727 0.000000
0.217989 0.401727 0.000000
0.251244 0.401727 0.000000
0.285974 0.401727 0.000000
0.321684 0.401727 0.000000
0.357587 0.401727 0.000000
0.393638 0.401727 0.000000
0.428527 0.400544 0.000000
0.463107 0.399228 0.000000
0.497702 0.398101 0.000000
0.532270 0.397127 0.000000
0.566769 0.396277 0.000000
0.601159 0.395530 0.000000
0.635399 0.394869 0.000000
0.669449 0.394280 0.000000
0.703271 0.393753 0.000000
0.736823 0.393280 0.000000
0.769860 0.392855 0.000000
0.799384 0.392505 0.000000
0.824893 0.392224 0.000000
0.846936 0.391995 0.000000
0.865989 0.391806 0.000000
0.882463 0.391650 0.000000
0.896711 0.391520 0.000000
0.909040 0.391410 0.000000
0.919712 0.391318 0.000000
0.928956 0.391240 0.000000
0.000000 0.434424 0.000000
0.031412 0.434424 0.000000
0.062250 0.434424 0.000000
0.092748 0.434424 0.000000
0.123166 0.434424 0.000000
0.153785 0.434424 0.000000
0.184906 0.434424 0.000000
0.216838 0.434424 0.000000
0.249905 0.434424 0.000000
0.284433 0.434424 0.000000
0.319956 0.434424 0.000000
0.355675 0.434424 0.000000
0.391545 0.434424 0.000000
0.427522 0.434424 0.000000
0.462347 0.433285 0.000000
0.496903 0.432059 0.000000
0.531437 0.431000 0.000000
0.565909 0.430075 0.000000
0.600278 0.429262 0.000000
0.634505 0.428543 0.000000
0.668555 0.427902 0.000000
0.702438 0.427328 0.000000
0.736129 0.426811 0.000000
0.769405 0.426345 0.000000
0.799198 0.425962 0.000000
0.824922 0.425654 0.000000
0.847136 0.425404 0.000000
0.866320 0.425198 0.000000
0.882891 0.425028 0.000000
0.897210 0.424886 0.000000
0.909586 0.424767 0.000000
0.920288 0.424666 0.000000
0.929545 0.424581 0.000000
0.000000 0.467194 0.000000
0.031265 0.467194 0.000000
0.061959 0.467194 0.000000
0.092315 0.467194 0.000000
0.122589 0.467194 0.000000
0.153063 0.467194 0.000000
0.184032 0.467194 0.000000
0.215806 0.467194 0.000000
0.248706 0.467194 0.000000
0.283056 0.467194 0.000000
0.318418 0.467194 0.000000
0.353979 0.467194 0.000000
0.389695 0.467194 0.000000
0.425522 0.467194 0.000000
0.461418 0.467194 0.000000
0.496170 0.466095 0.000000
0.530683 0.464949 0.000000
0.565150 0.463949 0.000000
0.599576 0.463069 0.000000
0.633929 0.462288 0.000000
0.668176 0.461592 0.000000
0.702282 0.460968 0.000000
0.736212 0.460406 0.000000
0.769726 0.459901 0.000000
0.799696 0.459486 0.000000
0.825553 0.459152 0.000000
0.847862 0.458881 0.000000
0.867111 0.458659 0.000000
0.883721 0.458475 0.000000
0.898057 0.458322 0.000000
0.910435 0.458194 0.000000
0.921124 0.458086 0.000000
0.930351 0.457995 0.000000
0.000000 0.500000 0.000000
0.031131 0.500000 0.000000
0.061695 0.500000 0.000000
0.091922 0.500000 0.000000
0.122067 0.500000 0.000000
0.152410 0.500000 0.000000
0.183245 0.500000 0.000000
0.214880 0.500000 0.000000
0.247633 0.500000 0.000000
0.281828 0.500000 0.000000
0.317051 0.500000 0.000000
0.352479 0.500000 0.000000
0.388065 0.500000 0.000000
0.423769 0.500000 0.000000
0.459562 0.500000 0.000000
0.495437 0.500000 0.000000
0.530225 0.498931 0.000000
0.564862 0.497851 0.000000
0.599479 0.496900 0.000000
0.634042 0.496057 0.000000
0.668515 0.495306 0.000000
0.702861 0.494632 0.000000
0.737044 0.494026 0.000000
0.770773 0.493482 0.000000
0.800832 0.493036 0.000000
0.826742 0.492679 0.000000
0.849075 0.492389 0.000000
0.868324 0.492151 0.000000
0.884914 0.491954 0.000000
0.899204 0.491791 0.000000
0.911515 0.491654 0.000000
0.922124 0.491540 0.000000
0.931271 0.491443 0.000000
0.000000 0.532806 0.000000
0.031009 0.532806 0.000000
0.061455 0.532806 0.000000
0.091565 0.532806 0.000000
0.121596 0.532806 0.000000
0.151823 0.532806 0.000000
0.182539 0.532806 0.000000
0.214052 0.532806 0.000000
0.246678 0.532806 0.000000
0.280739 0.532806 0.000000
0.315845 0.532806 0.000000
0.351180 0.532806 0.000000
0.386720 0.532806 0.000000
0.422434 0.532806 0.000000
0.458286 0.532806 0.000000
0.494242 0.532806 0.000000
0.530269 0.532806 0.000000
0.565189 0.531734 0.000000
0.600020 0.530714 0.000000
0.634813 0.529809 0.000000
0.669529 0.529004 0.000000
0.704130 0.528282 0.000000
0.738577 0.527632 0.000000
0.772491 0.527050 0.000000
0.802553 0.526576 0.000000
0.828434 0.526196 0.000000
0.850700 0.525888 0.000000
0.869853 0.525637 0.000000
0.886329 0.525429 0.000000
0.900506 0.525256 0.000000
0.912707 0.525112 0.000000
0.923211 0.524991 0.000000
0.932257 0.524889 0.000000
0.000000 0.565576 0.000000
0.030898 0.565576 0.000000
0.061237 0.565576 0.000000
0.091243 0.565576 0.000000
0.121172 0.565576 0.000000
0.151297 0.565576 0.000000
0.181911 0.565576 0.000000
0.213319 0.565576 0.000000
0.245853 0.565576 0.000000
0.279853 0.565576 0.000000
0.314955 0.565576 0.000000
0.350323 0.565576 0.000000
0.385920 0.565576 0.000000
0.421711 0.565576 0.000000
0.457662 0.565576 0.000000
0.493736 0.565576 0.000000
0.529899 0.565576 0.000000
0.566095 0.565559 0.000000
0.601160 0.564470 0.000000
0.636200 0.563506 0.000000
0.671174 0.562646 0.000000
0.706043 0.561877 0.000000
0.740753 0.561184 0.000000
0.774768 0.560567 0.000000
0.804697 0.560068 0.000000
0.830424 0.559669 0.000000
0.852534 0.559345 0.000000
0.871535 0.559081 0.000000
0.887864 0.558862 0.000000
0.901900 0.558681 0.000000
0.913969 0.558530 0.000000
0.924348 0.558403 0.000000
0.933280 0.558296 0.000000
0.000000 0.598273 0.000000
0.030798 0.598273 0.000000
0.061041 0.598273 0.000000
0.090956 0.598273 0.000000
0.120796 0.598273 0.000000
0.150845 0.598273 0.000000
0.181406 0.598273 0.000000
0.212791 0.598273 0.000000
0.245329 0.598273 0.000000
0.279358 0.598273 0.000000
0.314512 0.598273 0.000000
0.349954 0.598273 0.000000
0.385645 0.598273 0.000000
0.421551 0.598273 0.000000
0.457634 0.598273 0.000000
0.493859 0.598273 0.000000
0.530189 0.598273 0.000000
0.566583 0.598273 0.000000
0.602860 0.598131 0.000000
0.638147 0.597108 0.000000
0.673350 0.596197 0.000000
0.708423 0.595382 0.000000
0.743318 0.594649 0.000000
0.777328 0.594000 0.000000
0.807053 0.593478 0.000000
0.832580 0.593060 0.000000
0.854497 0.592722 0.000000
0.873314 0.592446 0.000000
0.889471 0.592218 0.000000
0.903345 0.592029 0.000000
0.915264 0.591871 0.000000
0.925505 0.591739 0.000000
0.934310 0.591627 0.000000
0.000000 0.630859 0.000000
0.030709 0.630859 0.000000
0.060874 0.630859 0.000000
0.090729 0.630859 0.000000
0.120533 0.630859 0.000000
0.150566 0.630859 0.000000
0.181131 0.630859 0.000000
0.212542 0.630859 0.000000
0.245129 0.630859 0.000000
0.279236 0.630859 0.000000
0.314480 0.630859 0.000000
0.350032 0.630859 0.000000
0.385853 0.630859 0.000000
0.421905 0.630859 0.000000
0.458153 0.630859 0.000000
0.494557 0.630859 0.000000
0.531063 0.630859 0.000000
0.567621 0.630859 0.000000
0.604185 0.630859 0.000000
0.640425 0.630581 0.000000
0.675812 0.629621 0.000000
0.711062 0.628762 0.000000
0.746127 0.627991 0.000000
0.780066 0.627311 0.000000
0.809545 0.626769 0.000000
0.834836 0.626334 0.000000
0.856531 0.625983 0.000000
0.875141 0.625695 0.000000
0.891104 0.625458 0.000000
0.904801 0.625262 0.000000
0.916557 0.625098 0.000000
0.926651 0.624961 0.000000
0.935322 0.624845 0.000000
0.000000 0.663300 0.000000
0.030649 0.663300 0.000000
0.060776 0.663300 0.000000
0.090612 0.663300 0.000000
0.120416 0.663300 0.000000
0.150469 0.663300 0.000000
0.181074 0.663300 0.000000
0.212549 0.663300 0.000000
0.245228 0.663300 0.000000
0.279458 0.663300 0.000000
0.314828 0.663300 0.000000
0.350523 0.663300 0.000000
0.386502 0.663300 0.000000
0.422714 0.663300 0.000000
0.459114 0.663300 0.000000
0.495657 0.663300 0.000000
0.532300 0.663300 0.000000
0.568993 0.663300 0.000000
0.605691 0.663300 0.000000
0.642343 0.663300 0.000000
0.678472 0.662883 0.000000
0.713885 0.661982 0.000000
0.749103 0.661173 0.000000
0.782904 0.660466 0.000000
0.812102 0.659904 0.000000
0.837130 0.659454 0.000000
0.858581 0.659090 0.000000
0.876965 0.658792 0.000000
0.892722 0.658547 0.000000
0.906231 0.658344 0.000000
0.917817 0.658174 0.000000
0.927758 0.658032 0.000000
0.936291 0.657913 0.000000
0.000000 0.695557 0.000000
0.030626 0.695557 0.000000
0.060748 0.695557 0.000000
0.090598 0.695557 0.000000
0.120434 0.695557 0.000000
0.150539 0.695557 0.000000
0.181218 0.695557 0.000000
0.212793 0.695557 0.000000
0.245602 0.695557 0.000000
0.279995 0.695557 0.000000
0.315507 0.695557 0.000000
0.351339 0.695557 0.000000
0.387451 0.695557 0.000000
0.423797 0.695557 0.000000
0.460333 0.695557 0.000000
0.497013 0.695557 0.000000
0.533791 0.695557 0.000000
0.570616 0.695557 0.000000
0.607440 0.695557 0.000000
0.644211 0.695557 0.000000
0.680878 0.695557 0.000000
0.716817 0.695005 0.000000
0.752167 0.694159 0.000000
0.785763 0.693428 0.000000
0.814657 0.692848 0.000000
0.839403 0.692383 0.000000
0.860595 0.692007 0.000000
0.878742 0.691700 0.000000
0.894285 0.691447 0.000000
0.907601 0.691237 0.000000
0.919014 0.691063 0.000000
0.928799 0.690916 0.000000
0.937195 0.690793 0.000000
0.000000 0.727594 0.000000
0.030636 0.727594 0.000000
0.060785 0.727594 0.000000
0.090679 0.727594 0.000000
0.120577 0.727594 0.000000
0.150764 0.727594 0.000000
0.181545 0.727594 0.000000
0.213241 0.727594 0.000000
0.246189 0.727594 0.000000
0.280742 0.727594 0.000000
0.316381 0.727594 0.000000
0.352346 0.727594 0.000000
0.388592 0.727594 0.000000
0.425074 0.727594 0.000000
0.461746 0.727594 0.000000
0.498560 0.727594 0.000000
0.535466 0.727594 0.000000
0.572415 0.727594 0.000000
0.609354 0.727594 0.000000
0.646232 0.727594 0.000000
0.682994 0.727594 0.000000
0.719585 0.727594 0.000000
0.755242 0.726914 0.000000
0.788573 0.726160 0.000000
0.817146 0.725563 0.000000
0.841599 0.725086 0.000000
0.862523 0.724699 0.000000
0.880430 0.724383 0.000000
0.895756 0.724122 0.000000
0.908878 0.723907 0.000000
0.920118 0.723727 0.000000
0.929752 0.723576 0.000000
0.938013 0.723450 0.000000
0.000000 0.759375 0.000000
0.030677 0.759375 0.000000
0.060882 0.759375 0.000000
0.090846 0.759375 0.000000
0.120826 0.759375 0.000000
0.151105 0.759375 0.000000
0.181991 0.759375 0.000000
0.213809 0.759375 0.000000
0.246902 0.759375 0.000000
0.281623 0.759375 0.000000
0.317395 0.759375 0.000000
0.353494 0.759375 0.000000
0.389876 0.759375 0.000000
0.426491 0.759375 0.000000
0.463294 0.759375 0.000000
0.500233 0.759375 0.000000
0.537258 0.759375 0.000000
0.574317 0.759375 0.000000
0.611358 0.759375 0.000000
0.648325 0.759375 0.000000
0.685163 0.759375 0.000000
0.721815 0.759375 0.000000
0.758225 0.759375 0.000000
0.791265 0.758628 0.000000
0.819510 0.758015 0.000000
0.843665 0.757525 0.000000
0.864321 0.757128 0.000000
0.881988 0.756803 0.000000
0.897100 0.756536 0.000000
0.910033 0.756315 0.000000
0.921106 0.756130 0.000000
0.930592 0.755975 0.000000
0.938725 0.755845 0.000000
0.000000 0.788961 0.000000
0.030746 0.788961 0.000000
0.061027 0.788961 0.000000
0.091072 0.788961 0.000000
0.121142 0.788961 0.000000
0.151523 0.788961 0.000000
0.182525 0.788961 0.000000
0.214476 0.788961 0.000000
0.247723 0.788961 0.000000
0.282620 0.788961 0.000000
0.318527 0.788961 0.000000
0.354761 0.788961 0.000000
0.391274 0.788961 0.000000
0.428019 0.788961 0.000000
0.464944 0.788961 0.000000
0.501999 0.788961 0.000000
0.539131 0.788961 0.000000
0.576287 0.788961 0.000000
0.613412 0.788961 0.000000
0.650449 0.788961 0.000000
0.687343 0.788961 0.000000
0.724034 0.788961 0.000000
0.760463 0.788961 0.000000
0.793775 0.788849 0.000000
0.821692 0.788223 0.000000
0.845553 0.787722 0.000000
0.865946 0.787316 0.000000
0.883378 0.786984 0.000000
0.898285 0.786711 0.000000
0.911036 0.786484 0.000000
0.921951 0.786295 0.000000
0.931299 0.786137 0.000000
0.939312 0.786004 0.000000
0.000000 0.814656 0.000000
0.030832 0.814656 0.000000
0.061203 0.814656 0.000000
0.091343 0.814656 0.000000
0.121515 0.814656 0.000000
0.152007 0.814656 0.000000
0.183132 0.814656 0.000000
0.215224 0.814656 0.000000
0.248631 0.814656 0.000000
0.283705 0.814656 0.000000
0.319747 0.814656 0.000000
0.356112 0.814656 0.000000
0.392753 0.814656 0.000000
0.429619 0.814656 0.000000
0.466657 0.814656 0.000000
0.503815 0.814656 0.000000
0.541040 0.814656 0.000000
0.578275 0.814656 0.000000
0.615465 0.814656 0.000000
0.652552 0.814656 0.000000
0.689478 0.814656 0.000000
0.726185 0.814656 0.000000
0.762581 0.814656 0.000000
0.795618 0.814656 0.000000
0.823639 0.814453 0.000000
0.847215 0.813944 0.000000
0.867356 0.813531 0.000000
0.884566 0.813194 0.000000
0.899278 0.812916 0.000000
