luts/PowerGrade Desert Day.cube
TITLE "PowerGrade Desert Day"
LUT_3D_SIZE 33
0.000000 0.000000 0.000000
0.021986 0.000000 0.000000
0.046008 0.000000 0.000000
0.071926 0.000000 0.000000
0.099599 0.000000 0.000000
0.128887 0.000000 0.000000
0.159651 0.000000 0.000000
0.191750 0.000000 0.000000
0.225045 0.000000 0.000000
0.259394 0.000000 0.000000
0.294659 0.000000 0.000000
0.330699 0.000000 0.000000
0.367374 0.000000 0.000000
0.404544 0.000000 0.000000
0.442069 0.000000 0.000000
0.479808 0.000000 0.000000
0.517623 0.000000 0.000000
0.555372 0.000000 0.000000
0.592916 0.000000 0.000000
0.630114 0.000000 0.000000
0.666827 0.000000 0.000000
0.702914 0.000000 0.000000
0.738236 0.000000 0.000000
0.772653 0.000000 0.000000
0.806023 0.000000 0.000000
0.838208 0.000000 0.000000
0.867905 0.000000 0.000000
0.891411 0.000000 0.000000
0.909774 0.000000 0.000000
0.924154 0.000000 0.000000
0.935435 0.000000 0.000000
0.944291 0.000000 0.000000
0.951233 0.000000 0.000000
0.000000 0.021317 0.000000
0.021986 0.021317 0.000000
0.046008 0.021317 0.000000
0.071926 0.021317 0.000000
0.099599 0.021317 0.000000
0.128887 0.021317 0.000000
0.159651 0.021317 0.000000
0.191750 0.021317 0.000000
0.225045 0.021317 0.000000
0.259394 0.021317 0.000000
0.294659 0.021317 0.000000
0.330699 0.021317 0.000000
0.367374 0.021317 0.000000
0.404544 0.021317 0.000000
0.442069 0.021317 0.000000
0.479808 0.021317 0.000000
0.517623 0.021317 0.000000
0.555372 0.021317 0.000000
0.592916 0.021317 0.000000
0.630114 0.021317 0.000000
0.666827 0.021317 0.000000
0.702914 0.021317 0.000000
0.738236 0.021317 0.000000
0.772653 0.021317 0.000000
0.806023 0.021317 0.000000
0.838208 0.021317 0.000000
0.867905 0.021317 0.000000
0.891411 0.021317 0.000000
0.909774 0.021317 0.000000
0.924154 0.021317 0.000000
0.935435 0.021317 0.000000
0.944291 0.021317 0.000000
0.951233 0.021317 0.000000
0.000000 0.044556 0.000000
0.021986 0.044556 0.000000
0.046008 0.044556 0.000000
0.071926 0.044556 0.000000
0.099599 0.044556 0.000000
0.128887 0.044556 0.000000
0.159651 0.044556 0.000000
0.191750 0.044556 0.000000
0.225045 0.044556 0.000000
0.259394 0.044556 0.000000
0.294659 0.044556 0.000000
0.330699 0.044556 0.000000
0.367374 0.044556 0.000000
0.404544 0.044556 0.000000
0.442069 0.044556 0.000000
0.479808 0.044556 0.000000
0.517623 0.044556 0.000000
0.555372 0.044556 0.000000
0.592916 0.044556 0.000000
0.630114 0.044556 0.000000
0.666827 0.044556 0.000000
0.702914 0.044556 0.000000
0.738236 0.044556 0.000000
0.772653 0.044556 0.000000
0.806023 0.044556 0.000000
0.838208 0.044556 0.000000
0.867905 0.044556 0.000000
0.891411 0.044556 0.000000
0.909774 0.044556 0.000000
0.924154 0.044556 0.000000
0.935435 0.044556 0.000000
0.944291 0.044556 0.000000
0.951233 0.044556 0.000000
0.000000 0.069589 0.000000
0.021986 0.069589 0.000000
0.046008 0.069589 0.000000
0.071926 0.069589 0.000000
0.099599 0.069589 0.000000
0.128887 0.069589 0.000000
0.159651 0.069589 0.000000
0.191750 0.069589 0.000000
0.225045 0.069589 0.000000
0.259394 0.069589 0.000000
0.294659 0.069589 0.000000
0.330699 0.069589 0.000000
0.367374 0.069589 0.000000
0.404544 0.069589 0.000000
0.442069 0.069589 0.000000
0.479808 0.069589 0.000000
0.517623 0.069589 0.000000
0.555372 0.069589 0.000000
0.592916 0.069589 0.000000
0.630114 0.069589 0.000000
0.666827 0.069589 0.000000
0.702914 0.069589 0.000000
0.738236 0.069589 0.000000
0.772653 0.069589 0.000000
0.806023 0.069589 0.000000
0.838208 0.069589 0.000000
0.867905 0.069589 0.000000
0.891411 0.069589 0.000000
0.909774 0.069589 0.000000
0.924154 0.069589 0.000000
0.935435 0.069589 0.000000
0.944291 0.069589 0.000000
0.951233 0.069589 0.000000
0.000000 0.096289 0.000000
0.021986 0.096289 0.000000
0.046008 0.096289 0.000000
0.071926 0.096289 0.000000
0.099599 0.096289 0.000000
0.128887 0.096289 0.000000
0.159651 0.096289 0.000000
0.191750 0.096289 0.000000
0.225045 0.096289 0.000000
0.259394 0.096289 0.000000
0.294659 0.096289 0.000000
0.330699 0.096289 0.000000
0.367374 0.096289 0.000000
0.404544 0.096289 0.000000
0.442069 0.096289 0.000000
0.479808 0.096289 0.000000
0.517623 0.096289 0.000000
0.555372 0.096289 0.000000
0.592916 0.096289 0.000000
0.630114 0.096289 0.000000
0.666827 0.096289 0.000000
0.702914 0.096289 0.000000
0.738236 0.096289 0.000000
0.772653 0.096289 0.000000
0.806023 0.096289 0.000000
0.838208 0.096289 0.000000
0.867905 0.096289 0.000000
0.891411 0.096289 0.000000
0.909774 0.096289 0.000000
0.924154 0.096289 0.000000
0.935435 0.096289 0.000000
0.944291 0.096289 0.000000
0.951233 0.096289 0.000000
0.000000 0.124527 0.000000
0.021986 0.124527 0.000000
0.046008 0.124527 0.000000
0.071926 0.124527 0.000000
0.099599 0.124527 0.000000
0.128887 0.124527 0.000000
0.159651 0.124527 0.000000
0.191750 0.124527 0.000000
0.225045 0.124527 0.000000
0.259394 0.124527 0.000000
0.294659 0.124527 0.000000
0.330699 0.124527 0.000000
0.367374 0.124527 0.000000
0.404544 0.124527 0.000000
0.442069 0.124527 0.000000
0.479808 0.124527 0.000000
0.517623 0.124527 0.000000
0.555372 0.124527 0.000000
0.592916 0.124527 0.000000
0.630114 0.124527 0.000000
0.666827 0.124527 0.000000
0.702914 0.124527 0.000000
0.738236 0.124527 0.000000
0.772653 0.124527 0.000000
0.806023 0.124527 0.000000
0.838208 0.124527 0.000000
0.867905 0.124527 0.000000
0.891411 0.124527 0.000000
0.909774 0.124527 0.000000
0.924154 0.124527 0.000000
0.935435 0.124527 0.000000
0.944291 0.124527 0.000000
0.951233 0.124527 0.000000
0.000000 0.154175 0.000000
0.021986 0.154175 0.000000
0.046008 0.154175 0.000000
0.071926 0.154175 0.000000
0.099599 0.154175 0.000000
0.128887 0.154175 0.000000
0.159651 0.154175 0.000000
0.191750 0.154175 0.000000
0.225045 0.154175 0.000000
0.259394 0.154175 0.000000
0.294659 0.154175 0.000000
0.330699 0.154175 0.000000
0.367374 0.154175 0.000000
0.404544 0.154175 0.000000
0.442069 0.154175 0.000000
0.479808 0.154175 0.000000
0.517623 0.154175 0.000000
0.555372 0.154175 0.000000
0.592916 0.154175 0.000000
0.630114 0.154175 0.000000
0.666827 0.154175 0.000000
0.702914 0.154175 0.000000
0.738236 0.154175 0.000000
0.772653 0.154175 0.000000
0.806023 0.154175 0.000000
0.838208 0.154175 0.000000
0.867905 0.154175 0.000000
0.891411 0.154175 0.000000
0.909774 0.154175 0.000000
0.924154 0.154175 0.000000
0.935435 0.154175 0.000000
0.944291 0.154175 0.000000
0.951233 0.154175 0.000000
0.000000 0.185104 0.000000
0.021986 0.185104 0.000000
0.046008 0.185104 0.000000
0.071926 0.185104 0.000000
0.099599 0.185104 0.000000
0.128887 0.185104 0.000000
0.159651 0.185104 0.000000
0.191750 0.185104 0.000000
0.225045 0.185104 0.000000
0.259394 0.185104 0.000000
0.294659 0.185104 0.000000
0.330699 0.185104 0.000000
0.367374 0.185104 0.000000
0.404544 0.185104 0.000000
0.442069 0.185104 0.000000
0.479808 0.185104 0.000000
0.517623 0.185104 0.000000
0.555372 0.185104 0.000000
0.592916 0.185104 0.000000
0.630114 0.185104 0.000000
0.666827 0.185104 0.000000
0.702914 0.185104 0.000000
0.738236 0.185104 0.000000
0.772653 0.185104 0.000000
0.806023 0.185104 0.000000
0.838208 0.185104 0.000000
0.867905 0.185104 0.000000
0.891411 0.185104 0.000000
0.909774 0.185104 0.000000
0.924154 0.185104 0.000000
0.935435 0.185104 0.000000
0.944291 0.185104 0.000000
0.951233 0.185104 0.000000
0.000000 0.217188 0.000000
0.021986 0.217188 0.000000
0.046008 0.217188 0.000000
0.071926 0.217188 0.000000
0.099599 0.217188 0.000000
0.128887 0.217188 0.000000
0.159651 0.217188 0.000000
0.191750 0.217188 0.000000
0.225045 0.217188 0.000000
0.259394 0.217188 0.000000
0.294659 0.217187 0.000000
0.330699 0.217188 0.000000
0.367374 0.217188 0.000000
0.404544 0.217187 0.000000
0.442069 0.217188 0.000000
0.479808 0.217188 0.000000
0.517623 0.217187 0.000000
0.555372 0.217187 0.000000
0.592916 0.217188 0.000000
0.630114 0.217188 0.000000
0.666827 0.217187 0.000000
0.702914 0.217187 0.000000
0.738236 0.217187 0.000000
0.772653 0.217187 0.000000
0.806023 0.217188 0.000000
0.838208 0.217187 0.000000
0.867905 0.217187 0.000000
0.891411 0.217188 0.000000
0.909774 0.217187 0.000000
0.924154 0.217188 0.000000
0.935435 0.217188 0.000000
0.944291 0.217188 0.000000
0.951233 0.217187 0.000000
0.000000 0.250296 0.000000
0.021986 0.250296 0.000000
0.046008 0.250296 0.000000
0.071926 0.250296 0.000000
0.099599 0.250296 0.000000
0.128887 0.250296 0.000000
0.159651 0.250296 0.000000
0.191750 0.250296 0.000000
0.225045 0.250296 0.000000
0.259394 0.250296 0.000000
0.294659 0.250296 0.000000
0.330699 0.250296 0.000000
0.367374 0.250296 0.000000
0.404544 0.250296 0.000000
0.442069 0.250296 0.000000
0.479808 0.250296 0.000000
0.517623 0.250296 0.000000
0.555372 0.250296 0.000000
0.592916 0.250296 0.000000
0.630114 0.250296 0.000000
0.666827 0.250296 0.000000
0.702914 0.250296 0.000000
0.738236 0.250296 0.000000
0.772653 0.250296 0.000000
0.806023 0.250296 0.000000
0.838208 0.250296 0.000000
0.867905 0.250296 0.000000
0.891411 0.250296 0.000000
0.909774 0.250296 0.000000
0.924154 0.250296 0.000000
0.935435 0.250296 0.000000
0.944291 0.250296 0.000000
0.951233 0.250296 0.000000
0.000000 0.284302 0.000000
0.021986 0.284302 0.000000
0.046008 0.284302 0.000000
0.071926 0.284302 0.000000
0.099599 0.284302 0.000000
0.128887 0.284302 0.000000
0.159651 0.284302 0.000000
0.191750 0.284302 0.000000
0.225045 0.284302 0.000000
0.259394 0.284302 0.000000
0.294659 0.284302 0.000000
0.330699 0.284302 0.000000
0.367374 0.284302 0.000000
0.404544 0.284302 0.000000
0.442069 0.284302 0.000000
0.479808 0.284302 0.000000
0.517623 0.284302 0.000000
0.555372 0.284302 0.000000
0.592916 0.284302 0.000000
0.630114 0.284302 0.000000
0.666827 0.284302 0.000000
0.702914 0.284302 0.000000
0.738236 0.284302 0.000000
0.772653 0.284302 0.000000
0.806023 0.284302 0.000000
0.838208 0.284302 0.000000
0.867905 0.284302 0.000000
0.891411 0.284302 0.000000
0.909774 0.284302 0.000000
0.924154 0.284302 0.000000
0.935435 0.284302 0.000000
0.944291 0.284302 0.000000
0.951233 0.284302 0.000000
0.000000 0.319077 0.000000
0.021986 0.319077 0.000000
0.046008 0.319077 0.000000
0.071926 0.319077 0.000000
0.099599 0.319077 0.000000
0.128887 0.319077 0.000000
0.159651 0.319077 0.000000
0.191750 0.319077 0.000000
0.225045 0.319077 0.000000
0.259394 0.319077 0.000000
0.294659 0.319077 0.000000
0.330699 0.319077 0.000000
0.367374 0.319077 0.000000
0.404544 0.319077 0.000000
0.442069 0.319077 0.000000
0.479808 0.319077 0.000000
0.517623 0.319077 0.000000
0.555372 0.319077 0.000000
0.592916 0.319077 0.000000
0.630114 0.319077 0.000000
0.666827 0.319077 0.000000
0.702914 0.319077 0.000000
0.738236 0.319077 0.000000
0.772653 0.319077 0.000000
0.806023 0.319077 0.000000
0.838208 0.319077 0.000000
0.867905 0.319077 0.000000
0.891411 0.319077 0.000000
0.909774 0.319077 0.000000
0.924154 0.319077 0.000000
0.935435 0.319077 0.000000
0.944291 0.319077 0.000000
0.951233 0.319077 0.000000
0.000000 0.354492 0.000000
0.021986 0.354492 0.000000
0.046008 0.354492 0.000000
0.071926 0.354492 0.000000
0.099599 0.354492 0.000000
0.128887 0.354492 0.000000
0.159651 0.354492 0.000000
0.191750 0.354492 0.000000
0.225045 0.354492 0.000000
0.259394 0.354492 0.000000
0.294659 0.354492 0.000000
0.330699 0.354492 0.000000
0.367374 0.354492 0.000000
0.404544 0.354492 0.000000
0.442069 0.354492 0.000000
0.479808 0.354492 0.000000
0.517623 0.354492 0.000000
0.555372 0.354492 0.000000
0.592916 0.354492 0.000000
0.630114 0.354492 0.000000
0.666827 0.354492 0.000000
0.702914 0.354492 0.000000
0.738236 0.354492 0.000000
0.772653 0.354492 0.000000
0.806023 0.354492 0.000000
0.838208 0.354492 0.000000
0.867905 0.354492 0.000000
0.891411 0.354492 0.000000
0.909774 0.354492 0.000000
0.924154 0.354492 0.000000
0.935435 0.354492 0.000000
0.944291 0.354492 0.000000
0.951233 0.354492 0.000000
0.000000 0.390421 0.000000
0.021986 0.390421 0.000000
0.046008 0.390421 0.000000
0.071926 0.390421 0.000000
0.099599 0.390421 0.000000
0.128887 0.390421 0.000000
0.159651 0.390421 0.000000
0.191750 0.390421 0.000000
0.225045 0.390421 0.000000
0.259394 0.390421 0.000000
0.294659 0.390421 0.000000
0.330699 0.390421 0.000000
0.367374 0.390421 0.000000
0.404544 0.390421 0.000000
0.442069 0.390421 0.000000
0.479808 0.390421 0.000000
0.517623 0.390421 0.000000
0.555372 0.390421 0.000000
0.592916 0.390421 0.000000
0.630114 0.390421 0.000000
0.666827 0.390421 0.000000
0.702914 0.390421 0.000000
0.738236 0.390421 0.000000
0.772653 0.390421 0.000000
0.806023 0.390421 0.000000
0.838208 0.390421 0.000000
0.867905 0.390421 0.000000
0.891411 0.390421 0.000000
0.909774 0.390421 0.000000
0.924154 0.390421 0.000000
0.935435 0.390421 0.000000
0.944291 0.390421 0.000000
0.951233 0.390421 0.000000
0.000000 0.426733 0.000000
0.021986 0.426733 0.000000
0.046008 0.426733 0.000000
0.071926 0.426733 0.000000
0.099599 0.426733 0.000000
0.128887 0.426733 0.000000
0.159651 0.426733 0.000000
0.191750 0.426733 0.000000
0.225045 0.426733 0.000000
0.259394 0.426733 0.000000
0.294659 0.426733 0.000000
0.330699 0.426733 0.000000
0.367374 0.426733 0.000000
0.404544 0.426733 0.000000
0.442069 0.426733 0.000000
0.479808 0.426733 0.000000
0.517623 0.426733 0.000000
0.555372 0.426733 0.000000
0.592916 0.426733 0.000000
0.630114 0.426733 0.000000
0.666827 0.426733 0.000000
0.702914 0.426733 0.000000
0.738236 0.426733 0.000000
0.772653 0.426733 0.000000
0.806023 0.426733 0.000000
0.838208 0.426733 0.000000
0.867905 0.426733 0.000000
0.891411 0.426733 0.000000
0.909774 0.426733 0.000000
0.924154 0.426733 0.000000
0.935435 0.426733 0.000000
0.944291 0.426733 0.000000
0.951233 0.426733 0.000000
0.000000 0.463303 0.000000
0.021986 0.463303 0.000000
0.046008 0.463303 0.000000
0.071926 0.463303 0.000000
0.099599 0.463303 0.000000
0.128887 0.463303 0.000000
0.159651 0.463303 0.000000
0.191750 0.463303 0.000000
0.225045 0.463303 0.000000
0.259394 0.463303 0.000000
0.294659 0.463303 0.000000
0.330699 0.463303 0.000000
0.367374 0.463303 0.000000
0.404544 0.463303 0.000000
0.442069 0.463303 0.000000
0.479808 0.463303 0.000000
0.517623 0.463303 0.000000
0.555372 0.463303 0.000000
0.592916 0.463303 0.000000
0.630114 0.463303 0.000000
0.666827 0.463303 0.000000
0.702914 0.463303 0.000000
0.738236 0.463303 0.000000
0.772653 0.463303 0.000000
0.806023 0.463303 0.000000
0.838208 0.463303 0.000000
0.867905 0.463303 0.000000
0.891411 0.463303 0.000000
0.909774 0.463303 0.000000
0.924154 0.463303 0.000000
0.935435 0.463303 0.000000
0.944291 0.463303 0.000000
0.951233 0.463303 0.000000
0.000000 0.500000 0.000000
0.021986 0.500000 0.000000
0.046008 0.500000 0.000000
0.071926 0.500000 0.000000
0.099599 0.500000 0.000000
0.128887 0.500000 0.000000
0.159651 0.500000 0.000000
0.191750 0.500000 0.000000
0.225045 0.500000 0.000000
0.259394 0.500000 0.000000
0.294659 0.500000 0.000000
0.330699 0.500000 0.000000
0.367374 0.500000 0.000000
0.404544 0.500000 0.000000
0.442069 0.500000 0.000000
0.479808 0.500000 0.000000
0.517623 0.500000 0.000000
0.555372 0.500000 0.000000
0.592916 0.500000 0.000000
0.630114 0.500000 0.000000
0.666827 0.500000 0.000000
0.702914 0.500000 0.000000
0.738236 0.500000 0.000000
0.772653 0.500000 0.000000
0.806023 0.500000 0.000000
0.838208 0.500000 0.000000
0.867905 0.500000 0.000000
0.891411 0.500000 0.000000
0.909774 0.500000 0.000000
0.924154 0.500000 0.000000
0.935435 0.500000 0.000000
0.944291 0.500000 0.000000
0.951233 0.500000 0.000000
0.000000 0.536697 0.000000
0.021986 0.536697 0.000000
0.046008 0.536697 0.000000
0.071926 0.536697 0.000000
0.099599 0.536697 0.000000
0.128887 0.536697 0.000000
0.159651 0.536697 0.000000
0.191750 0.536697 0.000000
0.225045 0.536697 0.000000
0.259394 0.536697 0.000000
0.294659 0.536697 0.000000
0.330699 0.536697 0.000000
0.367374 0.536697 0.000000
0.404544 0.536697 0.000000
0.442069 0.536697 0.000000
0.479808 0.536697 0.000000
0.517623 0.536697 0.000000
0.555372 0.536697 0.000000
0.592916 0.536697 0.000000
0.630114 0.536697 0.000000
0.666827 0.536697 0.000000
0.702914 0.536697 0.000000
0.738236 0.536697 0.000000
0.772653 0.536697 0.000000
0.806023 0.536697 0.000000
0.838208 0.536697 0.000000
0.867905 0.536697 0.000000
0.891411 0.536697 0.000000
0.909774 0.536697 0.000000
0.924154 0.536697 0.000000
0.935435 0.536697 0.000000
0.944291 0.536697 0.000000
0.951233 0.536697 0.000000
0.000000 0.573267 0.000000
0.021986 0.573267 0.000000
0.046008 0.573267 0.000000
0.071926 0.573267 0.000000
0.099599 0.573267 0.000000
0.128887 0.573267 0.000000
0.159651 0.573267 0.000000
0.191750 0.573267 0.000000
0.225045 0.573267 0.000000
0.259394 0.573267 0.000000
0.294659 0.573267 0.000000
0.330699 0.573267 0.000000
0.367374 0.573267 0.000000
0.404544 0.573267 0.000000
0.442069 0.573267 0.000000
0.479808 0.573267 0.000000
0.517623 0.573267 0.000000
0.555372 0.573267 0.000000
0.592916 0.573267 0.000000
0.630114 0.573267 0.000000
0.666827 0.573267 0.000000
0.702914 0.573267 0.000000
0.738236 0.573267 0.000000
0.772653 0.573267 0.000000
0.806023 0.573267 0.000000
0.838208 0.573267 0.000000
0.867905 0.573267 0.000000
0.891411 0.573267 0.000000
0.909774 0.573267 0.000000
0.924154 0.573267 0.000000
0.935435 0.573267 0.000000
0.944291 0.573267 0.000000
0.951233 0.573267 0.000000
0.000000 0.609579 0.000000
0.021986 0.609579 0.000000
0.046008 0.609579 0.000000
0.071926 0.609579 0.000000
0.099599 0.609579 0.000000
0.128887 0.609579 0.000000
0.159651 0.609579 0.000000
0.191750 0.609579 0.000000
0.225045 0.609579 0.000000
0.259394 0.609579 0.000000
0.294659 0.609579 0.000000
0.330699 0.609579 0.000000
0.367374 0.609579 0.000000
0.404544 0.609579 0.000000
0.442069 0.609579 0.000000
0.479808 0.609579 0.000000
0.517623 0.609579 0.000000
0.555372 0.609579 0.000000
0.592916 0.609579 0.000000
0.630114 0.609579 0.000000
0.666827 0.609579 0.000000
0.702914 0.609579 0.000000
0.738236 0.609579 0.000000
0.772653 0.609579 0.000000
0.806023 0.609579 0.000000
0.838208 0.609579 0.000000
0.867905 0.609579 0.000000
0.891411 0.609579 0.000000
0.909774 0.609579 0.000000
0.924154 0.609579 0.000000
0.935435 0.609579 0.000000
0.944291 0.609579 0.000000
0.951233 0.609579 0.000000
0.000000 0.645508 0.000000
0.021986 0.645508 0.000000
0.046008 0.645508 0.000000
0.071926 0.645508 0.000000
0.099599 0.645508 0.000000
0.128887 0.645508 0.000000
0.159651 0.645508 0.000000
0.191750 0.645508 0.000000
0.225045 0.645508 0.000000
0.259394 0.645508 0.000000
0.294659 0.645508 0.000000
0.330699 0.645508 0.000000
0.367374 0.645508 0.000000
0.404544 0.645508 0.000000
0.442069 0.645508 0.000000
0.479808 0.645508 0.000000
0.517623 0.645508 0.000000
0.555372 0.645508 0.000000
0.592916 0.645508 0.000000
0.630114 0.645508 0.000000
0.666827 0.645508 0.000000
0.702914 0.645508 0.000000
0.738236 0.645508 0.000000
0.772653 0.645508 0.000000
0.806023 0.645508 0.000000
0.838208 0.645508 0.000000
0.867905 0.645508 0.000000
0.891411 0.645508 0.000000
0.909774 0.645508 0.000000
0.924154 0.645508 0.000000
0.935435 0.645508 0.000000
0.944291 0.645508 0.000000
0.951233 0.645508 0.000000
0.000000 0.680923 0.000000
0.021986 0.680923 0.000000
0.046008 0.680923 0.000000
0.071926 0.680923 0.000000
0.099599 0.680923 0.000000
0.128887 0.680923 0.000000
0.159651 0.680923 0.000000
0.191750 0.680923 0.000000
0.225045 0.680923 0.000000
0.259394 0.680923 0.000000
0.294659 0.680923 0.000000
0.330699 0.680923 0.000000
0.367374 0.680923 0.000000
0.404544 0.680923 0.000000
0.442069 0.680923 0.000000
0.479808 0.680923 0.000000
0.517623 0.680923 0.000000
0.555372 0.680923 0.000000
0.592916 0.680923 0.000000
0.630114 0.680923 0.000000
0.666827 0.680923 0.000000
0.702914 0.680923 0.000000
0.738236 0.680923 0.000000
0.772653 0.680923 0.000000
0.806023 0.680923 0.000000
0.838208 0.680923 0.000000
0.867905 0.680923 0.000000
0.891411 0.680923 0.000000
0.909774 0.680923 0.000000
0.924154 0.680923 0.000000
0.935435 0.680923 0.000000
0.944291 0.680923 0.000000
0.951233 0.680923 0.000000
0.000000 0.715698 0.000000
0.021986 0.715698 0.000000
0.046008 0.715698 0.000000
0.071926 0.715698 0.000000
0.099599 0.715698 0.000000
0.128887 0.715698 0.000000
0.159651 0.715698 0.000000
0.191750 0.715698 0.000000
0.225045 0.715698 0.000000
0.259394 0.715698 0.000000
0.294659 0.715698 0.000000
0.330699 0.715698 0.000000
0.367374 0.715698 0.000000
0.404544 0.715698 0.000000
0.442069 0.715698 0.000000
0.479808 0.715698 0.000000
0.517623 0.715698 0.000000
0.555372 0.715698 0.000000
0.592916 0.715698 0.000000
0.630114 0.715698 0.000000
0.666827 0.715698 0.000000
0.702914 0.715698 0.000000
0.738236 0.715698 0.000000
0.772653 0.715698 0.000000
0.806023 0.715698 0.000000
0.838208 0.715698 0.000000
0.867905 0.715698 0.000000
0.891411 0.715698 0.000000
0.909774 0.715698 0.000000
0.924154 0.715698 0.000000
0.935435 0.715698 0.000000
0.944291 0.715698 0.000000
0.951233 0.715698 0.000000
0.000000 0.749704 0.000000
0.021986 0.749704 0.000000
0.046008 0.749704 0.000000
0.071926 0.749704 0.000000
0.099599 0.749704 0.000000
0.128887 0.749704 0.000000
0.159651 0.749704 0.000000
0.191750 0.749704 0.000000
0.225045 0.749704 0.000000
0.259394 0.749704 0.000000
0.294659 0.749704 0.000000
0.330699 0.749704 0.000000
0.367374 0.749704 0.000000
0.404544 0.749704 0.000000
0.442069 0.749704 0.000000
0.479808 0.749704 0.000000
0.517623 0.749704 0.000000
0.555372 0.749704 0.000000
0.592916 0.749704 0.000000
0.630114 0.749704 0.000000
0.666827 0.749704 0.000000
0.702914 0.749704 0.000000
0.738236 0.749704 0.000000
0.772653 0.749704 0.000000
0.806023 0.749704 0.000000
0.838208 0.749704 0.000000
0.867905 0.749704 0.000000
0.891411 0.749704 0.000000
0.909774 0.749704 0.000000
0.924154 0.749704 0.000000
0.935435 0.749704 0.000000
0.944291 0.749704 0.000000
0.951233 0.749704 0.000000
0.000000 0.782813 0.000000
0.021986 0.782813 0.000000
0.046008 0.782813 0.000000
0.071926 0.782813 0.000000
0.099599 0.782813 0.000000
0.128887 0.782813 0.000000
0.159651 0.782813 0.000000
0.191750 0.782813 0.000000
0.225045 0.782813 0.000000
0.259394 0.782813 0.000000
0.294659 0.782813 0.000000
0.330699 0.782813 0.000000
0.367374 0.782813 0.000000
0.404544 0.782813 0.000000
0.442069 0.782813 0.000000
0.479808 0.782813 0.000000
0.517623 0.782813 0.000000
0.555372 0.782813 0.000000
0.592916 0.782813 0.000000
0.630114 0.782813 0.000000
0.666827 0.782813 0.000000
0.702914 0.782813 0.000000
0.738236 0.782813 0.000000
0.772653 0.782813 0.000000
0.806023 0.782813 0.000000
0.838208 0.782813 0.000000
0.867905 0.782813 0.000000
0.891411 0.782812 0.000000
0.909774 0.782813 0.000000
0.924154 0.782813 0.000000
0.935435 0.782812 0.000000
0.944291 0.782813 0.000000
0.951233 0.782813 0.000000
0.000000 0.814896 0.000000
0.021986 0.814896 0.000000
0.046008 0.814896 0.000000
0.071926 0.814896 0.000000
0.099599 0.814896 0.000000
0.128887 0.814896 0.000000
0.159651 0.814896 0.000000
0.191750 0.814896 0.000000
0.225045 0.814896 0.000000
0.259394 0.814896 0.000000
0.294659 0.814896 0.000000
0.330699 0.814896 0.000000
0.367374 0.814896 0.000000
0.404544 0.814896 0.000000
0.442069 0.814896 0.000000
0.479808 0.814896 0.000000
0.517623 0.814896 0.000000
0.555372 0.814896 0.000000
0.592916 0.814896 0.000000
0.630114 0.814896 0.000000
0.666827 0.814896 0.000000
0.702914 0.814896 0.000000
0.738236 0.814896 0.000000
0.772653 0.814896 0.000000
0.806023 0.814896 0.000000
0.838208 0.814896 0.000000
0.867905 0.814896 0.000000
0.891411 0.814896 0.000000
0.909774 0.814896 0.000000
0.924154 0.814896 0.000000
0.935435 0.814896 0.000000
0.944291 0.814896 0.000000
0.951233 0.814896 0.000000
0.000000 0.845825 0.000000
0.021986 0.845825 0.000000
0.046008 0.845825 0.000000
0.071926 0.845825 0.000000
0.099599 0.845825 0.000000
0.128887 0.845825 0.000000
0.159651 0.845825 0.000000
0.191750 0.845825 0.000000
0.225045 0.845825 0.000000
0.259394 0.845825 0.000000
0.294659 0.845825 0.000000
0.330699 0.845825 0.000000
0.367374 0.845825 0.000000
0.404544 0.845825 0.000000
0.442069 0.845825 0.000000
0.479808 0.845825 0.000000
0.517623 0.845825 0.000000
0.555372 0.845825 0.000000
0.592916 0.845825 0.000000
0.630114 0.845825 0.000000
0.666827 0.845825 0.000000
0.702914 0.845825 0.000000
0.738236 0.845825 0.000000
0.772653 0.845825 0.000000
0.806023 0.845825 0.000000
0.838208 0.845825 0.000000
0.867905 0.845825 0.000000
0.891411 0.845825 0.000000
0.909774 0.845825 0.000000
