luts/PowerGrade Teal Orange.cube
TITLE "PowerGrade Teal Orange"
LUT_3D_SIZE 9
0.000000 0.000000 0.000000
0.092595 0.000000 0.000000
0.203860 0.000000 0.000000
0.328139 0.000000 0.000000
0.459776 0.000000 0.000000
0.593116 0.000000 0.000000
0.722596 0.000000 0.000000
0.843643 0.000000 0.000000
0.933339 0.000000 0.000000
0.000000 0.100391 0.000000
0.092595 0.100391 0.000000
0.203860 0.100391 0.000000
0.328332 0.100391 0.000000
0.461229 0.100391 0.000000
0.597403 0.100391 0.000000
0.731154 0.100391 0.000000
0.856066 0.100391 0.000000
0.940852 0.100391 0.000000
0.000000 0.221875 0.000000
0.092999 0.221875 0.000000
0.205804 0.221875 0.000000
0.333410 0.221875 0.000000
0.470433 0.221875 0.000000
0.610905 0.221875 0.000000
0.748140 0.221875 0.000000
0.874703 0.221875 0.000000
0.948913 0.221875 0.000000
0.000000 0.357422 0.000000
0.094908 0.357422 0.000000
0.210911 0.357422 0.000000
0.342510 0.357422 0.000000
0.483556 0.357422 0.000000
0.627193 0.357422 0.000000
0.765893 0.357422 0.000000
0.891083 0.357422 0.000000
0.954593 0.357422 0.000000
0.000000 0.500000 0.000000
0.097470 0.500000 0.000000
0.216817 0.500000 0.000000
0.351734 0.500000 0.000000
0.495300 0.500000 0.000000
0.640544 0.500000 0.000000
0.779698 0.500000 0.000000
0.902117 0.500000 0.000000
0.958265 0.500000 0.000000
0.000000 0.642578 0.000000
0.099692 0.642578 0.000000
0.221604 0.642578 0.000000
0.358957 0.642578 0.000000
0.504286 0.642578 0.000000
0.650386 0.642578 0.000000
0.789945 0.642578 0.000000
0.910225 0.642578 0.000000
0.961478 0.642578 0.000000
0.000000 0.778125 0.000000
0.101371 0.778125 0.000000
0.225150 0.778125 0.000000
0.364515 0.778125 0.000000
0.512229 0.778125 0.000000
0.660567 0.778125 0.000000
0.801312 0.778125 0.000000
0.918086 0.778125 0.000000
0.964207 0.778125 0.000000
0.000000 0.898091 0.000000
0.102964 0.898091 0.000000
0.228990 0.898091 0.000000
0.370759 0.898091 0.000000
0.520453 0.898091 0.000000
0.669805 0.898091 0.000000
0.810223 0.898091 0.000000
0.922840 0.898091 0.000000
0.965491 0.898091 0.000000
0.000000 0.955854 0.000000
0.104542 0.955854 0.000000
0.232331 0.955854 0.000000
0.375431 0.955854 0.000000
0.525493 0.955854 0.000000
0.673937 0.955854 0.000000
0.812605 0.955854 0.000000
0.923383 0.955854 0.000000
0.965511 0.955854 0.000000
0.000000 0.000000 0.108290
0.092595 0.000000 0.108290
0.203860 0.000000 0.108290
0.328139 0.000000 0.108290
0.459776 0.000000 0.108290
0.593116 0.000000 0.108290
0.722854 0.000000 0.108240
0.844376 0.000000 0.108010
0.933930 0.000000 0.107617
0.000000 0.100391 0.108290
0.089234 0.098699 0.108290
0.203861 0.087974 0.096821
0.328551 0.073011 0.081732
0.461826 0.057018 0.065411
0.598447 0.040624 0.048517
0.732616 0.024524 0.031779
0.857802 0.009501 0.016010
0.941713 0.000000 0.005684
0.000000 0.221875 0.108090
0.077684 0.221875 0.094042
0.204336 0.221875 0.093488
0.334210 0.194915 0.052018
0.471670 0.161924 0.018167
0.612534 0.140878 0.000000
0.750023 0.136464 0.000000
0.876614 0.134103 0.000000
0.949616 0.133466 0.000000
0.000000 0.357422 0.106391
0.063683 0.357422 0.075463
0.194002 0.357422 0.074605
0.341640 0.357422 0.070276
0.484889 0.326830 0.011774
0.628733 0.304512 0.000000
0.767440 0.294627 0.000000
0.892372 0.288902 0.000000
0.955065 0.286957 0.000000
0.000000 0.500000 0.103836
0.049451 0.500000 0.055437
0.183447 0.500000 0.054629
0.334821 0.500000 0.053904
0.495768 0.500000 0.039040
0.641759 0.473672 0.000000
0.780878 0.458751 0.000000
0.902863 0.450067 0.000000
0.958573 0.447094 0.000000
0.000000 0.642578 0.101484
0.034770 0.642578 0.035886
0.171572 0.642578 0.035250
0.325587 0.642578 0.034693
0.488463 0.642578 0.034243
0.651336 0.641110 0.006411
0.791072 0.621454 0.000000
0.911086 0.610207 0.000000
0.961795 0.606558 0.000000
0.000000 0.778125 0.099670
0.020320 0.778125 0.017807
0.159202 0.778125 0.017305
0.315585 0.778125 0.016765
0.481301 0.778125 0.016207
0.647631 0.778125 0.015651
0.802398 0.774792 0.000000
0.918745 0.761636 0.000000
0.964415 0.757522 0.000000
0.000000 0.898091 0.098159
0.007740 0.898091 0.001607
0.149130 0.898091 0.001056
0.308135 0.898091 0.000534
0.475933 0.898091 0.000060
0.643313 0.898091 0.000000
0.800410 0.898091 0.000000
0.923062 0.895211 0.000000
0.965510 0.890702 0.000000
0.000000 0.955854 0.096541
0.009490 0.955854 0.000000
0.152013 0.955854 0.000000
0.311281 0.955854 0.000000
0.477996 0.955854 0.000000
0.642695 0.955854 0.000000
0.796729 0.955854 0.000000
0.919784 0.955854 0.000000
0.965511 0.954796 0.000000
0.000000 0.000000 0.240166
0.092595 0.000000 0.240166
0.203860 0.000000 0.240166
0.328139 0.000000 0.240166
0.459776 0.000000 0.240166
0.593116 0.000000 0.240166
0.723270 0.000000 0.239917
0.845248 0.000000 0.239247
0.934576 0.000000 0.238223
0.000000 0.100391 0.240166
0.066849 0.076005 0.240166
0.199549 0.083622 0.240128
0.328846 0.072976 0.229023
0.462512 0.056936 0.212080
0.599581 0.040488 0.194357
0.734156 0.024339 0.176636
0.859594 0.009286 0.159788
0.942572 0.000000 0.148448
0.000000 0.221875 0.239467
0.061327 0.218210 0.238533
0.199916 0.218484 0.237291
0.335048 0.208294 0.223898
0.472941 0.191747 0.205491
0.614185 0.174798 0.186557
0.751905 0.158271 0.167993
0.878500 0.143080 0.150785
0.950289 0.134465 0.140245
0.000000 0.357422 0.235219
0.063965 0.357422 0.218641
0.194680 0.357422 0.216629
0.342937 0.357422 0.214591
0.486202 0.326515 0.166175
0.630227 0.291949 0.129534
0.768911 0.258664 0.094385
0.893647 0.228728 0.062741
0.955520 0.213878 0.046216
0.000000 0.500000 0.229239
0.049731 0.500000 0.194790
0.184038 0.500000 0.192977
0.335663 0.500000 0.191372
0.496962 0.500000 0.180014
0.642933 0.465696 0.120658
0.781978 0.432325 0.085856
0.903611 0.403133 0.055506
0.958890 0.389866 0.041005
0.000000 0.642578 0.223937
0.034992 0.642578 0.172168
0.172036 0.642578 0.170745
0.326195 0.642578 0.169548
0.489274 0.642578 0.168514
0.652315 0.640915 0.144152
0.792217 0.606665 0.079144
0.911941 0.577931 0.048982
0.962105 0.565892 0.035518
0.000000 0.778125 0.219905
0.020486 0.778125 0.151840
0.159621 0.778125 0.150644
0.316297 0.778125 0.149375
0.482281 0.778125 0.148081
0.648786 0.778125 0.146806
0.803455 0.773550 0.106796
0.919370 0.744226 0.042712
0.964608 0.733369 0.030812
0.000000 0.898091 0.216321
0.007931 0.898091 0.133216
0.149556 0.898091 0.131960
0.308770 0.898091 0.130786
0.476689 0.898091 0.129740
0.643955 0.898091 0.128866
0.800913 0.898091 0.128209
0.923228 0.893644 0.084219
0.965511 0.884415 0.057059
0.000000 0.955854 0.212642
0.002671 0.955854 0.122467
0.146038 0.955854 0.121668
0.306367 0.955854 0.121102
0.474212 0.955854 0.120816
0.640110 0.955854 0.120790
0.795415 0.955854 0.120790
0.918866 0.955854 0.106552
0.965511 0.954250 0.084786
0.000000 0.000000 0.387015
0.092595 0.000000 0.387015
0.203860 0.000000 0.387015
0.328139 0.000000 0.387015
0.459776 0.000000 0.387015
0.593207 0.000000 0.386961
0.723834 0.000000 0.386317
0.846252 0.000000 0.385030
0.935268 0.000000 0.383205
0.000000 0.100391 0.387015
0.044332 0.053406 0.387015
0.182046 0.066021 0.386808
0.322410 0.066127 0.385917
0.463282 0.056844 0.374959
0.600798 0.040342 0.356223
0.735765 0.024146 0.337352
0.861431 0.009066 0.319272
0.943427 0.000000 0.306749
0.000000 0.221875 0.385438
0.029581 0.186263 0.383748
0.174471 0.191983 0.381598
0.330738 0.203009 0.379092
0.474241 0.191591 0.364586
0.615850 0.174598 0.344341
0.753779 0.158046 0.324492
0.880351 0.142858 0.306075
0.950931 0.134388 0.294565
0.000000 0.357422 0.378111
0.034145 0.353491 0.375289
0.177606 0.354136 0.372359
0.340200 0.354781 0.369425
0.487488 0.341814 0.352084
0.631668 0.324512 0.331838
0.770316 0.307875 0.312592
0.894899 0.292925 0.295141
0.955954 0.261578 0.261389
0.000000 0.500000 0.368376
0.036797 0.500000 0.345061
0.184605 0.500000 0.346646
0.336510 0.500000 0.344119
0.498139 0.500000 0.336751
0.644057 0.465426 0.287529
0.782984 0.432084 0.252024
0.904389 0.402947 0.221031
0.959212 0.389789 0.205796
0.000000 0.642578 0.360006
0.035209 0.642578 0.323652
0.172474 0.642578 0.321446
0.326748 0.642578 0.319663
0.490120 0.642578 0.317918
0.653318 0.640677 0.297442
0.793374 0.606387 0.242518
0.912786 0.577728 0.211532
0.962407 0.565819 0.197328
0.000000 0.778125 0.353718
0.020657 0.778125 0.300966
0.160049 0.778125 0.298975
0.317015 0.778125 0.296893
0.483256 0.778125 0.294793
0.649920 0.778125 0.292750
0.804477 0.773186 0.256569
0.919957 0.744085 0.202698
0.964784 0.733327 0.190357
0.000000 0.898091 0.347769
0.008120 0.898091 0.279643
0.149971 0.898091 0.277638
0.309381 0.898091 0.275792
0.477400 0.898091 0.274178
0.644628 0.898091 0.272868
0.801399 0.898091 0.271938
0.923335 0.893529 0.232925
0.965511 0.883824 0.205883
0.000000 0.955854 0.341915
0.002801 0.955854 0.266730
0.146263 0.955854 0.265550
0.306583 0.955854 0.264777
0.474269 0.955854 0.264482
0.640110 0.955854 0.264482
0.795415 0.955854 0.264482
0.919007 0.955854 0.255376
0.965511 0.954238 0.233609
0.000000 0.000000 0.540224
0.092595 0.000000 0.540224
0.203860 0.000000 0.540224
0.328139 0.000000 0.540224
0.459776 0.000000 0.540224
0.593441 0.000000 0.539962
0.724539 0.000000 0.538780
0.847379 0.000000 0.536776
0.936002 0.000000 0.534092
0.000000 0.100391 0.540224
0.020842 0.029886 0.540221
0.163860 0.047681 0.539636
0.304632 0.047861 0.538138
0.455521 0.048133 0.535870
0.602091 0.040187 0.524679
0.737436 0.023945 0.504645
0.863306 0.008841 0.485360
0.944272 0.000000 0.471670
0.000000 0.221875 0.537394
0.000000 0.155461 0.534881
0.152208 0.168902 0.531789
0.313845 0.185109 0.528261
0.469699 0.185568 0.524436
0.617523 0.174397 0.508810
0.755638 0.157823 0.487765
0.882143 0.142643 0.468259
0.951539 0.134315 0.455909
0.000000 0.357422 0.526895
0.001966 0.320995 0.522998
0.146089 0.321875 0.518998
0.316197 0.329148 0.515038
0.486041 0.338962 0.511258
0.633050 0.324346 0.492770
0.771724 0.307706 0.472677
0.896116 0.292779 0.454353
0.956364 0.285549 0.443950
0.000000 0.500000 0.513633
0.007923 0.497810 0.509954
0.155570 0.498537 0.506649
0.322046 0.499207 0.503605
0.499111 0.499864 0.500618
0.645118 0.475795 0.473364
0.783896 0.452555 0.447566
0.905194 0.432145 0.424674
0.959539 0.422346 0.412100
0.000000 0.642578 0.502499
0.002262 0.642578 0.473685
0.161199 0.642578 0.475531
0.327315 0.642578 0.477274
0.490996 0.642578 0.474785
0.654342 0.640291 0.458444
0.794538 0.606108 0.414165
0.913616 0.577529 0.382397
0.962701 0.565749 0.367509
0.000000 0.778125 0.494206
0.020834 0.778125 0.457550
0.160484 0.778125 0.454769
0.317734 0.778125 0.451894
0.484221 0.778125 0.449029
0.651029 0.778125 0.446274
0.805460 0.772651 0.414294
0.920506 0.743954 0.371266
0.964943 0.733289 0.358595
0.000000 0.898091 0.485910
0.008307 0.898091 0.433611
0.150376 0.898091 0.430922
0.309965 0.898091 0.428483
0.478063 0.898091 0.426395
0.645229 0.898091 0.424760
0.801790 0.898091 0.423681
0.923381 0.893361 0.390115
0.965511 0.882864 0.363149
0.000000 0.955854 0.478078
0.002920 0.955854 0.418810
0.146458 0.955854 0.417366
0.306742 0.955854 0.416514
0.474270 0.955854 0.416325
0.640110 0.955854 0.416325
0.795415 0.955854 0.416325
0.919238 0.955854 0.412643
0.965511 0.954218 0.390876
0.000000 0.000000 0.691179
0.092595 0.000000 0.691179
0.203860 0.000000 0.691179
0.328139 0.000000 0.691179
0.459777 0.000000 0.691177
0.593813 0.000000 0.690505
0.725378 0.000000 0.688737
0.848619 0.000000 0.686040
0.936770 0.000000 0.682579
0.000000 0.100391 0.691179
0.000000 0.008982 0.691070
0.146025 0.029640 0.689980
0.287227 0.029895 0.687854
0.438673 0.030254 0.684860
0.594128 0.030698 0.681163
0.739161 0.023738 0.669462
0.865210 0.008612 0.649183
0.945105 0.000000 0.634541
0.000000 0.221875 0.686856
0.000000 0.148429 0.683586
0.130333 0.146342 0.679675
0.297238 0.167465 0.675289
0.453662 0.168029 0.670596
0.613608 0.168608 0.665766
0.757474 0.157603 0.649389
0.883861 0.142437 0.629082
0.952114 0.134246 0.616177
0.000000 0.357422 0.673607
0.000000 0.305115 0.668844
0.114929 0.289973 0.664007
0.295566 0.307258 0.659266
0.470180 0.321737 0.654794
0.632398 0.322221 0.650766
0.773136 0.307536 0.631932
0.897289 0.292638 0.612953
0.956747 0.285503 0.602114
0.000000 0.500000 0.657598
0.000000 0.472728 0.653267
0.124724 0.467127 0.649424
0.291702 0.467943 0.645714
0.478735 0.478340 0.642159
0.646106 0.482467 0.638198
0.784823 0.465821 0.618723
0.906019 0.451278 0.601144
0.959869 0.444816 0.591356
0.000000 0.642578 0.644387
0.000000 0.642578 0.640659
0.131351 0.642578 0.637087
0.299815 0.642578 0.634028
0.478446 0.642578 0.630590
0.655381 0.639505 0.623556
0.795705 0.611122 0.591827
0.914430 0.590496 0.567680
0.962985 0.581359 0.554950
0.000000 0.778125 0.634576
0.000000 0.778125 0.609538
0.128897 0.778125 0.601941
0.311131 0.778125 0.604373
0.485175 0.778125 0.603612
0.652108 0.778125 0.600302
0.806399 0.771579 0.572739
0.921014 0.743832 0.540767
0.965084 0.733255 0.527944
0.000000 0.898091 0.624278
0.000000 0.898091 0.585025
0.150767 0.898091 0.584769
0.310520 0.898091 0.581901
0.478674 0.898091 0.579506
0.645752 0.898091 0.577711
0.802081 0.898091 0.576642
0.923383 0.893062 0.548717
0.965511 0.881910 0.525745
0.000000 0.955854 0.614945
0.000000 0.955854 0.570625
0.146623 0.955854 0.570300
0.306843 0.955854 0.569527
0.474270 0.955854 0.569462
0.640110 0.955854 0.569462
0.795415 0.955854 0.569462
0.919486 0.955854 0.569462
0.965511 0.954183 0.549481
0.000000 0.000000 0.831267
0.092595 0.000000 0.831267
0.203860 0.000000 0.831267
0.328139 0.000000 0.831267
0.459857 0.000000 0.831163
0.594316 0.000000 0.830018
0.726342 0.000000 0.827752
0.849965 0.000000 0.824540
0.937567 0.000000 0.820556
0.000000 0.100391 0.831267
0.000000 0.008710 0.830887
0.129560 0.012920 0.829314
0.271196 0.013235 0.826683
0.423182 0.013657 0.823170
0.579189 0.014164 0.818948
0.732140 0.014734 0.814195
0.867135 0.008381 0.802123
0.945923 0.000000 0.786939
0.000000 0.221875 0.825497
0.000000 0.144374 0.821706
0.110068 0.125413 0.817270
0.281848 0.151016 0.812367
0.438788 0.151639 0.807177
0.599142 0.152274 0.801885
0.754791 0.152899 0.796679
0.885500 0.142240 0.780499
0.952652 0.134182 0.767448
0.000000 0.357422 0.810501
0.000000 0.296485 0.805253
0.085753 0.260061 0.799970
0.276233 0.286789 0.794842
0.455263 0.305505 0.790062
0.617603 0.306016 0.785807
0.773679 0.306508 0.781701
0.898410 0.292503 0.763273
0.957100 0.285461 0.752339
0.000000 0.500000 0.793051
0.000000 0.458629 0.788446
0.095617 0.437451 0.784314
0.263016 0.438350 0.780229
0.459575 0.458121 0.776415
0.631868 0.467217 0.773193
0.785796 0.465704 0.768557
0.906860 0.451177 0.750520
0.960200 0.444776 0.740327
0.000000 0.642578 0.778792
0.000000 0.622757 0.775157
0.103203 0.614059 0.772210
0.272613 0.614699 0.769301
0.452289 0.615412 0.766061
0.643691 0.628174 0.762613
0.796870 0.624063 0.754546
0.915224 0.609861 0.736433
0.963259 0.604096 0.726946
0.000000 0.778125 0.768153
0.000000 0.778125 0.762810
0.106299 0.778125 0.757635
0.278191 0.778125 0.753327
0.460038 0.778125 0.749123
0.645357 0.778125 0.745994
0.807291 0.771125 0.734055
0.921478 0.743720 0.703647
0.965207 0.734333 0.692201
0.000000 0.898091 0.756528
0.000000 0.898091 0.734169
0.099219 0.898091 0.720725
0.284005 0.898091 0.721411
0.478108 0.898091 0.726246
0.646193 0.898091 0.724942
0.802268 0.898091 0.724047
0.923383 0.892346 0.701558
0.965511 0.881910 0.689126
0.000000 0.955854 0.746412
0.000000 0.955854 0.718264
0.111452 0.955854 0.707180
0.295602 0.955854 0.712881
0.474270 0.955854 0.717032
0.640110 0.955854 0.717032
0.795415 0.955854 0.717032
0.919486 0.955854 0.717032
0.965511 0.954109 0.702322
0.000000 0.000000 0.934073
0.092595 0.000000 0.934073
0.203860 0.000000 0.934073
0.328139 0.000000 0.934073
0.460052 0.000000 0.933885
0.594943 0.000000 0.933066
0.727423 0.000000 0.931656
0.851407 0.000000 0.929712
0.938387 0.000000 0.927288
0.000000 0.100391 0.934069
0.000000 0.008525 0.933659
0.117466 0.000523 0.932617
0.259369 0.000717 0.931007
0.411671 0.000972 0.928882
0.567964 0.001282 0.926297
0.721072 0.001640 0.923312
0.862962 0.002038 0.919999
0.946721 0.000000 0.912860
0.000000 0.221875 0.930290
0.000000 0.142067 0.927992
0.094371 0.109052 0.925253
0.269754 0.137843 0.922139
0.426925 0.138253 0.918729
0.587407 0.138685 0.915123
0.742997 0.139126 0.911447
0.884560 0.139557 0.907856
0.953159 0.134121 0.898685
0.000000 0.357422 0.920927
0.000000 0.291431 0.917433
0.061442 0.235022 0.913785
0.259977 0.269453 0.910120
0.442540 0.291520 0.906604
0.604918 0.291914 0.903324
0.761035 0.292318 0.899958
0.899468 0.292376 0.896358
0.957419 0.285422 0.886200
0.000000 0.500000 0.908813
0.000000 0.450170 0.905398
0.070274 0.411537 0.902105
0.237829 0.412277 0.898742
0.442648 0.440196 0.895585
0.618418 0.452847 0.892943
0.774393 0.453166 0.890285
0.907714 0.451074 0.884780
0.960531 0.444736 0.874690
0.000000 0.642578 0.897553
0.000000 0.610517 0.894549
0.077226 0.587700 0.892026
0.246933 0.588318 0.889216
0.426922 0.589015 0.886047
0.628567 0.611738 0.882612
0.788309 0.614205 0.879024
0.915996 0.609768 0.870622
0.963520 0.604065 0.861186
0.000000 0.778125 0.888099
0.000000 0.764151 0.884822
0.084081 0.755423 0.881316
0.257052 0.756214 0.877720
0.439891 0.756980 0.874239
0.622653 0.757689 0.871014
0.800923 0.767319 0.868179
0.921898 0.760872 0.859146
0.965310 0.755663 0.852091
0.000000 0.898091 0.876431
0.000000 0.898091 0.869742
0.084845 0.898091 0.863734
0.259157 0.898091 0.860490
0.442369 0.898091 0.857947
0.624088 0.898091 0.856272
0.802019 0.898091 0.858977
0.923383 0.892021 0.848862
0.965511 0.881910 0.838751
0.000000 0.955854 0.866438
0.000000 0.955854 0.853301
0.074618 0.955854 0.843202
0.248938 0.955854 0.842920
0.439633 0.955854 0.844720
0.630152 0.955854 0.848907
0.795415 0.955854 0.852177
0.919486 0.955854 0.852177
0.965511 0.953872 0.842294
0.000000 0.000000 0.969503
0.092595 0.000000 0.969503
0.203860 0.000000 0.969503
0.328141 0.000000 0.969502
0.460358 0.000000 0.969357
0.595687 0.000000 0.968976
0.728613 0.000000 0.968382
0.852937 0.000000 0.967595
0.939225 0.000000 0.966632
0.000000 0.100391 0.969478
0.000000 0.008402 0.969244
0.116830 0.000000 0.968783
0.258406 0.000000 0.968117
0.410395 0.000000 0.967264
0.566335 0.000000 0.966241
0.718980 0.000000 0.965073
0.860229 0.000000 0.963786
0.945761 0.000000 0.962419
0.000000 0.221875 0.967827
0.000000 0.141212 0.966910
0.089033 0.103046 0.965831
0.265749 0.132746 0.964616
0.423101 0.132904 0.963296
0.583624 0.133071 0.961911
0.739037 0.133239 0.960512
0.880049 0.133400 0.959164
0.953149 0.133552 0.957903
0.000000 0.357422 0.964146
0.000000 0.289618 0.962797
0.051684 0.224547 0.961400
0.253704 0.262144 0.960012
0.437489 0.285269 0.958700
0.599845 0.285420 0.957434
0.755802 0.285576 0.956137
0.893922 0.285723 0.954913
0.957706 0.285388 0.953426
0.000000 0.500000 0.959521
0.000000 0.447019 0.958248
0.058772 0.399469 0.956961
0.226159 0.399751 0.955677
0.434865 0.431484 0.954510
0.612089 0.445576 0.953530
0.768111 0.445707 0.952442
0.903459 0.445855 0.951210
0.960860 0.444697 0.948553
0.000000 0.642578 0.955232
0.000000 0.605646 0.954139
0.064179 0.574252 0.953152
0.233841 0.574503 0.952008
0.413736 0.574784 0.950733
0.620018 0.601927 0.949365
0.781322 0.605934 0.947948
0.913167 0.606103 0.946534
0.963769 0.604035 0.942951
0.000000 0.778125 0.951557
0.000000 0.757283 0.950244
0.069707 0.740565 0.948852
0.242478 0.740878 0.947430
0.425067 0.741186 0.946031
0.607484 0.741475 0.944718
0.792752 0.758273 0.943559
0.919827 0.758385 0.942628
0.965393 0.755653 0.939195
0.000000 0.898091 0.946915
0.000000 0.892210 0.945540
0.075057 0.887931 0.944274
0.249722 0.888169 0.943190
0.433099 0.888352 0.942361
0.614744 0.888461 0.941864
0.784193 0.888486 0.941751
0.921179 0.892852 0.941751
0.965511 0.890001 0.938900
0.000000 0.955854 0.942855
0.000000 0.955854 0.940439
0.074684 0.955854 0.938683
0.248938 0.955854 0.938648
0.431271 0.955854 0.938648
0.611918 0.955854 0.938648
0.781090 0.955854 0.938648
0.919486 0.955854 0.940059
0.965511 0.953537 0.936049
