luts/PowerGrade Cinematic Landscape.cube
TITLE "PowerGrade Cinematic Landscape"
LUT_3D_SIZE 5
0.035761 0.035761 0.035761
0.245161 0.025291 0.025291
0.507950 0.012151 0.012151
0.769448 0.000000 0.000000
0.905383 0.000000 0.000000
0.016117 0.241759 0.000000
0.245161 0.237272 0.014052
0.507950 0.228449 0.012151
0.769448 0.216039 0.000000
0.905383 0.214469 0.000000
0.033333 0.500000 0.000000
0.258864 0.500000 0.000000
0.507950 0.490391 0.000000
0.769448 0.486867 0.000000
0.905383 0.483330 0.000000
0.050634 0.759509 0.000000
0.270381 0.759509 0.000000
0.546154 0.759509 0.000000
0.769448 0.744706 0.000000
0.905383 0.753511 0.000000
0.060045 0.900673 0.000000
0.278103 0.900673 0.000000
0.551757 0.900673 0.000000
0.820478 0.900673 0.000000
0.905383 0.881667 0.000000
0.009419 0.009419 0.238387
0.245161 0.025291 0.238048
0.507950 0.012151 0.224908
0.769448 0.000000 0.212502
0.905383 0.000000 0.210958
0.025461 0.241759 0.238218
0.245161 0.241589 0.238048
0.507950 0.228449 0.224908
0.769448 0.215375 0.211834
0.905383 0.208578 0.205037
0.000000 0.500000 0.184901
0.203252 0.500000 0.172983
0.507950 0.495030 0.213297
0.769448 0.486528 0.211834
0.905383 0.479731 0.205037
0.000000 0.759509 0.162004
0.160000 0.759509 0.108106
0.488487 0.759509 0.108106
0.769448 0.748417 0.184381
0.905383 0.752216 0.205037
0.000000 0.900673 0.150959
0.136473 0.900673 0.072815
0.464960 0.900673 0.072815
0.791833 0.900673 0.072815
0.905383 0.885078 0.164339
0.000000 0.000000 0.492050
0.232816 0.012946 0.492050
0.507950 0.012151 0.491255
0.769448 0.000000 0.478529
0.905383 0.000000 0.475053
0.000000 0.222143 0.492050
0.213065 0.209221 0.492050
0.507950 0.228449 0.491255
0.769448 0.215375 0.478180
0.905383 0.208578 0.471383
0.012549 0.500000 0.491653
0.232419 0.500000 0.491653
0.507950 0.499603 0.491255
0.769448 0.486528 0.478180
0.905383 0.479731 0.471383
0.000000 0.759509 0.428201
0.116574 0.759509 0.382323
0.467348 0.759509 0.425185
0.769448 0.754811 0.467638
0.905383 0.752216 0.471383
0.000000 0.900673 0.415110
0.081283 0.900673 0.335269
0.443821 0.900673 0.389894
0.770694 0.900673 0.389894
0.905383 0.891384 0.447596
0.000000 0.000000 0.749100
0.219898 0.000000 0.749100
0.495892 0.000094 0.749100
0.769448 0.000000 0.748108
0.905383 0.000000 0.742673
0.000000 0.216325 0.749100
0.179649 0.175805 0.749100
0.495892 0.216392 0.749100
0.769448 0.215375 0.748082
0.905383 0.208578 0.741285
0.000000 0.487512 0.749100
0.179649 0.467617 0.749100
0.476600 0.467617 0.749100
0.769448 0.486528 0.748082
0.905383 0.479731 0.741285
0.000000 0.759509 0.748585
0.219443 0.759509 0.748579
0.495372 0.759509 0.748579
0.769448 0.759012 0.748082
0.905383 0.752216 0.741285
0.000000 0.900673 0.720757
0.134828 0.900673 0.693384
0.409769 0.900673 0.678479
0.749273 0.900673 0.711206
0.905383 0.897815 0.734635
0.000000 0.000000 0.895665
0.218108 0.000000 0.895665
0.491826 0.000000 0.895665
0.764199 0.000000 0.895665
0.905383 0.000000 0.895265
0.000000 0.214565 0.895665
0.160595 0.156751 0.895665
0.487375 0.207057 0.895665
0.763137 0.209064 0.895665
0.905383 0.208578 0.895179
0.000000 0.483546 0.895665
0.160595 0.448564 0.895665
0.457547 0.448564 0.895665
0.763137 0.480217 0.895665
0.905383 0.479731 0.895179
0.000000 0.753847 0.895665
0.169066 0.743582 0.895665
0.457547 0.741809 0.895665
0.753040 0.741809 0.895665
0.905383 0.752216 0.895179
0.000000 0.900673 0.895458
0.212385 0.900673 0.895415
0.488314 0.900673 0.895415
0.762887 0.900673 0.895415
0.905383 0.900437 0.895179
