luts/PowerGrade Desert Day.cube
TITLE "PowerGrade Desert Day"
LUT_3D_SIZE 9
0.000000 0.000000 0.000000
0.099599 0.000000 0.000000
0.225045 0.000000 0.000000
0.367374 0.000000 0.000000
0.517623 0.000000 0.000000
0.666827 0.000000 0.000000
0.806023 0.000000 0.000000
0.909774 0.000000 0.000000
0.951233 0.000000 0.000000
0.000000 0.096289 0.000000
0.099599 0.096289 0.000000
0.225045 0.096289 0.000000
0.367374 0.096289 0.000000
0.517623 0.096289 0.000000
0.666827 0.096289 0.000000
0.806023 0.096289 0.000000
0.909774 0.096289 0.000000
0.951233 0.096289 0.000000
0.000000 0.217188 0.000000
0.099599 0.217188 0.000000
0.225045 0.217188 0.000000
0.367374 0.217188 0.000000
0.517623 0.217187 0.000000
0.666827 0.217187 0.000000
0.806023 0.217188 0.000000
0.909774 0.217187 0.000000
0.951233 0.217187 0.000000
0.000000 0.354492 0.000000
0.099599 0.354492 0.000000
0.225045 0.354492 0.000000
0.367374 0.354492 0.000000
0.517623 0.354492 0.000000
0.666827 0.354492 0.000000
0.806023 0.354492 0.000000
0.909774 0.354492 0.000000
0.951233 0.354492 0.000000
0.000000 0.500000 0.000000
0.099599 0.500000 0.000000
0.225045 0.500000 0.000000
0.367374 0.500000 0.000000
0.517623 0.500000 0.000000
0.666827 0.500000 0.000000
0.806023 0.500000 0.000000
0.909774 0.500000 0.000000
0.951233 0.500000 0.000000
0.000000 0.645508 0.000000
0.099599 0.645508 0.000000
0.225045 0.645508 0.000000
0.367374 0.645508 0.000000
0.517623 0.645508 0.000000
0.666827 0.645508 0.000000
0.806023 0.645508 0.000000
0.909774 0.645508 0.000000
0.951233 0.645508 0.000000
0.000000 0.782813 0.000000
0.099599 0.782813 0.000000
0.225045 0.782813 0.000000
0.367374 0.782813 0.000000
0.517623 0.782813 0.000000
0.666827 0.782813 0.000000
0.806023 0.782813 0.000000
0.909774 0.782813 0.000000
0.951233 0.782813 0.000000
0.000000 0.895147 0.000000
0.099599 0.895147 0.000000
0.225045 0.895147 0.000000
0.367374 0.895147 0.000000
0.517623 0.895147 0.000000
0.666827 0.895147 0.000000
0.806023 0.895147 0.000000
0.909774 0.895147 0.000000
0.951233 0.895147 0.000000
0.000000 0.944818 0.000000
0.099599 0.944818 0.000000
0.225045 0.944818 0.000000
0.367374 0.944818 0.000000
0.517623 0.944818 0.000000
0.666827 0.944818 0.000000
0.806023 0.944818 0.000000
0.909774 0.944818 0.000000
0.951233 0.944818 0.000000
0.000000 0.012400 0.093001
0.099599 0.000000 0.093001
0.225045 0.000000 0.093001
0.367374 0.000000 0.093001
0.517623 0.000000 0.093001
0.666827 0.000000 0.093001
0.806023 0.000000 0.093001
0.909774 0.000000 0.093001
0.951233 0.000000 0.093001
0.000000 0.096289 0.093001
0.099599 0.095131 0.090692
0.225045 0.064100 0.059990
0.367374 0.028518 0.024408
0.517623 0.004008 0.000000
0.666827 0.003821 0.000000
0.806023 0.003717 0.000000
0.909774 0.003662 0.000000
0.951233 0.003644 0.000000
0.000000 0.217188 0.093001
0.070202 0.217188 0.061955
0.225045 0.214437 0.046786
0.367374 0.166280 0.000000
0.517623 0.151386 0.000000
0.666827 0.144313 0.000000
0.806023 0.140384 0.000000
0.909774 0.138327 0.000000
0.951233 0.137643 0.000000
0.000000 0.354492 0.093001
0.035876 0.354492 0.027629
0.192683 0.354492 0.027629
0.367374 0.350126 0.000000
0.517623 0.318763 0.000000
0.666827 0.303871 0.000000
0.806023 0.295598 0.000000
0.909774 0.291265 0.000000
0.951233 0.289827 0.000000
0.000000 0.500000 0.093001
0.008105 0.500000 0.000000
0.162216 0.500000 0.000000
0.337068 0.500000 0.000000
0.517623 0.496140 0.000000
0.666827 0.472962 0.000000
0.806023 0.460085 0.000000
0.909774 0.453341 0.000000
0.951233 0.451103 0.000000
0.000000 0.645508 0.093001
0.007708 0.645508 0.000000
0.154270 0.645508 0.000000
0.320557 0.645508 0.000000
0.496096 0.645508 0.000000
0.666827 0.642053 0.000000
0.806023 0.624571 0.000000
0.909774 0.615417 0.000000
0.951233 0.612378 0.000000
0.000000 0.782813 0.093001
0.007487 0.782813 0.000000
0.149846 0.782813 0.000000
0.311364 0.782813 0.000000
0.481869 0.782813 0.000000
0.651190 0.782813 0.000000
0.806023 0.779785 0.000000
0.909774 0.768356 0.000000
0.951233 0.764562 0.000000
0.000000 0.895147 0.093001
0.007363 0.895147 0.000000
0.147353 0.895147 0.000000
0.306184 0.895147 0.000000
0.473852 0.895147 0.000000
0.640355 0.895147 0.000000
0.795690 0.895147 0.000000
0.909774 0.893481 0.000000
0.951233 0.889069 0.000000
0.000000 0.944818 0.093001
0.007318 0.944818 0.000000
0.146460 0.944818 0.000000
0.304329 0.944818 0.000000
0.470981 0.944818 0.000000
0.636476 0.944818 0.000000
0.790869 0.944818 0.000000
0.905948 0.944818 0.000000
0.951233 0.944123 0.000000
0.000000 0.027919 0.209389
0.096881 0.000000 0.209389
0.225045 0.000000 0.209389
0.367374 0.000000 0.209389
0.517623 0.000000 0.209389
0.666827 0.000000 0.209389
0.806023 0.000000 0.209389
0.909774 0.000000 0.209389
0.951233 0.000000 0.209389
0.000000 0.124208 0.209389
0.051049 0.067527 0.209389
0.225045 0.064100 0.205475
0.367374 0.028518 0.169893
0.517623 0.000000 0.138947
0.666827 0.000000 0.132188
0.806023 0.000000 0.128444
0.909774 0.000000 0.126487
0.951233 0.000000 0.125838
0.000000 0.217188 0.209389
0.070202 0.217188 0.207440
0.225045 0.214437 0.203910
0.367374 0.179641 0.169893
0.517623 0.142079 0.132331
0.666827 0.104778 0.095030
0.806023 0.069979 0.060231
0.909774 0.044041 0.034293
0.951233 0.033676 0.023928
0.000000 0.354492 0.209389
0.035876 0.354492 0.173113
0.192683 0.354492 0.173113
0.367374 0.349984 0.154095
0.517623 0.297397 0.101507
0.666827 0.247190 0.052236
0.806023 0.212735 0.022077
0.909774 0.188483 0.000000
0.951233 0.186059 0.000000
0.000000 0.500000 0.209389
0.000000 0.500000 0.137100
0.156306 0.500000 0.136737
0.334218 0.500000 0.136737
0.517623 0.493832 0.101507
0.666827 0.441611 0.049286
0.806023 0.392892 0.000567
0.909774 0.377493 0.000000
0.951233 0.372637 0.000000
0.000000 0.645508 0.209389
0.000000 0.645508 0.129821
0.119929 0.645508 0.100360
0.297841 0.645508 0.100360
0.485651 0.645508 0.100360
0.666827 0.638046 0.049286
0.806023 0.589327 0.000567
0.909774 0.566502 0.000000
0.951233 0.559215 0.000000
0.000000 0.782813 0.209389
0.000000 0.782813 0.125796
0.085603 0.782813 0.066033
0.263514 0.782813 0.066033
0.451325 0.782813 0.066033
0.635616 0.782813 0.055085
0.806023 0.774689 0.000567
0.909774 0.744856 0.000000
0.951233 0.735275 0.000000
0.000000 0.895147 0.209389
0.000000 0.895147 0.123536
0.057519 0.895147 0.037950
0.235431 0.895147 0.037950
0.423242 0.895147 0.037950
0.609747 0.895147 0.037950
0.779463 0.895147 0.005024
0.909774 0.890774 0.000000
0.951233 0.879316 0.000000
0.000000 0.944818 0.209389
0.000000 0.944818 0.122728
0.045102 0.944818 0.025532
0.223013 0.944818 0.025532
0.410824 0.944818 0.025532
0.597329 0.944818 0.025532
0.767923 0.944818 0.007507
0.899796 0.944818 0.000000
0.951233 0.943008 0.000000
0.000000 0.045557 0.341677
0.061605 0.000000 0.341677
0.225045 0.000000 0.341677
0.367374 0.000000 0.341677
0.517623 0.000000 0.341677
0.666827 0.000000 0.341677
0.806023 0.000000 0.341677
0.909774 0.000000 0.341677
0.951233 0.000000 0.341677
0.000000 0.141846 0.341677
0.000000 0.040948 0.341677
0.195887 0.034942 0.341677
0.367374 0.028518 0.335252
0.517623 0.000000 0.301467
0.666827 0.000000 0.286802
0.806023 0.000000 0.278679
0.909774 0.000000 0.274433
0.951233 0.000000 0.273025
0.000000 0.262744 0.341677
0.002768 0.212580 0.341677
0.167392 0.179629 0.341677
0.367374 0.179641 0.335252
0.517623 0.142079 0.297690
0.666827 0.104778 0.260389
0.806023 0.069979 0.225590
0.909774 0.044041 0.199653
0.951233 0.033676 0.189288
0.000000 0.354492 0.341677
0.035876 0.354492 0.338473
0.192683 0.354492 0.338473
0.367374 0.349984 0.332683
0.517623 0.313710 0.297690
0.666827 0.276409 0.260389
0.806023 0.241609 0.225590
0.909774 0.215672 0.199653
0.951233 0.205307 0.189288
0.000000 0.500000 0.341677
0.000000 0.500000 0.302294
0.156306 0.500000 0.302096
0.334218 0.500000 0.302096
0.517623 0.493832 0.280096
0.666827 0.441611 0.227874
0.806023 0.392892 0.179156
0.909774 0.365536 0.155260
0.951233 0.355353 0.146277
0.000000 0.645508 0.341677
0.000000 0.645508 0.286244
0.119929 0.645508 0.265719
0.297841 0.645508 0.265719
0.485651 0.645508 0.265719
0.666827 0.638046 0.227874
0.806023 0.589327 0.179156
0.909774 0.553015 0.142843
0.951233 0.538504 0.128332
0.000000 0.782813 0.341677
0.000000 0.782813 0.277368
0.085603 0.782813 0.231393
0.263514 0.782813 0.231393
0.451325 0.782813 0.231393
0.637831 0.782813 0.231393
0.806023 0.774689 0.179156
0.909774 0.738376 0.142843
0.951233 0.723865 0.128332
0.000000 0.895147 0.341677
0.000000 0.895147 0.272385
0.057519 0.895147 0.203309
0.235431 0.895147 0.203309
0.423242 0.895147 0.203309
0.609747 0.895147 0.203309
0.780570 0.895147 0.183612
0.909774 0.890027 0.142843
0.951233 0.875517 0.128332
0.000000 0.944818 0.341677
0.000000 0.944818 0.270604
0.045102 0.944818 0.190891
0.223013 0.944818 0.190891
0.410824 0.944818 0.190891
0.597329 0.944818 0.190891
0.770221 0.944818 0.186095
0.898323 0.944818 0.144595
0.951233 0.942573 0.128332
0.000000 0.064317 0.482377
0.035282 0.000000 0.482377
0.216435 0.000000 0.482377
0.367374 0.000000 0.482377
0.517623 0.000000 0.482377
0.666827 0.000000 0.482377
0.806023 0.000000 0.482377
0.909774 0.000000 0.482377
0.951233 0.000000 0.482377
0.000000 0.160606 0.482377
0.000000 0.060182 0.482377
0.118029 0.000000 0.482377
0.338693 0.000000 0.482377
0.517623 0.000000 0.474323
0.666827 0.000000 0.451248
0.806023 0.000000 0.438469
0.909774 0.000000 0.431788
0.951233 0.000000 0.429572
0.000000 0.281504 0.482377
0.000000 0.212502 0.482377
0.111112 0.149613 0.482377
0.338623 0.150890 0.482377
0.517623 0.142079 0.473566
0.666827 0.104778 0.436265
0.806023 0.069979 0.401466
0.909774 0.044041 0.375528
0.951233 0.033676 0.365164
0.000000 0.418809 0.482377
0.000000 0.385533 0.482377
0.122112 0.351374 0.482377
0.303338 0.309175 0.482377
0.517623 0.313710 0.473566
0.666827 0.276409 0.436265
0.806023 0.241609 0.401466
0.909774 0.215672 0.375528
0.951233 0.205307 0.365164
0.000000 0.500000 0.482377
0.000000 0.500000 0.477994
0.156306 0.500000 0.477972
0.334218 0.500000 0.477972
0.517623 0.493832 0.470042
0.666827 0.457479 0.435364
0.806023 0.423494 0.401466
0.909774 0.397557 0.375528
0.951233 0.387192 0.365164
0.000000 0.645508 0.482377
0.000000 0.645508 0.452615
0.119929 0.645508 0.441595
0.297841 0.645508 0.441595
0.485651 0.645508 0.441595
0.666827 0.638046 0.417820
0.806023 0.589327 0.369101
0.909774 0.553015 0.332789
0.951233 0.538504 0.318278
0.000000 0.782813 0.482377
0.000000 0.782813 0.438580
0.085603 0.782813 0.407269
0.263514 0.782813 0.407269
0.451325 0.782813 0.407269
0.637831 0.782813 0.407269
0.806023 0.774689 0.369101
0.909774 0.738376 0.332789
0.951233 0.723865 0.318278
0.000000 0.895147 0.482377
0.000000 0.895147 0.430701
0.057519 0.895147 0.379185
0.235431 0.895147 0.379185
0.423242 0.895147 0.379185
0.609747 0.895147 0.379185
0.782527 0.895147 0.373558
0.909774 0.890027 0.332789
0.951233 0.875517 0.318278
0.000000 0.944818 0.482377
0.000000 0.944818 0.427884
0.045102 0.944818 0.366767
0.223013 0.944818 0.366767
0.410824 0.944818 0.366767
0.597329 0.944818 0.366767
0.771324 0.944818 0.366767
0.898571 0.944818 0.334541
0.951233 0.942573 0.318278
0.000000 0.083201 0.624004
0.016398 0.000000 0.624004
0.178668 0.000000 0.624004
0.367374 0.000000 0.624004
0.517623 0.000000 0.624004
0.666827 0.000000 0.624004
0.806023 0.000000 0.624004
0.909774 0.000000 0.624004
0.951233 0.000000 0.624004
0.000000 0.179490 0.624004
0.000000 0.079287 0.624004
0.069049 0.000000 0.624004
0.320548 0.000000 0.624004
0.498212 0.000000 0.624004
0.666827 0.000000 0.616777
0.806023 0.000000 0.599310
0.909774 0.000000 0.590179
0.951233 0.000000 0.587150
0.000000 0.300388 0.624004
0.000000 0.223122 0.624004
0.054461 0.119400 0.624004
0.245363 0.083550 0.624004
0.491027 0.115483 0.624004
0.666827 0.104778 0.613298
0.806023 0.069979 0.578499
0.909774 0.044041 0.552562
0.951233 0.033676 0.542197
0.000000 0.437693 0.624004
0.000000 0.386505 0.624004
0.065461 0.321160 0.624004
0.246687 0.278962 0.624004
0.491027 0.287114 0.624004
0.666827 0.276409 0.613298
0.806023 0.241609 0.578499
0.909774 0.215672 0.552562
0.951233 0.205307 0.542197
0.000000 0.566136 0.624004
0.000000 0.555145 0.624004
0.065461 0.524871 0.624004
0.264722 0.498303 0.624004
0.451923 0.450398 0.624004
0.666827 0.458293 0.613298
0.806023 0.423494 0.578499
0.909774 0.397557 0.552562
0.951233 0.387192 0.542197
0.000000 0.645508 0.624004
0.000000 0.645508 0.620081
0.119929 0.645508 0.618628
0.297841 0.645508 0.618628
0.485651 0.645508 0.618628
0.666827 0.638046 0.609016
0.806023 0.603144 0.575965
0.909774 0.579441 0.552562
0.951233 0.569077 0.542197
0.000000 0.782813 0.624004
0.000000 0.782813 0.600853
0.085603 0.782813 0.584302
0.263514 0.782813 0.584302
0.451325 0.782813 0.584302
0.637831 0.782813 0.584302
0.806023 0.774689 0.560297
0.909774 0.738376 0.523985
0.951233 0.723865 0.509474
0.000000 0.895147 0.624004
0.000000 0.895147 0.590058
0.057519 0.895147 0.556218
0.235431 0.895147 0.556218
0.423242 0.895147 0.556218
0.609747 0.895147 0.556218
0.783742 0.895147 0.556218
0.909774 0.890027 0.523985
0.951233 0.875517 0.509474
0.000000 0.944818 0.624004
0.000000 0.944818 0.586200
0.045102 0.944818 0.543801
0.223013 0.944818 0.543801
0.410824 0.944818 0.543801
0.597329 0.944818 0.543801
0.771324 0.944818 0.543801
0.899040 0.944818 0.525737
0.951233 0.942573 0.509474
0.000000 0.101209 0.759070
0.000000 0.001610 0.759070
0.142650 0.000000 0.759070
0.360888 0.000000 0.759070
0.517623 0.000000 0.759070
0.666827 0.000000 0.759070
0.806023 0.000000 0.759070
0.909774 0.000000 0.759070
0.951233 0.000000 0.759070
0.000000 0.197498 0.759070
0.000000 0.097419 0.759070
0.046252 0.000000 0.759070
0.273633 0.000000 0.759070
0.482545 0.000000 0.759070
0.653426 0.000000 0.759070
0.806023 0.000000 0.752700
0.909774 0.000000 0.741232
0.951233 0.000000 0.737428
0.000000 0.318397 0.759070
0.000000 0.236557 0.759070
0.000434 0.090586 0.759070
0.127964 0.009264 0.759070
0.457261 0.081717 0.759070
0.643766 0.081717 0.759070
0.806023 0.069979 0.747332
0.909774 0.044041 0.721394
0.951233 0.033676 0.711030
0.000000 0.455702 0.759070
0.000000 0.394599 0.759070
0.011435 0.292346 0.759070
0.192661 0.250148 0.759070
0.415920 0.229852 0.759070
0.643766 0.253348 0.759070
0.806023 0.241609 0.747332
0.909774 0.215672 0.721394
0.951233 0.205307 0.711030
0.000000 0.601209 0.759070
0.000000 0.562082 0.759070
0.011435 0.496057 0.759070
0.210696 0.469489 0.759070
0.396372 0.420060 0.759070
0.643766 0.435232 0.759070
0.806023 0.423494 0.747332
0.909774 0.397557 0.721394
0.951233 0.387192 0.711030
0.000000 0.706074 0.759070
0.000000 0.698071 0.759070
0.023401 0.686064 0.759070
0.210696 0.673199 0.759070
0.421044 0.645153 0.759070
0.608731 0.600083 0.759070
0.806023 0.605379 0.747332
0.909774 0.579441 0.721394
0.951233 0.569077 0.711030
0.000000 0.782813 0.759070
0.000000 0.782813 0.755609
0.085603 0.782813 0.753135
0.263514 0.782813 0.753135
0.451325 0.782813 0.753135
0.637831 0.782813 0.753135
0.806023 0.774689 0.742637
0.909774 0.747303 0.716921
0.951233 0.737998 0.707938
0.000000 0.895147 0.759070
0.000000 0.895147 0.742034
0.057519 0.895147 0.725051
0.235431 0.895147 0.725051
0.423242 0.895147 0.725051
0.609747 0.895147 0.725051
0.783742 0.895147 0.725051
0.909774 0.890027 0.706324
0.951233 0.875517 0.691814
0.000000 0.944818 0.759070
0.000000 0.944818 0.737182
0.045102 0.944818 0.712633
0.223013 0.944818 0.712633
0.410824 0.944818 0.712633
0.597329 0.944818 0.712633
0.771324 0.944818 0.712633
0.900153 0.944818 0.708076
0.951233 0.942573 0.691814
0.000000 0.116968 0.877263
0.000000 0.017370 0.877263
0.111132 0.000000 0.877263
0.329370 0.000000 0.877263
0.517623 0.000000 0.877263
0.666827 0.000000 0.877263
0.806023 0.000000 0.877263
0.909774 0.000000 0.877263
0.951233 0.000000 0.877263
0.000000 0.213258 0.877263
0.000000 0.113250 0.877263
0.027662 0.000000 0.877263
0.232975 0.000000 0.877263
0.473281 0.000000 0.877263
0.640881 0.000000 0.877263
0.797240 0.000000 0.877263
0.909774 0.000000 0.873415
0.951233 0.000000 0.868932
0.000000 0.334156 0.877263
0.000000 0.249617 0.877263
0.000000 0.106526 0.877263
0.082635 0.000000 0.877263
0.397875 0.034407 0.877263
0.614218 0.052169 0.877263
0.788213 0.052169 0.877263
0.909774 0.044041 0.869136
0.951233 0.033676 0.858771
0.000000 0.471461 0.877263
0.000000 0.404507 0.877263
0.000000 0.291081 0.877263
0.145384 0.224933 0.877263
0.315743 0.164846 0.877263
0.614218 0.223799 0.877263
0.788213 0.223799 0.877263
0.909774 0.215672 0.869136
0.951233 0.205307 0.858771
0.000000 0.616968 0.877263
0.000000 0.568651 0.877263
0.000000 0.486796 0.877263
0.163418 0.444274 0.877263
0.349095 0.394845 0.877263
0.591980 0.392601 0.877263
0.788213 0.405684 0.877263
0.909774 0.397557 0.869136
0.951233 0.387192 0.858771
0.000000 0.762476 0.877263
0.000000 0.732794 0.877263
0.000000 0.682510 0.877263
0.163418 0.647985 0.877263
0.373766 0.619939 0.877263
0.552806 0.566220 0.877263
0.788213 0.587569 0.877263
0.909774 0.579441 0.869136
0.951233 0.569077 0.858771
0.000000 0.833186 0.877263
0.000000 0.827541 0.877263
0.005320 0.818337 0.877263
0.183231 0.817268 0.877263
0.373766 0.812165 0.877263
0.582652 0.784314 0.877263
0.759896 0.745032 0.877263
0.909774 0.751072 0.869136
0.951233 0.740707 0.858771
0.000000 0.895147 0.877263
0.000000 0.895147 0.875024
0.057519 0.895147 0.872793
0.235431 0.895147 0.872793
0.423242 0.895147 0.872793
0.609747 0.895147 0.872793
0.783742 0.895147 0.872793
0.909774 0.890027 0.865885
0.951233 0.877571 0.854083
0.000000 0.944818 0.877263
0.000000 0.944818 0.869303
0.045102 0.944818 0.860375
0.223013 0.944818 0.860375
0.410824 0.944818 0.860375
0.597329 0.944818 0.860375
0.771324 0.944818 0.860375
0.901013 0.944818 0.860375
0.951233 0.942573 0.851374
0.000000 0.124902 0.936768
0.000000 0.025303 0.936768
0.100142 0.000000 0.936768
0.313502 0.000000 0.936768
0.517623 0.000000 0.936768
0.666827 0.000000 0.936768
0.806023 0.000000 0.936768
0.909774 0.000000 0.936768
0.951233 0.000000 0.936768
0.000000 0.221191 0.936768
0.000000 0.121213 0.936768
0.018604 0.000000 0.936768
0.213479 0.000000 0.936768
0.469603 0.000000 0.936768
0.635901 0.000000 0.936768
0.791044 0.000000 0.936768
0.906681 0.000000 0.936768
0.951233 0.000000 0.935139
0.000000 0.342090 0.936768
0.000000 0.256481 0.936768
0.000000 0.114674 0.936768
0.070614 0.000000 0.936768
0.350955 0.001679 0.936768
0.599342 0.037292 0.936768
0.773337 0.037292 0.936768
0.903025 0.037292 0.936768
0.951233 0.033676 0.933152
0.000000 0.479395 0.936768
0.000000 0.410121 0.936768
0.000000 0.295281 0.936768
0.121582 0.212239 0.936768
0.263206 0.132119 0.936768
0.599342 0.208923 0.936768
0.773337 0.208923 0.936768
0.903025 0.208923 0.936768
0.951233 0.205307 0.933152
0.000000 0.624902 0.936768
0.000000 0.572940 0.936768
0.000000 0.486798 0.936768
0.139616 0.431580 0.936768
0.325293 0.382151 0.936768
0.543904 0.359874 0.936768
0.773337 0.390808 0.936768
0.903025 0.390808 0.936768
0.951233 0.387192 0.933152
0.000000 0.770410 0.936768
0.000000 0.735759 0.936768
0.000000 0.678315 0.936768
0.139616 0.635291 0.936768
0.349964 0.607244 0.936768
0.529004 0.553526 0.936768
0.773337 0.572693 0.936768
0.903025 0.572693 0.936768
0.951233 0.569077 0.933152
0.000000 0.864922 0.936768
0.000000 0.856375 0.936768
0.000000 0.842205 0.936768
0.139616 0.827517 0.936768
0.349964 0.799471 0.936768
0.558850 0.771619 0.936768
0.724987 0.721230 0.936768
0.903025 0.744324 0.936768
0.951233 0.740707 0.933152
0.000000 0.917345 0.936768
0.000000 0.915034 0.936768
0.022141 0.911807 0.936768
0.200053 0.911637 0.936768
0.387863 0.911332 0.936768
0.574369 0.910692 0.936768
0.753725 0.902904 0.936768
0.896203 0.881031 0.936768
0.951233 0.881125 0.933152
0.000000 0.944818 0.936768
0.000000 0.944818 0.935819
0.045102 0.944818 0.934756
0.223013 0.944818 0.934756
0.410824 0.944818 0.934756
0.597329 0.944818 0.934756
0.771324 0.944818 0.934756
0.901013 0.944818 0.934756
0.951233 0.942573 0.931705
