luts/PowerGrade Desert Day.cube
TITLE "PowerGrade Desert Day"
LUT_3D_SIZE 5
0.000000 0.000000 0.000000
0.225045 0.000000 0.000000
0.517623 0.000000 0.000000
0.806023 0.000000 0.000000
0.951233 0.000000 0.000000
0.000000 0.217188 0.000000
0.225045 0.217188 0.000000
0.517623 0.217187 0.000000
0.806023 0.217188 0.000000
0.951233 0.217187 0.000000
0.000000 0.500000 0.000000
0.225045 0.500000 0.000000
0.517623 0.500000 0.000000
0.806023 0.500000 0.000000
0.951233 0.500000 0.000000
0.000000 0.782813 0.000000
0.225045 0.782813 0.000000
0.517623 0.782813 0.000000
0.806023 0.782813 0.000000
0.951233 0.782813 0.000000
0.000000 0.944818 0.000000
0.225045 0.944818 0.000000
0.517623 0.944818 0.000000
0.806023 0.944818 0.000000
0.951233 0.944818 0.000000
0.000000 0.027919 0.209389
0.225045 0.000000 0.209389
0.517623 0.000000 0.209389
0.806023 0.000000 0.209389
0.951233 0.000000 0.209389
0.000000 0.217188 0.209389
0.225045 0.214437 0.203910
0.517623 0.142079 0.132331
0.806023 0.069979 0.060231
0.951233 0.033676 0.023928
0.000000 0.500000 0.209389
0.156306 0.500000 0.136737
0.517623 0.493832 0.101507
0.806023 0.392892 0.000567
0.951233 0.372637 0.000000
0.000000 0.782813 0.209389
0.085603 0.782813 0.066033
0.451325 0.782813 0.066033
0.806023 0.774689 0.000567
0.951233 0.735275 0.000000
0.000000 0.944818 0.209389
0.045102 0.944818 0.025532
0.410824 0.944818 0.025532
0.767923 0.944818 0.007507
0.951233 0.943008 0.000000
0.000000 0.064317 0.482377
0.216435 0.000000 0.482377
0.517623 0.000000 0.482377
0.806023 0.000000 0.482377
0.951233 0.000000 0.482377
0.000000 0.281504 0.482377
0.111112 0.149613 0.482377
0.517623 0.142079 0.473566
0.806023 0.069979 0.401466
0.951233 0.033676 0.365164
0.000000 0.500000 0.482377
0.156306 0.500000 0.477972
0.517623 0.493832 0.470042
0.806023 0.423494 0.401466
0.951233 0.387192 0.365164
0.000000 0.782813 0.482377
0.085603 0.782813 0.407269
0.451325 0.782813 0.407269
0.806023 0.774689 0.369101
0.951233 0.723865 0.318278
0.000000 0.944818 0.482377
0.045102 0.944818 0.366767
0.410824 0.944818 0.366767
0.771324 0.944818 0.366767
0.951233 0.942573 0.318278
0.000000 0.101209 0.759070
0.142650 0.000000 0.759070
0.517623 0.000000 0.759070
0.806023 0.000000 0.759070
0.951233 0.000000 0.759070
0.000000 0.318397 0.759070
0.000434 0.090586 0.759070
0.457261 0.081717 0.759070
0.806023 0.069979 0.747332
0.951233 0.033676 0.711030
0.000000 0.601209 0.759070
0.011435 0.496057 0.759070
0.396372 0.420060 0.759070
0.806023 0.423494 0.747332
0.951233 0.387192 0.711030
0.000000 0.782813 0.759070
0.085603 0.782813 0.753135
0.451325 0.782813 0.753135
0.806023 0.774689 0.742637
0.951233 0.737998 0.707938
0.000000 0.944818 0.759070
0.045102 0.944818 0.712633
0.410824 0.944818 0.712633
0.771324 0.944818 0.712633
0.951233 0.942573 0.691814
0.000000 0.124902 0.936768
0.100142 0.000000 0.936768
0.517623 0.000000 0.936768
0.806023 0.000000 0.936768
0.951233 0.000000 0.936768
0.000000 0.342090 0.936768
0.000000 0.114674 0.936768
0.350955 0.001679 0.936768
0.773337 0.037292 0.936768
0.951233 0.033676 0.933152
0.000000 0.624902 0.936768
0.000000 0.486798 0.936768
0.325293 0.382151 0.936768
0.773337 0.390808 0.936768
0.951233 0.387192 0.933152
0.000000 0.864922 0.936768
0.000000 0.842205 0.936768
0.349964 0.799471 0.936768
0.724987 0.721230 0.936768
0.951233 0.740707 0.933152
0.000000 0.944818 0.936768
0.045102 0.944818 0.934756
0.410824 0.944818 0.934756
0.771324 0.944818 0.934756
0.951233 0.942573 0.931705
