luts/PowerGrade Silver Bleach.cube
TITLE "PowerGrade Silver Bleach"
LUT_3D_SIZE 33
0.000000 0.000000 0.000000
0.018281 0.000112 0.000112
0.038987 0.001019 0.001019
0.061956 0.003812 0.003812
0.087031 0.009719 0.009719
0.114050 0.019820 0.019820
0.142854 0.034650 0.034650
0.173282 0.053738 0.053738
0.205176 0.075102 0.075102
0.238375 0.094751 0.094751
0.272719 0.109087 0.109087
0.308048 0.123219 0.123219
0.344202 0.137681 0.137681
0.381022 0.152409 0.152409
0.418347 0.167339 0.167339
0.456018 0.182407 0.182407
0.493875 0.197550 0.197550
0.531758 0.212703 0.212703
0.569506 0.227803 0.227803
0.606961 0.242784 0.242784
0.643962 0.257585 0.257585
0.680349 0.272139 0.272139
0.715962 0.286385 0.286385
0.750642 0.300257 0.300257
0.784228 0.313691 0.313691
0.816561 0.326624 0.326624
0.845486 0.338194 0.338194
0.868731 0.347492 0.347492
0.887400 0.354960 0.354960
0.902393 0.360957 0.360957
0.914419 0.365768 0.365768
0.924035 0.369614 0.369614
0.931676 0.372671 0.372671
0.000115 0.018478 0.000115
0.018282 0.018478 0.000115
0.038987 0.019015 0.001019
0.061956 0.021153 0.003812
0.087031 0.026134 0.009719
0.114050 0.035088 0.019820
0.142854 0.048647 0.034650
0.173282 0.066485 0.053738
0.205176 0.086816 0.075102
0.238375 0.105884 0.094751
0.272719 0.120174 0.109087
0.308048 0.134306 0.123219
0.344202 0.148768 0.137681
0.381022 0.163496 0.152409
0.418347 0.178426 0.167339
0.456018 0.193494 0.182407
0.493875 0.208637 0.197550
0.531758 0.223790 0.212703
0.569506 0.238890 0.227803
0.606961 0.253871 0.242784
0.643962 0.268672 0.257585
0.680349 0.283226 0.272139
0.715962 0.297472 0.286385
0.750642 0.311344 0.300257
0.784228 0.324778 0.313691
0.816561 0.337711 0.326624
0.845486 0.349281 0.338194
0.868731 0.358579 0.347492
0.887400 0.366047 0.354960
0.902393 0.372044 0.360957
0.914419 0.376855 0.365768
0.924035 0.380701 0.369614
0.931676 0.383758 0.372671
0.001053 0.039429 0.001053
0.018846 0.039429 0.001053
0.038998 0.039429 0.001053
0.061956 0.040815 0.003812
0.087031 0.044745 0.009719
0.114050 0.052397 0.019820
0.142854 0.064515 0.034650
0.173282 0.080939 0.053738
0.205176 0.100098 0.075102
0.238375 0.118507 0.094751
0.272719 0.132745 0.109087
0.308048 0.146876 0.123219
0.344202 0.161338 0.137681
0.381022 0.176066 0.152409
0.418347 0.190996 0.167339
0.456018 0.206065 0.182407
0.493875 0.221207 0.197550
0.531758 0.236360 0.212703
0.569506 0.251460 0.227803
0.606961 0.266442 0.242784
0.643962 0.281242 0.257585
0.680349 0.295797 0.272139
0.715962 0.310042 0.286385
0.750642 0.323914 0.300257
0.784228 0.337348 0.313691
0.816561 0.350282 0.326624
0.845486 0.361852 0.338194
0.868731 0.371150 0.347492
0.887400 0.378617 0.354960
0.902393 0.384614 0.360957
0.914419 0.389425 0.365768
0.924035 0.393271 0.369614
0.931676 0.396328 0.372671
0.003939 0.062686 0.003939
0.021071 0.062686 0.003939
0.040476 0.062686 0.003939
0.062002 0.062686 0.003939
0.087031 0.065405 0.009719
0.114050 0.071613 0.019820
0.142854 0.082131 0.034650
0.173282 0.096984 0.053738
0.205176 0.114842 0.075102
0.238375 0.132520 0.094751
0.272719 0.146699 0.109087
0.308048 0.160831 0.123219
0.344202 0.175293 0.137681
0.381022 0.190020 0.152409
0.418347 0.204951 0.167339
0.456018 0.220019 0.182407
0.493875 0.235162 0.197550
0.531758 0.250315 0.212703
0.569506 0.265414 0.227803
0.606961 0.280396 0.242784
0.643962 0.295196 0.257585
0.680349 0.309751 0.272139
0.715962 0.323996 0.286385
0.750642 0.337868 0.300257
0.784228 0.351303 0.313691
0.816561 0.364236 0.326624
0.845486 0.375806 0.338194
0.868731 0.385104 0.347492
0.887400 0.392572 0.354960
0.902393 0.398569 0.360957
0.914419 0.403379 0.365768
0.924035 0.407226 0.369614
0.931676 0.410282 0.372671
0.010040 0.088086 0.010040
0.026238 0.088086 0.010040
0.044583 0.088086 0.010040
0.064935 0.088086 0.010040
0.087151 0.088086 0.010040
0.114050 0.092598 0.019820
0.142854 0.101370 0.034650
0.173282 0.114507 0.053738
0.205176 0.130945 0.075102
0.238375 0.147824 0.094751
0.272719 0.161939 0.109087
0.308048 0.176071 0.123219
0.344202 0.190532 0.137681
0.381022 0.205260 0.152409
0.418347 0.220190 0.167339
0.456018 0.235259 0.182407
0.493875 0.250402 0.197550
0.531758 0.265555 0.212703
0.569506 0.280654 0.227803
0.606961 0.295636 0.242784
0.643962 0.310436 0.257585
0.680349 0.324991 0.272139
0.715962 0.339236 0.286385
0.750642 0.353108 0.300257
0.784228 0.366543 0.313691
0.816561 0.379476 0.326624
0.845486 0.391046 0.338194
0.868731 0.400344 0.347492
0.887400 0.407812 0.354960
0.902393 0.413809 0.360957
0.914419 0.418619 0.365768
0.924035 0.422466 0.369614
0.931676 0.425522 0.372671
0.020455 0.115463 0.020455
0.035498 0.115463 0.020455
0.052535 0.115463 0.020455
0.071436 0.115463 0.020455
0.092068 0.115463 0.020455
0.114300 0.115463 0.020455
0.142854 0.122107 0.034650
0.173282 0.133394 0.053738
0.205176 0.148301 0.075102
0.238375 0.164319 0.094751
0.272719 0.178365 0.109087
0.308048 0.192497 0.123219
0.344202 0.206959 0.137681
0.381022 0.221687 0.152409
0.418347 0.236617 0.167339
0.456018 0.251685 0.182407
0.493875 0.266828 0.197550
0.531758 0.281981 0.212703
0.569506 0.297080 0.227803
0.606961 0.312062 0.242784
0.643962 0.326863 0.257585
0.680349 0.341417 0.272139
0.715962 0.355663 0.286385
0.750642 0.369535 0.300257
0.784228 0.382969 0.313691
0.816561 0.395902 0.326624
0.845486 0.407472 0.338194
0.868731 0.416770 0.347492
0.887400 0.424238 0.354960
0.902393 0.430235 0.360957
0.914419 0.435046 0.365768
0.924035 0.438892 0.369614
0.931676 0.441948 0.372671
0.035697 0.144653 0.035697
0.049467 0.144653 0.035697
0.065063 0.144653 0.035697
0.082364 0.144653 0.035697
0.101251 0.144653 0.035697
0.121602 0.144653 0.035697
0.143298 0.144653 0.035697
0.173282 0.153532 0.053738
0.205176 0.166807 0.075102
0.238375 0.181906 0.094751
0.272719 0.195879 0.109087
0.308048 0.210011 0.123219
0.344202 0.224473 0.137681
0.381022 0.239201 0.152409
0.418347 0.254131 0.167339
0.456018 0.269199 0.182407
0.493875 0.284342 0.197550
0.531758 0.299495 0.212703
0.569506 0.314595 0.227803
0.606961 0.329576 0.242784
0.643962 0.344377 0.257585
0.680349 0.358931 0.272139
0.715962 0.373177 0.286385
0.750642 0.387049 0.300257
0.784228 0.400483 0.313691
0.816561 0.413416 0.326624
0.845486 0.424986 0.338194
0.868731 0.434284 0.347492
0.887400 0.441752 0.354960
0.902393 0.447749 0.360957
0.914419 0.452560 0.365768
0.924035 0.456406 0.369614
0.931676 0.459462 0.372671
0.055208 0.175491 0.055208
0.067738 0.175491 0.055208
0.081929 0.175491 0.055208
0.097673 0.175491 0.055208
0.114860 0.175491 0.055208
0.133379 0.175491 0.055208
0.153121 0.175491 0.055208
0.173977 0.175491 0.055208
0.205176 0.186357 0.075102
0.238375 0.200487 0.094751
0.272719 0.214382 0.109087
0.308048 0.228514 0.123219
0.344202 0.242976 0.137681
0.381022 0.257704 0.152409
0.418347 0.272634 0.167339
0.456018 0.287702 0.182407
0.493875 0.302845 0.197550
0.531758 0.317998 0.212703
0.569506 0.333097 0.227803
0.606961 0.348079 0.242784
0.643962 0.362879 0.257585
0.680349 0.377434 0.272139
0.715962 0.391680 0.286385
0.750642 0.405551 0.300257
0.784228 0.418986 0.313691
0.816561 0.431919 0.326624
0.845486 0.443489 0.338194
0.868731 0.452787 0.347492
0.887400 0.460255 0.354960
0.902393 0.466252 0.360957
0.914419 0.471062 0.365768
0.924035 0.474909 0.369614
0.931676 0.477965 0.372671
0.076823 0.207813 0.076823
0.088346 0.207813 0.076823
0.101397 0.207813 0.076823
0.115875 0.207813 0.076823
0.131681 0.207813 0.076823
0.148711 0.207813 0.076823
0.166867 0.207813 0.076823
0.186047 0.207813 0.076823
0.206151 0.207813 0.076823
0.238375 0.219961 0.094751
0.272719 0.233775 0.109087
0.308048 0.247907 0.123219
0.344202 0.262368 0.137681
0.381022 0.277096 0.152409
0.418347 0.292026 0.167339
0.456018 0.307095 0.182407
0.493875 0.322238 0.197550
0.531758 0.337391 0.212703
0.569506 0.352490 0.227803
0.606961 0.367472 0.242784
0.643962 0.382272 0.257585
0.680349 0.396827 0.272139
0.715962 0.411072 0.286385
0.750642 0.424944 0.300257
0.784228 0.438379 0.313691
0.816561 0.451312 0.326624
0.845486 0.462882 0.338194
0.868731 0.472180 0.347492
0.887400 0.479647 0.354960
0.902393 0.485645 0.360957
0.914419 0.490455 0.365768
0.924035 0.494302 0.369614
0.931676 0.497358 0.372671
0.096250 0.241452 0.096250
0.107244 0.241452 0.096250
0.119695 0.241452 0.096250
0.133509 0.241452 0.096250
0.148588 0.241452 0.096250
0.164836 0.241452 0.096250
0.182158 0.241452 0.096250
0.200457 0.241452 0.096250
0.219637 0.241452 0.096250
0.239601 0.241452 0.096250
0.272719 0.253959 0.109087
0.308048 0.268090 0.123219
0.344202 0.282552 0.137681
0.381022 0.297280 0.152409
0.418347 0.312210 0.167339
0.456018 0.327279 0.182407
0.493875 0.342421 0.197550
0.531758 0.357574 0.212703
0.569506 0.372674 0.227803
0.606961 0.387656 0.242784
0.643962 0.402456 0.257585
0.680349 0.417011 0.272139
0.715962 0.431256 0.286385
0.750642 0.445128 0.300257
0.784228 0.458562 0.313691
0.816561 0.471496 0.326624
0.845486 0.483066 0.338194
0.868731 0.492364 0.347492
0.887400 0.499831 0.354960
0.902393 0.505828 0.360957
0.914419 0.510639 0.365768
0.924035 0.514485 0.369614
0.931676 0.517542 0.372671
0.110498 0.276245 0.110498
0.121467 0.276245 0.110498
0.133890 0.276245 0.110498
0.147672 0.276245 0.110498
0.162717 0.276245 0.110498
0.178928 0.276245 0.110498
0.196210 0.276245 0.110498
0.214468 0.276245 0.110498
0.233604 0.276245 0.110498
0.253523 0.276245 0.110498
0.274129 0.276245 0.110498
0.308048 0.288966 0.123219
0.344202 0.303428 0.137681
0.381022 0.318156 0.152409
0.418347 0.333086 0.167339
0.456018 0.348154 0.182407
0.493875 0.363297 0.197550
0.531758 0.378450 0.212703
0.569506 0.393550 0.227803
0.606961 0.408531 0.242784
0.643962 0.423332 0.257585
0.680349 0.437887 0.272139
0.715962 0.452132 0.286385
0.750642 0.466004 0.300257
0.784228 0.479438 0.313691
0.816561 0.492371 0.326624
0.845486 0.503941 0.338194
0.868731 0.513239 0.347492
0.887400 0.520707 0.354960
0.902393 0.526704 0.360957
0.914419 0.531515 0.365768
0.924035 0.535361 0.369614
0.931676 0.538418 0.372671
0.124811 0.312027 0.124811
0.135779 0.312027 0.124811
0.148203 0.312027 0.124811
0.161985 0.312027 0.124811
0.177029 0.312027 0.124811
0.193241 0.312027 0.124811
0.210523 0.312027 0.124811
0.228780 0.312027 0.124811
0.247916 0.312027 0.124811
0.267836 0.312027 0.124811
0.288442 0.312027 0.124811
0.309639 0.312027 0.124811
0.344202 0.324897 0.137681
0.381022 0.339625 0.152409
0.418347 0.354555 0.167339
0.456018 0.369624 0.182407
0.493875 0.384766 0.197550
0.531758 0.399919 0.212703
0.569506 0.415019 0.227803
0.606961 0.430001 0.242784
0.643962 0.444801 0.257585
0.680349 0.459356 0.272139
0.715962 0.473601 0.286385
0.750642 0.487473 0.300257
0.784228 0.500907 0.313691
0.816561 0.513841 0.326624
0.845486 0.525410 0.338194
0.868731 0.534709 0.347492
0.887400 0.542176 0.354960
0.902393 0.548173 0.360957
0.914419 0.552984 0.365768
0.924035 0.556830 0.369614
0.931676 0.559887 0.372671
0.139453 0.348633 0.139453
0.150422 0.348633 0.139453
0.162845 0.348633 0.139453
0.176627 0.348633 0.139453
0.191672 0.348633 0.139453
0.207883 0.348633 0.139453
0.225165 0.348633 0.139453
0.243423 0.348633 0.139453
0.262559 0.348633 0.139453
0.282478 0.348633 0.139453
0.303084 0.348633 0.139453
0.324282 0.348633 0.139453
0.345974 0.348633 0.139453
0.381022 0.361588 0.152409
0.418347 0.376519 0.167339
0.456018 0.391587 0.182407
0.493875 0.406730 0.197550
0.531758 0.421883 0.212703
0.569506 0.436982 0.227803
0.606961 0.451964 0.242784
0.643962 0.466764 0.257585
0.680349 0.481319 0.272139
0.715962 0.495564 0.286385
0.750642 0.509436 0.300257
0.784228 0.522871 0.313691
0.816561 0.535804 0.326624
0.845486 0.547374 0.338194
0.868731 0.556672 0.347492
0.887400 0.564140 0.354960
0.902393 0.570137 0.360957
0.914419 0.574947 0.365768
0.924035 0.578794 0.369614
0.931676 0.581850 0.372671
0.154359 0.385898 0.154359
0.165328 0.385898 0.154359
0.177751 0.385898 0.154359
0.191533 0.385898 0.154359
0.206578 0.385898 0.154359
0.222789 0.385898 0.154359
0.240071 0.385898 0.154359
0.258329 0.385898 0.154359
0.277465 0.385898 0.154359
0.297384 0.385898 0.154359
0.317990 0.385898 0.154359
0.339188 0.385898 0.154359
0.360880 0.385898 0.154359
0.382972 0.385898 0.154359
0.418347 0.398878 0.167339
0.456018 0.413946 0.182407
0.493875 0.429089 0.197550
0.531758 0.444242 0.212703
0.569506 0.459341 0.227803
0.606961 0.474323 0.242784
0.643962 0.489123 0.257585
0.680349 0.503678 0.272139
0.715962 0.517923 0.286385
0.750642 0.531795 0.300257
0.784228 0.545230 0.313691
0.816561 0.558163 0.326624
0.845486 0.569733 0.338194
0.868731 0.579031 0.347492
0.887400 0.586499 0.354960
0.902393 0.592496 0.360957
0.914419 0.597306 0.365768
0.924035 0.601153 0.369614
0.931676 0.604209 0.372671
0.169463 0.423657 0.169463
0.180432 0.423657 0.169463
0.192855 0.423657 0.169463
0.206637 0.423657 0.169463
0.221681 0.423657 0.169463
0.237893 0.423657 0.169463
0.255175 0.423657 0.169463
0.273432 0.423657 0.169463
0.292569 0.423657 0.169463
0.312488 0.423657 0.169463
0.333094 0.423657 0.169463
0.354291 0.423657 0.169463
0.375984 0.423657 0.169463
0.398076 0.423657 0.169463
0.420471 0.423657 0.169463
0.456018 0.436602 0.182407
0.493875 0.451744 0.197550
0.531758 0.466897 0.212703
0.569506 0.481997 0.227803
0.606961 0.496979 0.242784
0.643962 0.511779 0.257585
0.680349 0.526334 0.272139
0.715962 0.540579 0.286385
0.750642 0.554451 0.300257
0.784228 0.567886 0.313691
0.816561 0.580819 0.326624
0.845486 0.592389 0.338194
0.868731 0.601687 0.347492
0.887400 0.609154 0.354960
0.902393 0.615151 0.360957
0.914419 0.619962 0.365768
0.924035 0.623808 0.369614
0.931676 0.626865 0.372671
0.184698 0.461746 0.184698
0.195667 0.461746 0.184698
0.208090 0.461746 0.184698
0.221872 0.461746 0.184698
0.236917 0.461746 0.184698
0.253128 0.461746 0.184698
0.270411 0.461746 0.184698
0.288668 0.461746 0.184698
0.307804 0.461746 0.184698
0.327723 0.461746 0.184698
0.348330 0.461746 0.184698
0.369527 0.461746 0.184698
0.391220 0.461746 0.184698
0.413312 0.461746 0.184698
0.435707 0.461746 0.184698
0.458309 0.461746 0.184698
0.493875 0.474598 0.197550
0.531758 0.489751 0.212703
0.569506 0.504850 0.227803
0.606961 0.519832 0.242784
0.643962 0.534632 0.257585
0.680349 0.549187 0.272139
0.715962 0.563433 0.286385
0.750642 0.577304 0.300257
0.784228 0.590739 0.313691
0.816561 0.603672 0.326624
0.845486 0.615242 0.338194
0.868731 0.624540 0.347492
0.887400 0.632008 0.354960
0.902393 0.638005 0.360957
0.914419 0.642815 0.365768
0.924035 0.646662 0.369614
0.931676 0.649718 0.372671
0.200000 0.500000 0.200000
0.210969 0.500000 0.200000
0.223392 0.500000 0.200000
0.237174 0.500000 0.200000
0.252219 0.500000 0.200000
0.268430 0.500000 0.200000
0.285712 0.500000 0.200000
0.303969 0.500000 0.200000
0.323106 0.500000 0.200000
0.343025 0.500000 0.200000
0.363631 0.500000 0.200000
0.384829 0.500000 0.200000
0.406521 0.500000 0.200000
0.428613 0.500000 0.200000
0.451008 0.500000 0.200000
0.473611 0.500000 0.200000
0.496325 0.500000 0.200000
0.531758 0.512703 0.212703
0.569506 0.527803 0.227803
0.606961 0.542784 0.242784
0.643962 0.557585 0.257585
0.680349 0.572139 0.272139
0.715962 0.586385 0.286385
0.750642 0.600257 0.300257
0.784228 0.613691 0.313691
0.816561 0.626624 0.326624
0.845486 0.638194 0.338194
0.868731 0.647492 0.347492
0.887400 0.654960 0.354960
0.902393 0.660957 0.360957
0.914419 0.665768 0.365768
0.924035 0.669614 0.369614
0.931676 0.672671 0.372671
0.215302 0.538254 0.215302
0.226270 0.538254 0.215302
0.238693 0.538254 0.215302
0.252475 0.538254 0.215302
0.267520 0.538254 0.215302
0.283731 0.538254 0.215302
0.301014 0.538254 0.215302
0.319271 0.538254 0.215302
0.338407 0.538254 0.215302
0.358326 0.538254 0.215302
0.378933 0.538254 0.215302
0.400130 0.538254 0.215302
0.421823 0.538254 0.215302
0.443915 0.538254 0.215302
0.466310 0.538254 0.215302
0.488913 0.538254 0.215302
0.511627 0.538254 0.215302
0.534356 0.538254 0.215302
0.569506 0.550755 0.227803
0.606961 0.565737 0.242784
0.643962 0.580537 0.257585
0.680349 0.595092 0.272139
0.715962 0.609337 0.286385
0.750642 0.623209 0.300257
0.784228 0.636643 0.313691
0.816561 0.649577 0.326624
0.845486 0.661147 0.338194
0.868731 0.670445 0.347492
0.887400 0.677912 0.354960
0.902393 0.683909 0.360957
0.914419 0.688720 0.365768
0.924035 0.692566 0.369614
0.931676 0.695623 0.372671
0.230537 0.576343 0.230537
0.241506 0.576343 0.230537
0.253929 0.576343 0.230537
0.267711 0.576343 0.230537
0.282756 0.576343 0.230537
0.298967 0.576343 0.230537
0.316249 0.576343 0.230537
0.334507 0.576343 0.230537
0.353643 0.576343 0.230537
0.373562 0.576343 0.230537
0.394168 0.576343 0.230537
0.415366 0.576343 0.230537
0.437058 0.576343 0.230537
0.459150 0.576343 0.230537
0.481545 0.576343 0.230537
0.504148 0.576343 0.230537
0.526862 0.576343 0.230537
0.549592 0.576343 0.230537
0.572241 0.576343 0.230537
0.606961 0.588590 0.242784
0.643962 0.603390 0.257585
0.680349 0.617945 0.272139
0.715962 0.632190 0.286385
0.750642 0.646062 0.300257
0.784228 0.659497 0.313691
0.816561 0.672430 0.326624
0.845486 0.684000 0.338194
0.868731 0.693298 0.347492
0.887400 0.700766 0.354960
0.902393 0.706763 0.360957
0.914419 0.711573 0.365768
0.924035 0.715420 0.369614
0.931676 0.718476 0.372671
0.245641 0.614102 0.245641
0.256610 0.614102 0.245641
0.269033 0.614102 0.245641
0.282815 0.614102 0.245641
0.297859 0.614102 0.245641
0.314071 0.614102 0.245641
0.331353 0.614102 0.245641
0.349610 0.614102 0.245641
0.368747 0.614102 0.245641
0.388666 0.614102 0.245641
0.409272 0.614102 0.245641
0.430469 0.614102 0.245641
0.452162 0.614102 0.245641
0.474254 0.614102 0.245641
0.496649 0.614102 0.245641
0.519252 0.614102 0.245641
0.541966 0.614102 0.245641
0.564696 0.614102 0.245641
0.587345 0.614102 0.245641
0.609817 0.614102 0.245641
0.643962 0.626046 0.257585
0.680349 0.640601 0.272139
0.715962 0.654846 0.286385
0.750642 0.668718 0.300257
0.784228 0.682153 0.313691
0.816561 0.695086 0.326624
0.845486 0.706656 0.338194
0.868731 0.715954 0.347492
0.887400 0.723421 0.354960
0.902393 0.729418 0.360957
0.914419 0.734229 0.365768
0.924035 0.738075 0.369614
0.931676 0.741132 0.372671
0.260547 0.651367 0.260547
0.271516 0.651367 0.260547
0.283939 0.651367 0.260547
0.297721 0.651367 0.260547
0.312765 0.651367 0.260547
0.328977 0.651367 0.260547
0.346259 0.651367 0.260547
0.364516 0.651367 0.260547
0.383653 0.651367 0.260547
0.403572 0.651367 0.260547
0.424178 0.651367 0.260547
0.445375 0.651367 0.260547
0.467068 0.651367 0.260547
0.489160 0.651367 0.260547
0.511555 0.651367 0.260547
0.534158 0.651367 0.260547
0.556872 0.651367 0.260547
0.579602 0.651367 0.260547
0.602251 0.651367 0.260547
0.624723 0.651367 0.260547
0.646924 0.651367 0.260547
0.680349 0.662960 0.272139
0.715962 0.677205 0.286385
0.750642 0.691077 0.300257
0.784228 0.704512 0.313691
0.816561 0.717445 0.326624
0.845486 0.729015 0.338194
0.868731 0.738313 0.347492
0.887400 0.745780 0.354960
0.902393 0.751777 0.360957
0.914419 0.756588 0.365768
0.924035 0.760434 0.369614
0.931676 0.763491 0.372671
0.275189 0.687973 0.275189
0.286158 0.687973 0.275189
0.298581 0.687973 0.275189
0.312363 0.687973 0.275189
0.327408 0.687973 0.275189
0.343619 0.687973 0.275189
0.360901 0.687973 0.275189
0.379159 0.687973 0.275189
0.398295 0.687973 0.275189
0.418214 0.687973 0.275189
0.438820 0.687973 0.275189
0.460018 0.687973 0.275189
0.481710 0.687973 0.275189
0.503802 0.687973 0.275189
0.526198 0.687973 0.275189
0.548800 0.687973 0.275189
0.571514 0.687973 0.275189
0.594244 0.687973 0.275189
0.616893 0.687973 0.275189
0.639366 0.687973 0.275189
0.661566 0.687973 0.275189
0.683398 0.687973 0.275189
0.715962 0.699169 0.286385
0.750642 0.713041 0.300257
0.784228 0.726475 0.313691
0.816561 0.739408 0.326624
0.845486 0.750978 0.338194
0.868731 0.760276 0.347492
0.887400 0.767744 0.354960
0.902393 0.773741 0.360957
0.914419 0.778551 0.365768
0.924035 0.782398 0.369614
0.931676 0.785454 0.372671
0.289502 0.723755 0.289502
0.300471 0.723755 0.289502
0.312894 0.723755 0.289502
0.326676 0.723755 0.289502
0.341720 0.723755 0.289502
0.357932 0.723755 0.289502
0.375214 0.723755 0.289502
0.393471 0.723755 0.289502
0.412608 0.723755 0.289502
0.432527 0.723755 0.289502
0.453133 0.723755 0.289502
0.474331 0.723755 0.289502
0.496023 0.723755 0.289502
0.518115 0.723755 0.289502
0.540510 0.723755 0.289502
0.563113 0.723755 0.289502
0.585827 0.723755 0.289502
0.608557 0.723755 0.289502
0.631206 0.723755 0.289502
0.653678 0.723755 0.289502
0.675879 0.723755 0.289502
0.697711 0.723755 0.289502
0.719079 0.723755 0.289502
0.750642 0.734510 0.300257
0.784228 0.747944 0.313691
0.816561 0.760877 0.326624
0.845486 0.772447 0.338194
0.868731 0.781745 0.347492
0.887400 0.789213 0.354960
0.902393 0.795210 0.360957
0.914419 0.800021 0.365768
0.924035 0.803867 0.369614
0.931676 0.806923 0.372671
0.303419 0.758548 0.303419
0.314388 0.758548 0.303419
0.326811 0.758548 0.303419
0.340593 0.758548 0.303419
0.355638 0.758548 0.303419
0.371849 0.758548 0.303419
0.389131 0.758548 0.303419
0.407389 0.758548 0.303419
0.426525 0.758548 0.303419
0.446444 0.758548 0.303419
0.467050 0.758548 0.303419
0.488248 0.758548 0.303419
0.509940 0.758548 0.303419
0.532032 0.758548 0.303419
0.554428 0.758548 0.303419
0.577030 0.758548 0.303419
0.599744 0.758548 0.303419
0.622474 0.758548 0.303419
0.645123 0.758548 0.303419
0.667596 0.758548 0.303419
0.689796 0.758548 0.303419
0.711628 0.758548 0.303419
0.732996 0.758548 0.303419
0.753804 0.758548 0.303419
0.784228 0.768820 0.313691
0.816561 0.781753 0.326624
0.845486 0.793323 0.338194
0.868731 0.802621 0.347492
0.887400 0.810089 0.354960
0.902393 0.816086 0.360957
0.914419 0.820896 0.365768
0.924035 0.824743 0.369614
0.931676 0.827799 0.372671
0.316875 0.792188 0.316875
0.327844 0.792188 0.316875
0.340267 0.792188 0.316875
0.354049 0.792188 0.316875
0.369094 0.792188 0.316875
0.385305 0.792188 0.316875
0.402587 0.792188 0.316875
0.420844 0.792188 0.316875
0.439981 0.792188 0.316875
0.459900 0.792188 0.316875
0.480506 0.792188 0.316875
0.501704 0.792188 0.316875
0.523396 0.792188 0.316875
0.545488 0.792188 0.316875
0.567883 0.792188 0.316875
0.590486 0.792188 0.316875
0.613200 0.792188 0.316875
0.635930 0.792188 0.316875
0.658579 0.792188 0.316875
0.681052 0.792188 0.316875
0.703252 0.792188 0.316875
0.725084 0.792188 0.316875
0.746452 0.792188 0.316875
0.767260 0.792188 0.316875
0.787412 0.792188 0.316875
0.816561 0.801937 0.326624
0.845486 0.813507 0.338194
0.868731 0.822805 0.347492
0.887400 0.830272 0.354960
0.902393 0.836270 0.360957
0.914419 0.841080 0.365768
0.924035 0.844927 0.369614
0.931676 0.847983 0.372671
0.329781 0.824453 0.329781
0.340750 0.824453 0.329781
0.353173 0.824453 0.329781
0.366955 0.824453 0.329781
0.382000 0.824453 0.329781
0.398211 0.824453 0.329781
0.415493 0.824453 0.329781
0.433751 0.824453 0.329781
0.452887 0.824453 0.329781
0.472806 0.824453 0.329781
0.493412 0.824453 0.329781
0.514610 0.824453 0.329781
0.536302 0.824453 0.329781
0.558394 0.824453 0.329781
0.580789 0.824453 0.329781
0.603392 0.824453 0.329781
0.626106 0.824453 0.329781
0.648836 0.824453 0.329781
0.671485 0.824453 0.329781
0.693958 0.824453 0.329781
0.716158 0.824453 0.329781
0.737990 0.824453 0.329781
0.759358 0.824453 0.329781
0.780166 0.824453 0.329781
0.800318 0.824453 0.329781
0.819718 0.824453 0.329781
0.845486 0.832866 0.338194
0.868731 0.842164 0.347492
0.887400 0.849632 0.354960
0.902393 0.855629 0.360957
0.914419 0.860439 0.365768
0.924035 0.864286 0.369614
0.931676 0.867342 0.372671
0.340837 0.852093 0.340837
0.351806 0.852093 0.340837
0.364229 0.852093 0.340837
0.378011 0.852093 0.340837
0.393056 0.852093 0.340837
0.409267 0.852093 0.340837
0.426549 0.852093 0.340837
0.444807 0.852093 0.340837
0.463943 0.852093 0.340837
0.483862 0.852093 0.340837
0.504468 0.852093 0.340837
0.525666 0.852093 0.340837
0.547358 0.852093 0.340837
0.569450 0.852093 0.340837
0.591845 0.852093 0.340837
0.614448 0.852093 0.340837
0.637162 0.852093 0.340837
0.659892 0.852093 0.340837
0.682541 0.852093 0.340837
0.705014 0.852093 0.340837
0.727214 0.852093 0.340837
0.749046 0.852093 0.340837
0.770414 0.852093 0.340837
0.791222 0.852093 0.340837
0.811374 0.852093 0.340837
0.830774 0.852093 0.340837
0.848128 0.852093 0.340837
0.868731 0.858748 0.347492
0.887400 0.866216 0.354960
