luts/PowerGrade Cinematic Landscape.cube
TITLE "PowerGrade Cinematic Landscape"
LUT_3D_SIZE 33
0.035761 0.035761 0.035761
0.063719 0.035425 0.035425
0.090253 0.034597 0.034597
0.115766 0.033291 0.033291
0.140713 0.031623 0.031623
0.165586 0.029780 0.029780
0.190914 0.028050 0.028050
0.217247 0.026686 0.026686
0.245161 0.025291 0.025291
0.275246 0.023786 0.023786
0.307685 0.022164 0.022164
0.340668 0.020515 0.020515
0.373871 0.018855 0.018855
0.407246 0.017186 0.017186
0.440748 0.015511 0.015511
0.474332 0.013832 0.013832
0.507950 0.012151 0.012151
0.541557 0.010471 0.010471
0.575108 0.008793 0.008793
0.608556 0.007121 0.007121
0.641855 0.005456 0.005456
0.674960 0.003801 0.003801
0.707824 0.002157 0.002157
0.740203 0.000539 0.000539
0.769448 0.000000 0.000000
0.795114 0.000000 0.000000
0.817637 0.000000 0.000000
0.837400 0.000000 0.000000
0.854744 0.000000 0.000000
0.869968 0.000000 0.000000
0.883333 0.000000 0.000000
0.895071 0.000000 0.000000
0.905383 0.000000 0.000000
0.036072 0.063317 0.034126
0.063719 0.062780 0.035055
0.090253 0.062742 0.034597
0.115766 0.061698 0.033291
0.140713 0.060266 0.031623
0.165586 0.058606 0.029780
0.190914 0.056976 0.028050
0.217247 0.055621 0.026686
0.245161 0.054225 0.025291
0.275246 0.052721 0.023786
0.307685 0.051099 0.022164
0.340668 0.049450 0.020515
0.373871 0.047790 0.018855
0.407246 0.046121 0.017186
0.440748 0.044446 0.015511
0.474332 0.042766 0.013832
0.507950 0.041086 0.012151
0.541557 0.039405 0.010471
0.575108 0.037728 0.008793
0.608556 0.036055 0.007121
0.641855 0.034390 0.005456
0.674960 0.032735 0.003801
0.707824 0.031092 0.002157
0.740203 0.029473 0.000539
0.769448 0.028900 0.000000
0.795114 0.028854 0.000000
0.817637 0.028817 0.000000
0.837400 0.028786 0.000000
0.854744 0.028760 0.000000
0.869968 0.028738 0.000000
0.883333 0.028719 0.000000
0.895071 0.028703 0.000000
0.905383 0.028690 0.000000
0.034059 0.089486 0.030100
0.064963 0.089486 0.030100
0.090253 0.088400 0.033307
0.115766 0.088675 0.033291
0.140713 0.087466 0.031623
0.165586 0.085980 0.029780
0.190914 0.084445 0.028050
0.217247 0.083098 0.026686
0.245161 0.081702 0.025291
0.275246 0.080198 0.023786
0.307685 0.078576 0.022164
0.340668 0.076927 0.020515
0.373871 0.075267 0.018855
0.407246 0.073598 0.017186
0.440748 0.071923 0.015511
0.474332 0.070243 0.013832
0.507950 0.068563 0.012151
0.541557 0.066882 0.010471
0.575108 0.065205 0.008793
0.608556 0.063532 0.007121
0.641855 0.061867 0.005456
0.674960 0.060212 0.003801
0.707824 0.058569 0.002157
0.740203 0.056950 0.000539
0.769448 0.056344 0.000000
0.795114 0.056255 0.000000
0.817637 0.056182 0.000000
0.837400 0.056122 0.000000
0.854744 0.056071 0.000000
0.869968 0.056028 0.000000
0.883333 0.055992 0.000000
0.895071 0.055961 0.000000
0.905383 0.055934 0.000000
0.029808 0.114651 0.023748
0.062024 0.114651 0.023748
0.092598 0.114651 0.023748
0.115766 0.113001 0.030550
0.140713 0.113623 0.031623
0.165586 0.112304 0.029780
0.190914 0.110860 0.028050
0.217247 0.109521 0.026686
0.245161 0.108125 0.025291
0.275246 0.106621 0.023786
0.307685 0.104999 0.022164
0.340668 0.103350 0.020515
0.373871 0.101690 0.018855
0.407246 0.100021 0.017186
0.440748 0.098346 0.015511
0.474332 0.096667 0.013832
0.507950 0.094986 0.012151
0.541557 0.093305 0.010471
0.575108 0.091628 0.008793
0.608556 0.089955 0.007121
0.641855 0.088291 0.005456
0.674960 0.086635 0.003801
0.707824 0.084992 0.002157
0.740203 0.083373 0.000539
0.769448 0.082735 0.000000
0.795114 0.082605 0.000000
0.817637 0.082498 0.000000
0.837400 0.082409 0.000000
0.854744 0.082335 0.000000
0.869968 0.082272 0.000000
0.883333 0.082219 0.000000
0.895071 0.082173 0.000000
0.905383 0.082134 0.000000
0.023844 0.139245 0.015601
0.057249 0.139245 0.015601
0.088952 0.139245 0.015601
0.119435 0.139245 0.015601
0.140713 0.137021 0.027032
0.165586 0.138032 0.029780
0.190914 0.136677 0.028050
0.217247 0.135345 0.026686
0.245161 0.133949 0.025291
0.275246 0.132445 0.023786
0.307685 0.130823 0.022164
0.340668 0.129174 0.020515
0.373871 0.127514 0.018855
0.407246 0.125845 0.017186
0.440748 0.124170 0.015511
0.474332 0.122491 0.013832
0.507950 0.120810 0.012151
0.541557 0.119129 0.010471
0.575108 0.117452 0.008793
0.608556 0.115779 0.007121
0.641855 0.114115 0.005456
0.674960 0.112459 0.003801
0.707824 0.110816 0.002157
0.740203 0.109197 0.000539
0.769448 0.108528 0.000000
0.795114 0.108358 0.000000
0.817637 0.108217 0.000000
0.837400 0.108101 0.000000
0.854744 0.108003 0.000000
0.869968 0.107921 0.000000
0.883333 0.107851 0.000000
0.895071 0.107791 0.000000
0.905383 0.107740 0.000000
0.017020 0.163739 0.006540
0.051362 0.163739 0.006540
0.083954 0.163739 0.006540
0.115293 0.163739 0.006540
0.145935 0.163739 0.006540
0.165586 0.160936 0.023167
0.190914 0.162389 0.028050
0.217247 0.161064 0.026686
0.245161 0.159668 0.025291
0.275246 0.158164 0.023786
0.307685 0.156542 0.022164
0.340668 0.154893 0.020515
0.373871 0.153233 0.018855
0.407246 0.151564 0.017186
0.440748 0.149889 0.015511
0.474332 0.148210 0.013832
0.507950 0.146529 0.012151
0.541557 0.144849 0.010471
0.575108 0.143171 0.008793
0.608556 0.141499 0.007121
0.641855 0.139834 0.005456
0.674960 0.138178 0.003801
0.707824 0.136535 0.002157
0.740203 0.134916 0.000539
0.769448 0.134217 0.000000
0.795114 0.134006 0.000000
0.817637 0.133832 0.000000
0.837400 0.133688 0.000000
0.854744 0.133567 0.000000
0.869968 0.133465 0.000000
0.883333 0.133378 0.000000
0.895071 0.133305 0.000000
0.905383 0.133242 0.000000
0.012576 0.188636 0.000000
0.047074 0.188636 0.000000
0.079815 0.188636 0.000000
0.111296 0.188636 0.000000
0.142078 0.188636 0.000000
0.171971 0.188636 0.000000
0.190914 0.185261 0.019580
0.217247 0.187205 0.026686
0.245161 0.185809 0.025291
0.275246 0.184305 0.023786
0.307685 0.182683 0.022164
0.340668 0.181034 0.020515
0.373871 0.179374 0.018855
0.407246 0.177705 0.017186
0.440748 0.176030 0.015511
0.474332 0.174351 0.013832
0.507950 0.172670 0.012151
0.541557 0.170989 0.010471
0.575108 0.169312 0.008793
0.608556 0.167639 0.007121
0.641855 0.165975 0.005456
0.674960 0.164319 0.003801
0.707824 0.162676 0.002157
0.740203 0.161057 0.000539
0.769448 0.160326 0.000000
0.795114 0.160074 0.000000
0.817637 0.159867 0.000000
0.837400 0.159695 0.000000
0.854744 0.159550 0.000000
0.869968 0.159428 0.000000
0.883333 0.159325 0.000000
0.895071 0.159237 0.000000
0.905383 0.159161 0.000000
0.014297 0.214460 0.000000
0.047851 0.214460 0.000000
0.079695 0.214460 0.000000
0.110313 0.214460 0.000000
0.140252 0.214460 0.000000
0.170103 0.214460 0.000000
0.198503 0.214460 0.000000
0.217247 0.210536 0.016817
0.245161 0.212925 0.025291
0.275246 0.211420 0.023786
0.307685 0.209798 0.022164
0.340668 0.208149 0.020515
0.373871 0.206489 0.018855
0.407246 0.204820 0.017186
0.440748 0.203145 0.015511
0.474332 0.201466 0.013832
0.507950 0.199785 0.012151
0.541557 0.198105 0.010471
0.575108 0.196427 0.008793
0.608556 0.194755 0.007121
0.641855 0.193090 0.005456
0.674960 0.191435 0.003801
0.707824 0.189791 0.002157
0.740203 0.188172 0.000539
0.769448 0.187409 0.000000
0.795114 0.187115 0.000000
0.817637 0.186872 0.000000
0.837400 0.186671 0.000000
0.854744 0.186502 0.000000
0.869968 0.186359 0.000000
0.883333 0.186239 0.000000
0.895071 0.186136 0.000000
0.905383 0.186047 0.000000
0.016117 0.241759 0.000000
0.048929 0.241759 0.000000
0.080070 0.241759 0.000000
0.110012 0.241759 0.000000
0.139289 0.241759 0.000000
0.168480 0.241759 0.000000
0.198204 0.241759 0.000000
0.226036 0.241759 0.000000
0.245161 0.237272 0.014052
0.275246 0.240085 0.023786
0.307685 0.238463 0.022164
0.340668 0.236814 0.020515
0.373871 0.235153 0.018855
0.407246 0.233485 0.017186
0.440748 0.231810 0.015511
0.474332 0.230130 0.013832
0.507950 0.228449 0.012151
0.541557 0.226769 0.010471
0.575108 0.225092 0.008793
0.608556 0.223419 0.007121
0.641855 0.221754 0.005456
0.674960 0.220099 0.003801
0.707824 0.218456 0.002157
0.740203 0.216837 0.000539
0.769448 0.216039 0.000000
0.795114 0.215700 0.000000
0.817637 0.215420 0.000000
0.837400 0.215188 0.000000
0.854744 0.214993 0.000000
0.869968 0.214829 0.000000
0.883333 0.214690 0.000000
0.895071 0.214571 0.000000
0.905383 0.214469 0.000000
0.018073 0.271098 0.000000
0.050280 0.271098 0.000000
0.080846 0.271098 0.000000
0.110236 0.271098 0.000000
0.138973 0.271098 0.000000
0.167627 0.271098 0.000000
0.196802 0.271098 0.000000
0.227137 0.271098 0.000000
0.255211 0.271098 0.000000
0.275246 0.266022 0.011139
0.307685 0.269269 0.022164
0.340668 0.267619 0.020515
0.373871 0.265959 0.018855
0.407246 0.264291 0.017186
0.440748 0.262615 0.015511
0.474332 0.260936 0.013832
0.507950 0.259255 0.012151
0.541557 0.257575 0.010471
0.575108 0.255897 0.008793
0.608556 0.254225 0.007121
0.641855 0.252560 0.005456
0.674960 0.250905 0.003801
0.707824 0.249262 0.002157
0.740203 0.247643 0.000539
0.769448 0.246808 0.000000
0.795114 0.246420 0.000000
0.817637 0.246101 0.000000
0.837400 0.245836 0.000000
0.854744 0.245613 0.000000
0.869968 0.245426 0.000000
0.883333 0.245267 0.000000
0.895071 0.245131 0.000000
0.905383 0.245015 0.000000
0.020189 0.302832 0.000000
0.051891 0.302832 0.000000
0.081978 0.302832 0.000000
0.110907 0.302832 0.000000
0.139194 0.302832 0.000000
0.167398 0.302832 0.000000
0.196117 0.302832 0.000000
0.225976 0.302832 0.000000
0.257627 0.302832 0.000000
0.286623 0.302832 0.000000
0.307685 0.297100 0.007919
0.340668 0.300940 0.020515
0.373871 0.299280 0.018855
0.407246 0.297611 0.017186
0.440748 0.295936 0.015511
0.474332 0.294257 0.013832
0.507950 0.292576 0.012151
0.541557 0.290896 0.010471
0.575108 0.289218 0.008793
0.608556 0.287546 0.007121
0.641855 0.285881 0.005456
0.674960 0.284226 0.003801
0.707824 0.282582 0.002157
0.740203 0.280963 0.000539
0.769448 0.280089 0.000000
0.795114 0.279649 0.000000
0.817637 0.279286 0.000000
0.837400 0.278985 0.000000
0.854744 0.278733 0.000000
0.869968 0.278520 0.000000
0.883333 0.278340 0.000000
0.895071 0.278186 0.000000
0.905383 0.278054 0.000000
0.022353 0.335291 0.000000
0.053649 0.335291 0.000000
0.083351 0.335291 0.000000
0.111910 0.335291 0.000000
0.139835 0.335291 0.000000
0.167678 0.335291 0.000000
0.196029 0.335291 0.000000
0.225507 0.335291 0.000000
0.256753 0.335291 0.000000
0.290430 0.335291 0.000000
0.320081 0.335291 0.000000
0.340668 0.328850 0.004490
0.373871 0.333362 0.018855
0.407246 0.331693 0.017186
0.440748 0.330018 0.015511
0.474332 0.328338 0.013832
0.507950 0.326658 0.012151
0.541557 0.324977 0.010471
0.575108 0.323300 0.008793
0.608556 0.321627 0.007121
0.641855 0.319962 0.005456
0.674960 0.318307 0.003801
0.707824 0.316664 0.002157
0.740203 0.315045 0.000539
0.769448 0.314129 0.000000
0.795114 0.313636 0.000000
0.817637 0.313229 0.000000
0.837400 0.312892 0.000000
0.854744 0.312609 0.000000
0.869968 0.312370 0.000000
0.883333 0.312168 0.000000
0.895071 0.311995 0.000000
0.905383 0.311847 0.000000
0.024531 0.367969 0.000000
0.055499 0.367969 0.000000
0.084890 0.367969 0.000000
0.113149 0.367969 0.000000
0.140781 0.367969 0.000000
0.168332 0.367969 0.000000
0.196386 0.367969 0.000000
0.225554 0.367969 0.000000
0.256472 0.367969 0.000000
0.289796 0.367969 0.000000
0.325727 0.367969 0.000000
0.353971 0.367969 0.000000
0.373871 0.360813 0.001036
0.407246 0.366005 0.017186
0.440748 0.364330 0.015511
0.474332 0.362651 0.013832
0.507950 0.360970 0.012151
0.541557 0.359289 0.010471
0.575108 0.357612 0.008793
0.608556 0.355939 0.007121
0.641855 0.354274 0.005456
0.674960 0.352619 0.003801
0.707824 0.350976 0.002157
0.740203 0.349357 0.000539
0.769448 0.348400 0.000000
0.795114 0.347853 0.000000
0.817637 0.347402 0.000000
0.837400 0.347028 0.000000
0.854744 0.346714 0.000000
0.869968 0.346449 0.000000
0.883333 0.346225 0.000000
0.895071 0.346033 0.000000
0.905383 0.345869 0.000000
0.026722 0.400823 0.000000
0.057419 0.400823 0.000000
0.086552 0.400823 0.000000
0.114564 0.400823 0.000000
0.141954 0.400823 0.000000
0.169265 0.400823 0.000000
0.197073 0.400823 0.000000
0.225986 0.400823 0.000000
0.256634 0.400823 0.000000
0.289667 0.400823 0.000000
0.325283 0.400823 0.000000
0.361296 0.400823 0.000000
0.388029 0.400823 0.000000
0.407246 0.393032 0.000000
0.440748 0.398826 0.015511
0.474332 0.397147 0.013832
0.507950 0.395466 0.012151
0.541557 0.393786 0.010471
0.575108 0.392108 0.008793
0.608556 0.390436 0.007121
0.641855 0.388771 0.005456
0.674960 0.387116 0.003801
0.707824 0.385473 0.002157
0.740203 0.383854 0.000539
0.769448 0.382856 0.000000
0.795114 0.382254 0.000000
0.817637 0.381759 0.000000
0.837400 0.381347 0.000000
0.854744 0.381002 0.000000
0.869968 0.380712 0.000000
0.883333 0.380465 0.000000
0.895071 0.380254 0.000000
0.905383 0.380074 0.000000
0.028921 0.433809 0.000000
0.059391 0.433809 0.000000
0.088309 0.433809 0.000000
0.116114 0.433809 0.000000
0.143301 0.433809 0.000000
0.170410 0.433809 0.000000
0.198013 0.433809 0.000000
0.226712 0.433809 0.000000
0.257133 0.433809 0.000000
0.289922 0.433809 0.000000
0.325275 0.433809 0.000000
0.361221 0.433809 0.000000
0.395546 0.433809 0.000000
0.422220 0.433809 0.000000
0.440748 0.425415 0.000000
0.474332 0.431782 0.013832
0.507950 0.430102 0.012151
0.541557 0.428421 0.010471
0.575108 0.426744 0.008793
0.608556 0.425071 0.007121
0.641855 0.423406 0.005456
0.674960 0.421751 0.003801
0.707824 0.420108 0.002157
0.740203 0.418489 0.000539
0.769448 0.417449 0.000000
0.795114 0.416793 0.000000
0.817637 0.416253 0.000000
0.837400 0.415805 0.000000
0.854744 0.415429 0.000000
0.869968 0.415111 0.000000
0.883333 0.414842 0.000000
0.895071 0.414613 0.000000
0.905383 0.414416 0.000000
0.031125 0.466882 0.000000
0.061403 0.466882 0.000000
0.090138 0.466882 0.000000
0.117767 0.466882 0.000000
0.144783 0.466882 0.000000
0.171720 0.466882 0.000000
0.199148 0.466882 0.000000
0.227666 0.466882 0.000000
0.257895 0.466882 0.000000
0.290476 0.466882 0.000000
0.325605 0.466882 0.000000
0.361325 0.466882 0.000000
0.397281 0.466882 0.000000
0.429897 0.466882 0.000000
0.456503 0.466882 0.000000
0.474332 0.457883 0.000000
0.507950 0.464829 0.012151
0.541557 0.463149 0.010471
0.575108 0.461471 0.008793
0.608556 0.459799 0.007121
0.641855 0.458134 0.005456
0.674960 0.456478 0.003801
0.707824 0.454835 0.002157
0.740203 0.453216 0.000539
0.769448 0.452135 0.000000
0.795114 0.451425 0.000000
0.817637 0.450840 0.000000
0.837400 0.450354 0.000000
0.854744 0.449946 0.000000
0.869968 0.449603 0.000000
0.883333 0.449311 0.000000
0.895071 0.449063 0.000000
0.905383 0.448850 0.000000
0.033333 0.500000 0.000000
0.063445 0.500000 0.000000
0.092024 0.500000 0.000000
0.119502 0.500000 0.000000
0.146370 0.500000 0.000000
0.173160 0.500000 0.000000
0.200438 0.500000 0.000000
0.228800 0.500000 0.000000
0.258864 0.500000 0.000000
0.291267 0.500000 0.000000
0.326204 0.500000 0.000000
0.361728 0.500000 0.000000
0.397488 0.500000 0.000000
0.433434 0.500000 0.000000
0.464313 0.500000 0.000000
0.490838 0.500000 0.000000
0.507950 0.490391 0.000000
0.541557 0.497717 0.009997
0.575108 0.496245 0.008793
0.608556 0.494572 0.007121
0.641855 0.492907 0.005456
0.674960 0.491252 0.003801
0.707824 0.489609 0.002157
0.740203 0.487990 0.000539
0.769448 0.486867 0.000000
0.795114 0.486102 0.000000
0.817637 0.485472 0.000000
0.837400 0.484949 0.000000
0.854744 0.484510 0.000000
0.869968 0.484140 0.000000
0.883333 0.483826 0.000000
0.895071 0.483559 0.000000
0.905383 0.483330 0.000000
0.035541 0.533118 0.000000
0.065510 0.533118 0.000000
0.093952 0.533118 0.000000
0.121299 0.533118 0.000000
0.148039 0.533118 0.000000
0.174702 0.533118 0.000000
0.201850 0.533118 0.000000
0.230077 0.533118 0.000000
0.259997 0.533118 0.000000
0.292246 0.533118 0.000000
0.327017 0.533118 0.000000
0.362372 0.533118 0.000000
0.397962 0.533118 0.000000
0.433737 0.533118 0.000000
0.469648 0.533118 0.000000
0.498755 0.533118 0.000000
0.525181 0.533118 0.000000
0.541557 0.522896 0.000000
0.575108 0.530003 0.006429
0.608556 0.529346 0.007121
0.641855 0.527681 0.005456
0.674960 0.526026 0.003801
0.707824 0.524382 0.002157
0.740203 0.522763 0.000539
0.769448 0.521599 0.000000
0.795114 0.520779 0.000000
0.817637 0.520105 0.000000
0.837400 0.519544 0.000000
0.854744 0.519074 0.000000
0.869968 0.518678 0.000000
0.883333 0.518341 0.000000
0.895071 0.518055 0.000000
0.905383 0.517809 0.000000
0.037746 0.566191 0.000000
0.067589 0.566191 0.000000
0.095912 0.566191 0.000000
0.123146 0.566191 0.000000
0.149774 0.566191 0.000000
0.176324 0.566191 0.000000
0.203359 0.566191 0.000000
0.231468 0.566191 0.000000
0.261264 0.566191 0.000000
0.293377 0.566191 0.000000
0.328003 0.566191 0.000000
0.363210 0.566191 0.000000
0.398651 0.566191 0.000000
0.434276 0.566191 0.000000
0.470037 0.566191 0.000000
0.505885 0.566191 0.000000
0.533184 0.566191 0.000000
0.559491 0.566191 0.000000
0.575108 0.555355 0.000000
0.608556 0.562242 0.002826
0.641855 0.562408 0.005456
0.674960 0.560753 0.003801
0.707824 0.559110 0.002157
0.740203 0.557491 0.000539
0.769448 0.556284 0.000000
0.795114 0.555411 0.000000
0.817637 0.554691 0.000000
0.837400 0.554093 0.000000
0.854744 0.553592 0.000000
0.869968 0.553169 0.000000
0.883333 0.552811 0.000000
0.895071 0.552505 0.000000
0.905383 0.552243 0.000000
0.039945 0.599177 0.000000
0.069678 0.599177 0.000000
0.097896 0.599177 0.000000
0.125029 0.599177 0.000000
0.151559 0.599177 0.000000
0.178011 0.599177 0.000000
0.204946 0.599177 0.000000
0.232951 0.599177 0.000000
0.262636 0.599177 0.000000
0.294631 0.599177 0.000000
0.329129 0.599177 0.000000
0.364206 0.599177 0.000000
0.399515 0.599177 0.000000
0.435009 0.599177 0.000000
0.470638 0.599177 0.000000
0.506353 0.599177 0.000000
0.541346 0.599177 0.000000
0.567556 0.599177 0.000000
0.593721 0.599177 0.000000
0.608556 0.587725 0.000000
0.641855 0.594448 0.000000
0.674960 0.595388 0.003801
0.707824 0.593745 0.002157
0.740203 0.592126 0.000539
0.769448 0.590878 0.000000
0.795114 0.589950 0.000000
0.817637 0.589186 0.000000
0.837400 0.588550 0.000000
0.854744 0.588018 0.000000
0.869968 0.587569 0.000000
0.883333 0.587188 0.000000
0.895071 0.586863 0.000000
0.905383 0.586585 0.000000
0.042135 0.632031 0.000000
0.071771 0.632031 0.000000
0.099896 0.632031 0.000000
0.126939 0.632031 0.000000
0.153382 0.632031 0.000000
0.179747 0.632031 0.000000
0.206594 0.632031 0.000000
0.234506 0.632031 0.000000
0.264094 0.632031 0.000000
0.295984 0.632031 0.000000
0.330368 0.632031 0.000000
0.365330 0.632031 0.000000
0.400523 0.632031 0.000000
0.435900 0.632031 0.000000
0.471412 0.632031 0.000000
0.507009 0.632031 0.000000
0.542644 0.632031 0.000000
0.575750 0.632031 0.000000
0.601829 0.632031 0.000000
0.627829 0.632031 0.000000
0.641855 0.619962 0.000000
0.674960 0.626718 0.000000
0.707824 0.628242 0.002157
0.740203 0.626623 0.000539
0.769448 0.625333 0.000000
0.795114 0.624351 0.000000
0.817637 0.623542 0.000000
0.837400 0.622870 0.000000
0.854744 0.622307 0.000000
0.869968 0.621831 0.000000
0.883333 0.621428 0.000000
0.895071 0.621085 0.000000
0.905383 0.620790 0.000000
0.044314 0.664709 0.000000
0.073862 0.664709 0.000000
0.101905 0.664709 0.000000
0.128869 0.664709 0.000000
0.155233 0.664709 0.000000
0.181521 0.664709 0.000000
0.208289 0.664709 0.000000
0.236119 0.664709 0.000000
0.265620 0.664709 0.000000
0.297416 0.664709 0.000000
0.331699 0.664709 0.000000
0.366558 0.664709 0.000000
0.401648 0.664709 0.000000
0.436921 0.664709 0.000000
0.472328 0.664709 0.000000
0.507821 0.664709 0.000000
0.543351 0.664709 0.000000
0.578869 0.664709 0.000000
0.610037 0.664709 0.000000
0.635960 0.664709 0.000000
0.661768 0.664709 0.000000
0.674960 0.652023 0.000000
0.707824 0.658795 0.000000
0.740203 0.660935 0.000539
0.769448 0.659604 0.000000
0.795114 0.658568 0.000000
0.817637 0.657715 0.000000
0.837400 0.657006 0.000000
0.854744 0.656412 0.000000
0.869968 0.655910 0.000000
0.883333 0.655485 0.000000
0.895071 0.655123 0.000000
0.905383 0.654812 0.000000
0.046478 0.697168 0.000000
0.075948 0.697168 0.000000
0.103917 0.697168 0.000000
0.130809 0.697168 0.000000
0.157104 0.697168 0.000000
0.183323 0.697168 0.000000
0.210020 0.697168 0.000000
0.237777 0.697168 0.000000
0.267200 0.697168 0.000000
0.298912 0.697168 0.000000
0.333105 0.697168 0.000000
0.367871 0.697168 0.000000
0.402869 0.697168 0.000000
0.438049 0.697168 0.000000
0.473362 0.697168 0.000000
0.508761 0.697168 0.000000
0.544197 0.697168 0.000000
0.579622 0.697168 0.000000
0.614986 0.697168 0.000000
0.644165 0.697168 0.000000
0.669905 0.697168 0.000000
0.695494 0.697168 0.000000
0.707824 0.683864 0.000000
0.740203 0.690593 0.000000
0.769448 0.693645 0.000000
0.795114 0.692555 0.000000
0.817637 0.691658 0.000000
0.837400 0.690912 0.000000
0.854744 0.690287 0.000000
0.869968 0.689760 0.000000
0.883333 0.689313 0.000000
0.895071 0.688932 0.000000
0.905383 0.688606 0.000000
0.048624 0.729363 0.000000
0.078024 0.729363 0.000000
0.105926 0.729363 0.000000
0.132755 0.729363 0.000000
0.158987 0.729363 0.000000
0.185143 0.729363 0.000000
0.211777 0.729363 0.000000
0.239468 0.729363 0.000000
0.268820 0.729363 0.000000
0.300457 0.729363 0.000000
0.334568 0.729363 0.000000
0.369252 0.729363 0.000000
0.404167 0.729363 0.000000
0.439263 0.729363 0.000000
0.474492 0.729363 0.000000
0.509807 0.729363 0.000000
0.545159 0.729363 0.000000
0.580499 0.729363 0.000000
0.615779 0.729363 0.000000
0.650952 0.729363 0.000000
0.678090 0.729363 0.000000
0.703618 0.729363 0.000000
0.728961 0.729363 0.000000
0.740203 0.715401 0.000000
0.769448 0.721521 0.000000
0.795114 0.726266 0.000000
0.817637 0.725325 0.000000
0.837400 0.724543 0.000000
0.854744 0.723888 0.000000
0.869968 0.723335 0.000000
0.883333 0.722866 0.000000
0.895071 0.722467 0.000000
0.905383 0.722124 0.000000
0.050634 0.759509 0.000000
0.079974 0.759509 0.000000
0.107819 0.759509 0.000000
0.134593 0.759509 0.000000
0.160772 0.759509 0.000000
0.186874 0.759509 0.000000
0.213453 0.759509 0.000000
0.241088 0.759509 0.000000
0.270381 0.759509 0.000000
0.301953 0.759509 0.000000
0.335994 0.759509 0.000000
0.370607 0.759509 0.000000
0.405450 0.759509 0.000000
0.440475 0.759509 0.000000
0.475632 0.759509 0.000000
0.510875 0.759509 0.000000
0.546154 0.759509 0.000000
0.581422 0.759509 0.000000
0.616631 0.759509 0.000000
0.651731 0.759509 0.000000
0.685844 0.759509 0.000000
0.711321 0.759509 0.000000
0.736612 0.759509 0.000000
0.759509 0.757489 0.000000
0.769448 0.744706 0.000000
0.795114 0.750105 0.000000
0.817637 0.754891 0.000000
0.837400 0.756035 0.000000
0.854744 0.755351 0.000000
0.869968 0.754774 0.000000
0.883333 0.754285 0.000000
0.895071 0.753868 0.000000
0.905383 0.753511 0.000000
0.052401 0.786020 0.000000
0.081692 0.786020 0.000000
0.109491 0.786020 0.000000
0.136220 0.786020 0.000000
0.162356 0.786020 0.000000
0.188415 0.786020 0.000000
0.214950 0.786020 0.000000
0.242538 0.786020 0.000000
0.271782 0.786020 0.000000
0.303302 0.786020 0.000000
0.337287 0.786020 0.000000
0.371842 0.786020 0.000000
0.406627 0.786020 0.000000
0.441593 0.786020 0.000000
0.476692 0.786020 0.000000
0.511876 0.786020 0.000000
0.547097 0.786020 0.000000
0.582307 0.786020 0.000000
0.617456 0.786020 0.000000
0.652499 0.786020 0.000000
0.687385 0.786020 0.000000
0.718161 0.786020 0.000000
0.743410 0.786020 0.000000
0.768287 0.786020 0.000000
0.786020 0.781285 0.000000
0.795114 0.770462 0.000000
0.817637 0.775221 0.000000
0.837400 0.779432 0.000000
0.854744 0.783019 0.000000
0.869968 0.782421 0.000000
0.883333 0.781914 0.000000
0.895071 0.781482 0.000000
0.905383 0.781112 0.000000
0.053955 0.809329 0.000000
0.083206 0.809329 0.000000
0.110967 0.809329 0.000000
0.137659 0.809329 0.000000
0.163759 0.809329 0.000000
0.189783 0.809329 0.000000
0.216281 0.809329 0.000000
0.243831 0.809329 0.000000
0.273036 0.809329 0.000000
0.304512 0.809329 0.000000
0.338450 0.809329 0.000000
0.372958 0.809329 0.000000
0.407696 0.809329 0.000000
0.442614 0.809329 0.000000
0.477665 0.809329 0.000000
0.512800 0.809329 0.000000
0.547973 0.809329 0.000000
0.583134 0.809329 0.000000
0.618236 0.809329 0.000000
0.653230 0.809329 0.000000
0.688068 0.809329 0.000000
0.722703 0.809329 0.000000
0.749436 0.809329 0.000000
0.774278 0.809329 0.000000
0.796716 0.809329 0.000000
0.809329 0.802250 0.000000
0.817637 0.793096 0.000000
0.837400 0.797288 0.000000
