luts/PowerGrade Midnight Blue.cube
TITLE "PowerGrade Midnight Blue"
LUT_3D_SIZE 33
0.000000 0.000000 0.000000
0.022328 0.000053 0.000053
0.045840 0.000433 0.000433
0.070463 0.001475 0.001475
0.096125 0.003492 0.003492
0.122753 0.006726 0.006726
0.150274 0.011301 0.011301
0.178616 0.017183 0.017183
0.207705 0.024124 0.024124
0.237469 0.031623 0.031623
0.267835 0.038889 0.038889
0.298730 0.044807 0.044807
0.330081 0.049512 0.049512
0.361817 0.054272 0.054272
0.393863 0.059079 0.059079
0.426147 0.063922 0.063922
0.458597 0.068790 0.068790
0.491139 0.073671 0.073671
0.523701 0.078555 0.078555
0.556210 0.083432 0.083432
0.588594 0.088289 0.088289
0.620778 0.093117 0.093117
0.652692 0.097904 0.097904
0.684261 0.102639 0.102639
0.715416 0.107312 0.107312
0.746109 0.111916 0.111916
0.776275 0.116441 0.116441
0.805259 0.120789 0.120789
0.830292 0.124544 0.124544
0.851579 0.127737 0.127737
0.869686 0.130453 0.130453
0.885092 0.132764 0.132764
0.898203 0.134730 0.134730
0.000067 0.024155 0.000067
0.022335 0.024155 0.000098
0.045840 0.024496 0.000721
0.070463 0.025771 0.002459
0.096125 0.027941 0.005056
0.122753 0.031191 0.008760
0.150274 0.035597 0.013634
0.178616 0.041071 0.019561
0.207705 0.047347 0.026244
0.237469 0.053953 0.033173
0.267835 0.060183 0.039599
0.298730 0.065339 0.044807
0.330081 0.070044 0.049512
0.361817 0.074804 0.054272
0.393863 0.079611 0.059079
0.426147 0.084454 0.063922
0.458597 0.089321 0.068790
0.491139 0.094202 0.073671
0.523701 0.099087 0.078555
0.556210 0.103963 0.083432
0.588594 0.108821 0.088289
0.620791 0.113650 0.093119
0.652748 0.118444 0.097912
0.684397 0.123191 0.102660
0.715664 0.127881 0.107350
0.746478 0.132503 0.111972
0.776764 0.137046 0.116515
0.805821 0.141405 0.120873
0.830873 0.145162 0.124631
0.852163 0.148356 0.127824
0.870260 0.151070 0.130539
0.885648 0.153379 0.132847
0.898734 0.155342 0.134810
0.000545 0.049683 0.000545
0.022628 0.049683 0.000545
0.045901 0.049683 0.000797
0.070463 0.050408 0.002459
0.096125 0.052495 0.005821
0.122753 0.056355 0.011209
0.150274 0.062236 0.018754
0.178616 0.068530 0.026110
0.207705 0.075664 0.034150
0.237469 0.083084 0.042238
0.267835 0.089987 0.049483
0.298730 0.095304 0.054722
0.330081 0.099278 0.058383
0.361817 0.103242 0.062085
0.393863 0.107203 0.065824
0.426147 0.111160 0.069590
0.458597 0.115109 0.073376
0.491141 0.119049 0.077173
0.523728 0.122976 0.080975
0.556291 0.126885 0.084774
0.588762 0.130771 0.088562
0.621069 0.135391 0.093160
0.653141 0.140201 0.097971
0.684905 0.144966 0.102736
0.716289 0.149674 0.107443
0.747218 0.154313 0.112083
0.777617 0.158873 0.116643
0.806707 0.163236 0.121006
0.831727 0.166989 0.124759
0.852976 0.170177 0.127946
0.871026 0.172884 0.130654
0.886363 0.175185 0.132954
0.899396 0.177140 0.134909
0.001857 0.076492 0.001857
0.023643 0.076492 0.001857
0.046584 0.076492 0.001857
0.070676 0.076492 0.002705
0.096125 0.077681 0.005821
0.122753 0.080717 0.011209
0.150274 0.085740 0.018836
0.178616 0.092866 0.028639
0.207705 0.101891 0.040206
0.237469 0.111579 0.051759
0.267835 0.119259 0.059864
0.298730 0.125180 0.065445
0.330081 0.129584 0.069106
0.361817 0.133909 0.072809
0.393872 0.138175 0.076549
0.426188 0.142396 0.080319
0.458698 0.146578 0.084112
0.491330 0.150724 0.087919
0.524016 0.154834 0.091732
0.556684 0.158907 0.095543
0.589264 0.162941 0.099344
0.621683 0.166930 0.103127
0.653868 0.170870 0.106882
0.685746 0.174756 0.110601
0.717242 0.178580 0.114275
0.748280 0.182337 0.117896
0.778784 0.186018 0.121455
0.807868 0.189519 0.124848
0.832810 0.192516 0.127758
0.853978 0.195055 0.130228
0.871948 0.197208 0.132324
0.887206 0.199034 0.134104
0.900163 0.200584 0.135616
0.004380 0.104492 0.004380
0.025772 0.104492 0.004380
0.048298 0.104492 0.004380
0.071889 0.104492 0.004380
0.096635 0.104492 0.006365
0.122753 0.106160 0.011209
0.150274 0.110231 0.018836
0.178616 0.116377 0.028639
0.207705 0.124471 0.040206
0.237469 0.134005 0.052705
0.267836 0.144021 0.064815
0.298746 0.153053 0.074683
0.330133 0.159384 0.080312
0.361928 0.164256 0.084022
0.394061 0.168989 0.087771
0.426464 0.173611 0.091551
0.459067 0.178142 0.095355
0.491800 0.182594 0.099174
0.524590 0.186975 0.102999
0.557367 0.191289 0.106823
0.590058 0.195537 0.110637
0.622589 0.199719 0.114432
0.654886 0.203833 0.118200
0.686873 0.207875 0.121932
0.718475 0.211842 0.125619
0.749615 0.215727 0.129252
0.780213 0.219525 0.132822
0.809251 0.223114 0.136210
0.834074 0.226171 0.139106
0.855129 0.228756 0.141562
0.872990 0.230944 0.143646
0.888146 0.232798 0.145414
0.901007 0.234369 0.146914
0.008382 0.133591 0.008382
0.029309 0.133591 0.008382
0.051345 0.133591 0.008382
0.074424 0.133591 0.008382
0.098476 0.133591 0.008382
0.123739 0.133591 0.012156
0.150274 0.135682 0.018836
0.178620 0.140811 0.028640
0.207726 0.147943 0.040215
0.237523 0.156662 0.052727
0.267943 0.166110 0.064855
0.298917 0.174921 0.074726
0.330377 0.182787 0.082594
0.362253 0.190756 0.090563
0.394475 0.198812 0.098619
0.426973 0.204536 0.103250
0.459677 0.209541 0.107065
0.492514 0.214407 0.110896
0.525413 0.219153 0.114734
0.558300 0.223790 0.118571
0.591102 0.228326 0.122398
0.623742 0.232767 0.126206
0.656147 0.237112 0.129987
0.688239 0.241364 0.133731
0.719940 0.245519 0.137429
0.751172 0.249575 0.141073
0.781855 0.253528 0.144653
0.810805 0.257231 0.148030
0.835476 0.260369 0.150909
0.856389 0.263018 0.153348
0.874118 0.265255 0.155417
0.889152 0.267147 0.157171
0.901902 0.268748 0.158658
0.013954 0.163696 0.013954
0.034378 0.163696 0.013954
0.055886 0.163696 0.013954
0.078411 0.163696 0.013954
0.101890 0.163696 0.013954
0.126261 0.163696 0.013954
0.151972 0.163696 0.020216
0.178706 0.166105 0.028672
0.207861 0.172253 0.040271
0.237717 0.180140 0.052808
0.268205 0.189005 0.064951
0.299255 0.197585 0.074812
0.330798 0.205472 0.082700
0.362765 0.213463 0.090691
0.395083 0.221543 0.098771
0.427683 0.229693 0.106921
0.460492 0.237895 0.115123
0.493438 0.245922 0.123046
0.526446 0.251135 0.126897
0.559443 0.256186 0.130747
0.592353 0.261090 0.134586
0.625100 0.265858 0.138407
0.657608 0.270498 0.142199
0.689796 0.275014 0.145955
0.721588 0.279408 0.149664
0.752903 0.283679 0.153317
0.783659 0.287826 0.156905
0.812479 0.291674 0.160268
0.836971 0.294917 0.163125
0.857719 0.297648 0.165546
0.875298 0.299949 0.167597
0.890196 0.301892 0.169335
0.902822 0.303534 0.170808
0.020941 0.194717 0.020941
0.040869 0.194717 0.020941
0.061859 0.194717 0.020941
0.083850 0.194717 0.020941
0.106780 0.194717 0.020941
0.130588 0.194717 0.020941
0.155501 0.194717 0.022207
0.181360 0.194717 0.030363
0.208109 0.197315 0.040374
0.238036 0.204352 0.052941
0.268602 0.212624 0.065098
0.299738 0.220972 0.074934
0.331373 0.228881 0.082843
0.363437 0.236897 0.090859
0.395858 0.245003 0.098965
0.428564 0.253179 0.107141
0.461480 0.261408 0.115370
0.494535 0.269672 0.123634
0.527652 0.277951 0.131913
0.560756 0.286227 0.140189
0.593771 0.293619 0.147160
0.626619 0.298790 0.150992
0.659221 0.303791 0.154796
0.691499 0.308630 0.158562
0.723371 0.313315 0.162280
0.754757 0.317848 0.165942
0.785574 0.322232 0.169537
0.814224 0.326254 0.172880
0.838517 0.329628 0.175714
0.859083 0.332460 0.178113
0.876499 0.334843 0.180145
0.891249 0.336850 0.181866
0.903744 0.338543 0.183324
0.028872 0.226562 0.028872
0.048368 0.226562 0.028872
0.068909 0.226562 0.028872
0.090436 0.226562 0.028872
0.112889 0.226562 0.028872
0.136208 0.226562 0.028872
0.160333 0.226562 0.028872
0.185862 0.226562 0.032013
0.211809 0.226562 0.041967
0.238462 0.229213 0.053119
0.269115 0.236886 0.065286
0.300344 0.245008 0.075086
0.332077 0.252941 0.083019
0.364243 0.260983 0.091061
0.396770 0.269114 0.099192
0.429582 0.277317 0.107396
0.462607 0.285574 0.115652
0.495769 0.293864 0.123942
0.528992 0.302170 0.132248
0.562200 0.310472 0.140550
0.595313 0.318750 0.148828
0.628254 0.326985 0.157063
0.660943 0.335158 0.165236
0.693299 0.342025 0.171510
0.725240 0.347056 0.175236
0.756685 0.351901 0.178905
0.787549 0.356565 0.182506
0.815994 0.360792 0.185824
0.840072 0.364323 0.188633
0.860446 0.367278 0.191010
0.877688 0.369759 0.193022
0.892285 0.371844 0.194725
0.904643 0.373600 0.196167
0.036904 0.259140 0.036904
0.056086 0.259140 0.036904
0.076303 0.259140 0.036904
0.097496 0.259140 0.036904
0.119606 0.259140 0.036904
0.142575 0.259140 0.036904
0.166343 0.259140 0.036904
0.190851 0.259140 0.036904
0.217110 0.259140 0.042421
0.243167 0.259140 0.053850
0.269724 0.261710 0.065509
0.301051 0.269618 0.075263
0.332886 0.277576 0.083221
0.365157 0.285644 0.091289
0.397789 0.293802 0.099447
0.430708 0.302032 0.107677
0.463839 0.310315 0.115960
0.497105 0.318631 0.124276
0.530429 0.326962 0.132607
0.563733 0.335288 0.140933
0.596937 0.343589 0.149234
0.629962 0.351846 0.157491
0.662727 0.360037 0.165682
0.695150 0.368142 0.173787
0.727148 0.376142 0.181787
0.758638 0.384015 0.189660
0.789536 0.390654 0.195769
0.817744 0.395118 0.199060
0.841598 0.398832 0.201842
0.861772 0.401933 0.204196
0.878838 0.404529 0.206187
0.893278 0.406708 0.207872
0.905499 0.408540 0.209298
0.043770 0.292358 0.043770
0.062817 0.292358 0.043770
0.082898 0.292358 0.043770
0.103953 0.292358 0.043770
0.125925 0.292358 0.043770
0.148755 0.292358 0.043770
0.172384 0.292358 0.043770
0.196753 0.292358 0.043770
0.221801 0.292358 0.043770
0.248932 0.292358 0.051873
0.275228 0.292358 0.064187
0.301836 0.294728 0.075459
0.333775 0.302712 0.083444
0.366150 0.310806 0.091537
0.398887 0.318991 0.099722
0.431910 0.327246 0.107978
0.465143 0.335554 0.116286
0.498507 0.343896 0.124627
0.531925 0.352250 0.132981
0.565316 0.360598 0.141329
0.598602 0.368919 0.149650
0.631700 0.377194 0.157925
0.664529 0.385401 0.166132
0.697005 0.393520 0.174251
0.729046 0.401530 0.182262
0.760567 0.409411 0.190142
0.791478 0.417138 0.197870
0.819431 0.424127 0.204858
0.843058 0.430033 0.210764
0.863031 0.435027 0.215758
0.879920 0.438996 0.219601
0.894205 0.441283 0.221267
0.906291 0.443203 0.222677
0.048919 0.326126 0.048919
0.067995 0.326126 0.048919
0.088112 0.326126 0.048919
0.109210 0.326126 0.048919
0.131230 0.326126 0.048919
0.154115 0.326126 0.048919
0.177804 0.326126 0.048919
0.202238 0.326126 0.048919
0.227355 0.326126 0.048919
0.253095 0.326126 0.048919
0.281187 0.326126 0.059541
0.307866 0.326126 0.072152
0.334719 0.328274 0.083680
0.367196 0.336394 0.091799
0.400034 0.344603 0.100009
0.433156 0.352884 0.108289
0.466484 0.361216 0.116621
0.499939 0.369579 0.124985
0.533441 0.377955 0.133360
0.566910 0.386322 0.141728
0.600265 0.394661 0.150066
0.633424 0.402951 0.158356
0.666303 0.411170 0.166576
0.698819 0.419299 0.174705
0.730888 0.427317 0.182722
0.762424 0.435201 0.190606
0.793317 0.442924 0.198329
0.821014 0.449848 0.205254
0.844415 0.455698 0.211104
0.864191 0.460642 0.216048
0.880908 0.464822 0.220227
0.895043 0.468355 0.223761
0.906998 0.471344 0.226750
0.054053 0.360352 0.054053
0.073170 0.360352 0.054053
0.093335 0.360352 0.054053
0.114487 0.360352 0.054053
0.136568 0.360352 0.054053
0.159519 0.360352 0.054053
0.183280 0.360352 0.054053
0.207789 0.360352 0.054053
0.232985 0.360352 0.054053
0.258807 0.360352 0.054053
0.285354 0.360352 0.054718
0.314173 0.360352 0.067369
0.341184 0.360352 0.080225
0.368269 0.362331 0.092067
0.401202 0.370564 0.100301
0.434415 0.378867 0.108604
0.467829 0.387221 0.116957
0.501364 0.395605 0.125341
0.534940 0.403999 0.133735
0.568474 0.412382 0.142119
0.601885 0.420735 0.150471
0.635090 0.429036 0.158773
0.668005 0.437265 0.167001
0.700545 0.445400 0.175136
0.732625 0.453420 0.183156
0.764161 0.461304 0.191040
0.795005 0.469015 0.198751
0.822453 0.475877 0.205613
0.845637 0.481673 0.211409
0.865224 0.486570 0.216306
0.881776 0.490708 0.220444
0.895770 0.494206 0.223943
0.907603 0.497164 0.226901
0.059241 0.394943 0.059241
0.078404 0.394943 0.059241
0.098620 0.394943 0.059241
0.119831 0.394943 0.059241
0.141976 0.394943 0.059241
0.164995 0.394943 0.059241
0.188828 0.394943 0.059241
0.213414 0.394943 0.059241
0.238688 0.394943 0.059241
0.264590 0.394943 0.059241
0.291055 0.394943 0.059241
0.318774 0.394943 0.062536
0.347805 0.394943 0.075429
0.375078 0.394943 0.088495
0.402361 0.396798 0.100590
0.435655 0.405121 0.108914
0.469145 0.413494 0.117286
0.502748 0.421894 0.125687
0.536384 0.430303 0.134096
0.569969 0.438700 0.142492
0.603421 0.447063 0.150855
0.636656 0.455371 0.159164
0.669589 0.463605 0.167397
0.702136 0.471741 0.175534
0.734211 0.479760 0.183553
0.765728 0.487639 0.191432
0.796499 0.495332 0.199125
0.823711 0.502135 0.205928
0.846689 0.507880 0.211672
0.866099 0.512732 0.216525
0.882500 0.516832 0.220625
0.896364 0.520298 0.224091
0.908086 0.523229 0.227022
0.064471 0.429810 0.064471
0.083683 0.429810 0.064471
0.103953 0.429810 0.064471
0.125224 0.429810 0.064471
0.147434 0.429810 0.064471
0.170522 0.429810 0.064471
0.194427 0.429810 0.064471
0.219087 0.429810 0.064471
0.244438 0.429810 0.064471
0.270416 0.429810 0.064471
0.296958 0.429810 0.064471
0.323996 0.429810 0.064471
0.352777 0.429810 0.070585
0.381956 0.429810 0.083683
0.409419 0.429810 0.096921
0.436846 0.431569 0.109211
0.470397 0.439956 0.117599
0.504054 0.448371 0.126014
0.537735 0.456791 0.134434
0.571355 0.465196 0.142839
0.604830 0.473565 0.151208
0.638078 0.481877 0.159519
0.671011 0.490110 0.167753
0.703546 0.498244 0.175887
0.735597 0.506256 0.183899
0.767078 0.514127 0.191770
0.797756 0.521796 0.199439
0.824749 0.528544 0.206187
0.847540 0.534242 0.211885
0.866790 0.539055 0.216697
0.883054 0.543121 0.220764
0.896803 0.546558 0.224201
0.908429 0.549464 0.227107
0.069729 0.464859 0.069729
0.088990 0.464859 0.069729
0.109316 0.464859 0.069729
0.130647 0.464859 0.069729
0.152922 0.464859 0.069729
0.176078 0.464859 0.069729
0.200054 0.464859 0.069729
0.224785 0.464859 0.069729
0.250208 0.464859 0.069729
0.276257 0.464859 0.069729
0.302868 0.464859 0.069729
0.329973 0.464859 0.069729
0.357506 0.464859 0.069729
0.387228 0.464859 0.078822
0.416485 0.464859 0.092085
0.444057 0.464859 0.105453
0.471552 0.466532 0.117888
0.505247 0.474956 0.126312
0.538955 0.483383 0.134739
0.572591 0.491792 0.143148
0.606072 0.500162 0.151518
0.639312 0.508472 0.159828
0.672227 0.516701 0.168057
0.704731 0.524827 0.176183
0.736738 0.532829 0.184185
0.768163 0.540685 0.192041
0.798735 0.548328 0.199684
0.825532 0.555027 0.206383
0.848157 0.560684 0.212039
0.867267 0.565461 0.216817
0.883415 0.569498 0.220854
0.897066 0.572911 0.224267
0.908612 0.575797 0.227153
0.075000 0.500000 0.075000
0.094312 0.500000 0.075000
0.114693 0.500000 0.075000
0.136084 0.500000 0.075000
0.158421 0.500000 0.075000
0.181642 0.500000 0.075000
0.205684 0.500000 0.075000
0.230482 0.500000 0.075000
0.255970 0.500000 0.075000
0.282083 0.500000 0.075000
0.308755 0.500000 0.075000
0.335918 0.500000 0.075000
0.363504 0.500000 0.075000
0.391443 0.500000 0.075000
0.421973 0.500000 0.087197
0.451230 0.500000 0.100580
0.478831 0.500000 0.114031
0.506290 0.501573 0.126573
0.540006 0.510001 0.135001
0.573639 0.518410 0.143410
0.607104 0.526776 0.151776
0.640317 0.535079 0.160079
0.673191 0.543298 0.168298
0.705643 0.551411 0.176411
0.737586 0.559397 0.184397
0.768936 0.567234 0.192234
0.799391 0.574848 0.199848
0.826021 0.581505 0.206505
0.848507 0.587127 0.212127
0.867502 0.591876 0.216876
0.883556 0.595889 0.220889
0.897135 0.599284 0.224284
0.908637 0.602159 0.227159
0.080271 0.535141 0.080271
0.099632 0.535141 0.080271
0.120068 0.535141 0.080271
0.141516 0.535141 0.080271
0.163912 0.535141 0.080271
0.187194 0.535141 0.080271
0.211296 0.535141 0.080271
0.236153 0.535141 0.080271
0.261699 0.535141 0.080271
0.287867 0.535141 0.080271
0.314589 0.535141 0.080271
0.341797 0.535141 0.080271
0.369423 0.535141 0.080271
0.397395 0.535141 0.080271
0.426123 0.535141 0.082258
0.456841 0.535141 0.095649
0.486017 0.535141 0.109104
0.513561 0.535141 0.122588
0.540851 0.536568 0.135213
0.574458 0.544970 0.143614
0.607885 0.553327 0.151971
0.641048 0.561618 0.160262
0.673860 0.569821 0.168465
0.706237 0.577915 0.176559
0.738095 0.585879 0.184524
0.769348 0.593693 0.192337
0.799683 0.601276 0.199921
0.826180 0.607901 0.206545
0.848576 0.613500 0.212144
0.867522 0.618236 0.216880
0.883557 0.622245 0.220889
0.897135 0.625640 0.224284
0.908637 0.628515 0.227159
0.085529 0.570190 0.085529
0.104938 0.570190 0.085529
0.125424 0.570190 0.085529
0.146924 0.570190 0.085529
0.169375 0.570190 0.085529
0.192711 0.570190 0.085529
0.216865 0.570190 0.085529
0.241773 0.570190 0.085529
0.267367 0.570190 0.085529
0.293578 0.570190 0.085529
0.320339 0.570190 0.085529
0.347579 0.570190 0.085529
0.375229 0.570190 0.085529
0.403218 0.570190 0.085529
0.431477 0.570190 0.085529
0.461099 0.570190 0.090661
0.491644 0.570190 0.104111
0.520655 0.570190 0.117586
0.548056 0.570190 0.131052
0.575009 0.571395 0.143752
0.608374 0.579736 0.152093
0.641462 0.588008 0.160366
0.674188 0.596190 0.168547
0.706467 0.604260 0.176617
0.738225 0.612199 0.184556
0.769403 0.619994 0.192351
0.799694 0.627566 0.199923
0.826180 0.634188 0.206545
0.848576 0.639787 0.212144
0.867522 0.644523 0.216880
0.883557 0.648532 0.220889
0.897135 0.651927 0.224284
0.908637 0.654802 0.227159
0.090759 0.605057 0.090759
0.110212 0.605057 0.090759
0.130745 0.605057 0.090759
0.152293 0.605057 0.090759
0.174790 0.605057 0.090759
0.198172 0.605057 0.090759
0.222370 0.605057 0.090759
0.247318 0.605057 0.090759
0.272948 0.605057 0.090759
0.299189 0.605057 0.090759
0.325973 0.605057 0.090759
0.353229 0.605057 0.090759
0.380887 0.605057 0.090759
0.408876 0.605057 0.090759
0.437124 0.605057 0.090759
0.465558 0.605057 0.090759
0.495897 0.605057 0.099053
0.526183 0.605057 0.112508
0.554943 0.605057 0.125949
0.582115 0.605057 0.139342
0.608530 0.605925 0.152132
0.641541 0.614178 0.160385
0.674214 0.622346 0.168553
0.706468 0.630410 0.176617
0.738225 0.638349 0.184556
0.769403 0.646143 0.192351
0.799694 0.653716 0.199923
0.826180 0.660338 0.206545
0.848576 0.665937 0.212144
0.867522 0.670673 0.216880
0.883557 0.674682 0.220889
0.897135 0.678076 0.224284
0.908637 0.680952 0.227159
0.095947 0.639648 0.095947
0.115440 0.639648 0.095947
0.136014 0.639648 0.095947
0.157602 0.639648 0.095947
0.180139 0.639648 0.095947
0.203557 0.639648 0.095947
0.227788 0.639648 0.095947
0.252763 0.639648 0.095947
0.278414 0.639648 0.095947
0.304670 0.639648 0.095947
0.331462 0.639648 0.095947
0.358717 0.639648 0.095947
0.386364 0.639648 0.095947
0.414332 0.639648 0.095947
0.442548 0.639648 0.095947
0.470940 0.639648 0.095947
0.499436 0.639648 0.095947
0.530313 0.639648 0.107357
0.560284 0.639648 0.120777
0.588764 0.639648 0.134157
0.615704 0.639648 0.147465
0.641541 0.640122 0.160385
0.674214 0.648290 0.168553
0.706468 0.656353 0.176617
0.738225 0.664293 0.184556
0.769403 0.672087 0.192351
0.799694 0.679660 0.199923
0.826180 0.686281 0.206545
0.848576 0.691880 0.212144
0.867522 0.696617 0.216880
0.883557 0.700626 0.220889
0.897135 0.704020 0.224284
0.908637 0.706896 0.227159
0.101081 0.673874 0.101081
0.120608 0.673874 0.101081
0.141215 0.673874 0.101081
0.162835 0.673874 0.101081
0.185401 0.673874 0.101081
0.208843 0.673874 0.101081
0.233094 0.673874 0.101081
0.258083 0.673874 0.101081
0.283740 0.673874 0.101081
0.309994 0.673874 0.101081
0.336774 0.673874 0.101081
0.364007 0.673874 0.101081
0.391623 0.673874 0.101081
0.419549 0.673874 0.101081
0.447725 0.673874 0.101081
0.476088 0.673874 0.101081
0.504570 0.673874 0.101081
0.533384 0.673874 0.102224
0.564474 0.673874 0.115643
0.594141 0.673874 0.129023
0.622331 0.673874 0.142331
0.649004 0.673874 0.155535
0.674214 0.673959 0.168553
0.706468 0.682023 0.176617
0.738225 0.689962 0.184556
0.769403 0.697756 0.192351
0.799694 0.705329 0.199923
0.826180 0.711950 0.206545
0.848576 0.717549 0.212144
0.867522 0.722286 0.216880
0.883557 0.726295 0.220889
0.897135 0.729689 0.224284
0.908637 0.732565 0.227159
0.106146 0.707642 0.106146
0.125700 0.707642 0.106146
0.146332 0.707642 0.106146
0.167974 0.707642 0.106146
0.190556 0.707642 0.106146
0.214011 0.707642 0.106146
0.238266 0.707642 0.106146
0.263252 0.707642 0.106146
0.288897 0.707642 0.106146
0.315130 0.707642 0.106146
0.341882 0.707642 0.106146
0.369092 0.707642 0.106146
0.396692 0.707642 0.106146
0.424614 0.707642 0.106146
0.452790 0.707642 0.106146
0.481153 0.707642 0.106146
0.509635 0.707642 0.106146
0.538169 0.707642 0.106146
0.567723 0.707642 0.110578
0.598449 0.707642 0.123958
0.627755 0.707642 0.137266
0.655597 0.707642 0.150470
0.681939 0.707642 0.163539
0.706761 0.707642 0.176441
0.738225 0.715287 0.184556
0.769403 0.723082 0.192351
0.799694 0.730655 0.199923
0.826180 0.737276 0.206545
0.848576 0.742875 0.212144
0.867522 0.747612 0.216880
0.883557 0.751620 0.220889
0.897135 0.755015 0.224284
0.908637 0.757891 0.227159
0.111129 0.740860 0.111129
0.130701 0.740860 0.111129
0.151348 0.740860 0.111129
0.173000 0.740860 0.111129
0.195587 0.740860 0.111129
0.219037 0.740860 0.111129
0.243282 0.740860 0.111129
0.268254 0.740860 0.111129
0.293887 0.740860 0.111129
0.320113 0.740860 0.111129
0.346865 0.740860 0.111129
0.374075 0.740860 0.111129
0.401675 0.740860 0.111129
0.429597 0.740860 0.111129
0.457773 0.740860 0.111129
0.486136 0.740860 0.111129
0.514618 0.740860 0.111129
0.543151 0.740860 0.111129
0.571668 0.740860 0.111129
0.601853 0.740860 0.118975
0.632158 0.740860 0.132283
0.661045 0.740860 0.145487
0.688477 0.740860 0.158557
0.714428 0.740860 0.171458
0.738880 0.740860 0.184161
0.769403 0.747996 0.192351
0.799694 0.755568 0.199923
0.826180 0.762190 0.206545
0.848576 0.767789 0.212144
0.867522 0.772525 0.216880
0.883557 0.776534 0.220889
0.897135 0.779929 0.224284
0.908637 0.782804 0.227159
0.116016 0.773438 0.116016
0.135597 0.773438 0.116016
0.156247 0.773438 0.116016
0.177897 0.773438 0.116016
0.200479 0.773438 0.116016
0.223925 0.773438 0.116016
0.248168 0.773438 0.116016
0.273140 0.773438 0.116016
0.298773 0.773438 0.116016
0.325000 0.773438 0.116016
0.351752 0.773438 0.116016
0.378962 0.773438 0.116016
0.406561 0.773438 0.116016
0.434483 0.773438 0.116016
0.462660 0.773438 0.116016
0.491023 0.773438 0.116016
0.519505 0.773438 0.116016
0.548038 0.773438 0.116016
0.576554 0.773438 0.116016
0.604986 0.773438 0.116016
0.635692 0.773438 0.127396
0.665518 0.773438 0.140601
0.693928 0.773438 0.153670
0.720891 0.773438 0.166572
0.746387 0.773438 0.179274
0.770404 0.773438 0.191746
0.799694 0.780002 0.199923
0.826180 0.786623 0.206545
0.848576 0.792222 0.212144
0.867522 0.796959 0.216880
0.883557 0.800967 0.220889
0.897135 0.804362 0.224284
0.908637 0.807237 0.227159
0.120711 0.804740 0.120711
0.140293 0.804740 0.120711
0.160943 0.804740 0.120711
0.182592 0.804740 0.120711
0.205174 0.804740 0.120711
0.228621 0.804740 0.120711
0.252864 0.804740 0.120711
0.277836 0.804740 0.120711
0.303469 0.804740 0.120711
0.329695 0.804740 0.120711
0.356447 0.804740 0.120711
0.383657 0.804740 0.120711
0.411257 0.804740 0.120711
0.439179 0.804740 0.120711
0.467355 0.804740 0.120711
0.495718 0.804740 0.120711
0.524200 0.804740 0.120711
0.552733 0.804740 0.120711
0.581250 0.804740 0.120711
0.609682 0.804740 0.120711
0.638446 0.804740 0.122701
0.669102 0.804740 0.135906
0.698377 0.804740 0.148975
0.726236 0.804740 0.161876
0.752655 0.804740 0.174579
0.777617 0.804740 0.187050
0.800943 0.804740 0.199167
0.826180 0.810100 0.206545
0.848576 0.815699 0.212144
0.867522 0.820435 0.216880
0.883557 0.824444 0.220889
0.897135 0.827839 0.224284
0.908637 0.830714 0.227159
0.124733 0.831554 0.124733
0.144315 0.831554 0.124733
0.164965 0.831554 0.124733
0.186614 0.831554 0.124733
0.209196 0.831554 0.124733
0.232643 0.831554 0.124733
0.256886 0.831554 0.124733
0.281858 0.831554 0.124733
0.307491 0.831554 0.124733
0.333717 0.831554 0.124733
0.360469 0.831554 0.124733
0.387679 0.831554 0.124733
0.415279 0.831554 0.124733
0.443201 0.831554 0.124733
0.471377 0.831554 0.124733
0.499740 0.831554 0.124733
0.528222 0.831554 0.124733
0.556755 0.831554 0.124733
0.585272 0.831554 0.124733
0.613704 0.831554 0.124733
0.641983 0.831554 0.124733
0.671677 0.831554 0.131883
0.701641 0.831554 0.144952
0.730214 0.831554 0.157854
0.757367 0.831554 0.170557
0.783083 0.831554 0.183028
0.807171 0.831554 0.195144
0.827510 0.831554 0.205739
0.848576 0.835810 0.212144
