luts/PowerGrade Teal Orange.cube
TITLE "PowerGrade Teal Orange"
LUT_3D_SIZE 5
0.000000 0.000000 0.000000
0.203860 0.000000 0.000000
0.459776 0.000000 0.000000
0.722596 0.000000 0.000000
0.933339 0.000000 0.000000
0.000000 0.221875 0.000000
0.205804 0.221875 0.000000
0.470433 0.221875 0.000000
0.748140 0.221875 0.000000
0.948913 0.221875 0.000000
0.000000 0.500000 0.000000
0.216817 0.500000 0.000000
0.495300 0.500000 0.000000
0.779698 0.500000 0.000000
0.958265 0.500000 0.000000
0.000000 0.778125 0.000000
0.225150 0.778125 0.000000
0.512229 0.778125 0.000000
0.801312 0.778125 0.000000
0.964207 0.778125 0.000000
0.000000 0.955854 0.000000
0.232331 0.955854 0.000000
0.525493 0.955854 0.000000
0.812605 0.955854 0.000000
0.965511 0.955854 0.000000
0.000000 0.000000 0.240166
0.203860 0.000000 0.240166
0.459776 0.000000 0.240166
0.723270 0.000000 0.239917
0.934576 0.000000 0.238223
0.000000 0.221875 0.239467
0.199916 0.218484 0.237291
0.472941 0.191747 0.205491
0.751905 0.158271 0.167993
0.950289 0.134465 0.140245
0.000000 0.500000 0.229239
0.184038 0.500000 0.192977
0.496962 0.500000 0.180014
0.781978 0.432325 0.085856
0.958890 0.389866 0.041005
0.000000 0.778125 0.219905
0.159621 0.778125 0.150644
0.482281 0.778125 0.148081
0.803455 0.773550 0.106796
0.964608 0.733369 0.030812
0.000000 0.955854 0.212642
0.146038 0.955854 0.121668
0.474212 0.955854 0.120816
0.795415 0.955854 0.120790
0.965511 0.954250 0.084786
0.000000 0.000000 0.540224
0.203860 0.000000 0.540224
0.459776 0.000000 0.540224
0.724539 0.000000 0.538780
0.936002 0.000000 0.534092
0.000000 0.221875 0.537394
0.152208 0.168902 0.531789
0.469699 0.185568 0.524436
0.755638 0.157823 0.487765
0.951539 0.134315 0.455909
0.000000 0.500000 0.513633
0.155570 0.498537 0.506649
0.499111 0.499864 0.500618
0.783896 0.452555 0.447566
0.959539 0.422346 0.412100
0.000000 0.778125 0.494206
0.160484 0.778125 0.454769
0.484221 0.778125 0.449029
0.805460 0.772651 0.414294
0.964943 0.733289 0.358595
0.000000 0.955854 0.478078
0.146458 0.955854 0.417366
0.474270 0.955854 0.416325
0.795415 0.955854 0.416325
0.965511 0.954218 0.390876
0.000000 0.000000 0.831267
0.203860 0.000000 0.831267
0.459857 0.000000 0.831163
0.726342 0.000000 0.827752
0.937567 0.000000 0.820556
0.000000 0.221875 0.825497
0.110068 0.125413 0.817270
0.438788 0.151639 0.807177
0.754791 0.152899 0.796679
0.952652 0.134182 0.767448
0.000000 0.500000 0.793051
0.095617 0.437451 0.784314
0.459575 0.458121 0.776415
0.785796 0.465704 0.768557
0.960200 0.444776 0.740327
0.000000 0.778125 0.768153
0.106299 0.778125 0.757635
0.460038 0.778125 0.749123
0.807291 0.771125 0.734055
0.965207 0.734333 0.692201
0.000000 0.955854 0.746412
0.111452 0.955854 0.707180
0.474270 0.955854 0.717032
0.795415 0.955854 0.717032
0.965511 0.954109 0.702322
0.000000 0.000000 0.969503
0.203860 0.000000 0.969503
0.460358 0.000000 0.969357
0.728613 0.000000 0.968382
0.939225 0.000000 0.966632
0.000000 0.221875 0.967827
0.089033 0.103046 0.965831
0.423101 0.132904 0.963296
0.739037 0.133239 0.960512
0.953149 0.133552 0.957903
0.000000 0.500000 0.959521
0.058772 0.399469 0.956961
0.434865 0.431484 0.954510
0.768111 0.445707 0.952442
0.960860 0.444697 0.948553
0.000000 0.778125 0.951557
0.069707 0.740565 0.948852
0.425067 0.741186 0.946031
0.792752 0.758273 0.943559
0.965393 0.755653 0.939195
0.000000 0.955854 0.942855
0.074684 0.955854 0.938683
0.431271 0.955854 0.938648
0.781090 0.955854 0.938648
0.965511 0.953537 0.936049
