luts/PowerGrade Midnight Blue.cube
TITLE "PowerGrade Midnight Blue"
LUT_3D_SIZE 9
0.000000 0.000000 0.000000
0.096125 0.003492 0.003492
0.207705 0.024124 0.024124
0.330081 0.049512 0.049512
0.458597 0.068790 0.068790
0.588594 0.088289 0.088289
0.715416 0.107312 0.107312
0.830292 0.124544 0.124544
0.898203 0.134730 0.134730
0.004380 0.104492 0.004380
0.096635 0.104492 0.006365
0.207705 0.124471 0.040206
0.330133 0.159384 0.080312
0.459067 0.178142 0.095355
0.590058 0.195537 0.110637
0.718475 0.211842 0.125619
0.834074 0.226171 0.139106
0.901007 0.234369 0.146914
0.028872 0.226562 0.028872
0.112889 0.226562 0.028872
0.211809 0.226562 0.041967
0.332077 0.252941 0.083019
0.462607 0.285574 0.115652
0.595313 0.318750 0.148828
0.725240 0.347056 0.175236
0.840072 0.364323 0.188633
0.904643 0.373600 0.196167
0.054053 0.360352 0.054053
0.136568 0.360352 0.054053
0.232985 0.360352 0.054053
0.341184 0.360352 0.080225
0.467829 0.387221 0.116957
0.601885 0.420735 0.150471
0.732625 0.453420 0.183156
0.845637 0.481673 0.211409
0.907603 0.497164 0.226901
0.075000 0.500000 0.075000
0.158421 0.500000 0.075000
0.255970 0.500000 0.075000
0.363504 0.500000 0.075000
0.478831 0.500000 0.114031
0.607104 0.526776 0.151776
0.737586 0.559397 0.184397
0.848507 0.587127 0.212127
0.908637 0.602159 0.227159
0.095947 0.639648 0.095947
0.180139 0.639648 0.095947
0.278414 0.639648 0.095947
0.386364 0.639648 0.095947
0.499436 0.639648 0.095947
0.615704 0.639648 0.147465
0.738225 0.664293 0.184556
0.848576 0.691880 0.212144
0.908637 0.706896 0.227159
0.116016 0.773438 0.116016
0.200479 0.773438 0.116016
0.298773 0.773438 0.116016
0.406561 0.773438 0.116016
0.519505 0.773438 0.116016
0.635692 0.773438 0.127396
0.746387 0.773438 0.179274
0.848576 0.792222 0.212144
0.908637 0.807237 0.227159
0.130940 0.872936 0.130940
0.215404 0.872936 0.130940
0.313698 0.872936 0.130940
0.421486 0.872936 0.130940
0.534430 0.872936 0.130940
0.648191 0.872936 0.130940
0.763587 0.872936 0.164350
0.854394 0.872936 0.208490
0.908637 0.881861 0.227159
0.138412 0.922745 0.138412
0.222875 0.922745 0.138412
0.321170 0.922745 0.138412
0.428958 0.922745 0.138412
0.541901 0.922745 0.138412
0.655662 0.922745 0.138412
0.769596 0.922745 0.156878
0.864734 0.922745 0.201019
0.912078 0.922745 0.225043
0.000000 0.000000 0.113267
0.096948 0.005437 0.113267
0.207705 0.024124 0.124235
0.330081 0.049512 0.145789
0.458597 0.068790 0.165066
0.588594 0.088289 0.184566
0.715472 0.107321 0.203590
0.830501 0.124575 0.220777
0.898409 0.134761 0.230836
0.005437 0.104913 0.113267
0.096125 0.104492 0.113267
0.207705 0.116480 0.124235
0.330213 0.138350 0.145774
0.459297 0.157713 0.165037
0.590470 0.177389 0.184558
0.719068 0.196679 0.203646
0.834652 0.214016 0.220746
0.901380 0.224025 0.230490
0.028872 0.226562 0.127623
0.112939 0.226562 0.127490
0.211475 0.226562 0.130874
0.332407 0.253024 0.167512
0.463116 0.284988 0.198909
0.595991 0.304658 0.214254
0.726043 0.322220 0.229263
0.840722 0.337050 0.242476
0.905011 0.345240 0.249814
0.054053 0.360352 0.149589
0.136659 0.360352 0.149323
0.233201 0.360352 0.149039
0.341226 0.360352 0.163945
0.468390 0.387361 0.200396
0.602546 0.420900 0.233689
0.733315 0.453593 0.266153
0.846104 0.481790 0.294148
0.907823 0.492952 0.303191
0.075000 0.500000 0.169543
0.158515 0.500000 0.169257
0.256168 0.500000 0.168988
0.363788 0.500000 0.168743
0.478972 0.500000 0.196714
0.607467 0.526867 0.234250
0.737845 0.559461 0.266745
0.848567 0.587142 0.294382
0.908637 0.602159 0.309398
0.095947 0.639648 0.189576
0.180197 0.639648 0.189388
0.278506 0.639648 0.189249
0.386438 0.639648 0.189168
0.499436 0.639648 0.189151
0.615579 0.639648 0.229703
0.738225 0.664293 0.266795
0.848576 0.691880 0.294383
0.908637 0.706896 0.309398
0.116016 0.773438 0.209220
0.200479 0.773438 0.209219
0.298773 0.773438 0.209219
0.406561 0.773438 0.209219
0.519505 0.773438 0.209219
0.633369 0.773438 0.209635
0.746281 0.773438 0.261513
0.848576 0.792222 0.294383
0.908637 0.807237 0.309398
0.130940 0.872936 0.224144
0.215404 0.872936 0.224144
0.313698 0.872936 0.224144
0.421486 0.872936 0.224144
0.534430 0.872936 0.224144
0.648191 0.872936 0.224144
0.762393 0.872936 0.246588
0.854355 0.872936 0.290729
0.908637 0.881861 0.309398
0.138412 0.922745 0.231616
0.222875 0.922745 0.231616
0.321170 0.922745 0.231616
0.428958 0.922745 0.231616
0.541901 0.922745 0.231616
0.655662 0.922745 0.231616
0.767605 0.922745 0.239117
0.864412 0.922745 0.283257
0.912066 0.922745 0.307282
0.000000 0.000000 0.246380
0.100815 0.007690 0.246380
0.213016 0.033837 0.246380
0.330081 0.049512 0.258935
0.458597 0.068790 0.278212
0.588594 0.088289 0.297712
0.715599 0.107340 0.316706
0.830763 0.124614 0.333777
0.898642 0.134796 0.343625
0.000000 0.104492 0.246380
0.096125 0.104492 0.246380
0.213024 0.123976 0.246367
0.330326 0.138367 0.258826
0.459567 0.157753 0.277938
0.590924 0.177457 0.297249
0.719698 0.196773 0.316077
0.835250 0.214106 0.332846
0.901760 0.224082 0.342206
0.033758 0.229237 0.246059
0.113209 0.228712 0.245660
0.208811 0.226562 0.245137
0.332754 0.242491 0.257749
0.463641 0.262124 0.276788
0.596680 0.282080 0.296107
0.726850 0.301606 0.314975
0.841364 0.318783 0.331495
0.905369 0.328383 0.340461
0.054053 0.360352 0.261585
0.136752 0.360352 0.260966
0.233419 0.360352 0.260316
0.340564 0.360352 0.261971
0.468943 0.387499 0.298078
0.603189 0.420799 0.330705
0.733975 0.440413 0.345644
0.846538 0.455876 0.358499
0.908019 0.464061 0.365450
0.075000 0.500000 0.280262
0.158607 0.500000 0.279627
0.256359 0.500000 0.279037
0.364056 0.500000 0.278511
0.478895 0.500000 0.293507
0.607781 0.526945 0.330833
0.738040 0.559510 0.363218
0.848576 0.587144 0.390802
0.908637 0.602159 0.405817
0.095947 0.639648 0.299217
0.180249 0.639648 0.298831
0.278582 0.639648 0.298563
0.386481 0.639648 0.298435
0.499436 0.639648 0.298426
0.615345 0.639648 0.326123
0.738225 0.664293 0.363214
0.848576 0.691880 0.390802
0.908637 0.706896 0.405817
0.116016 0.773438 0.318495
0.200479 0.773438 0.318495
0.298773 0.773438 0.318495
0.406561 0.773438 0.318495
0.519505 0.773438 0.318495
0.633266 0.773438 0.318495
0.746101 0.773438 0.357932
0.848576 0.792222 0.390802
0.908637 0.807237 0.405817
0.130940 0.872936 0.333420
0.215404 0.872936 0.333420
0.313698 0.872936 0.333420
0.421486 0.872936 0.333420
0.534430 0.872936 0.333420
0.648191 0.872936 0.333420
0.760466 0.872936 0.343008
0.854292 0.872936 0.387148
0.908637 0.881861 0.405817
0.138412 0.922745 0.340891
0.222875 0.922745 0.340891
0.321170 0.922745 0.340891
0.428958 0.922745 0.340891
0.541901 0.922745 0.340891
0.655662 0.922745 0.340891
0.765903 0.922745 0.340891
0.863904 0.922745 0.379677
0.912048 0.922745 0.403701
0.000000 0.000000 0.392033
0.096125 0.000000 0.392033
0.229435 0.046216 0.392033
0.339374 0.058805 0.392033
0.458597 0.068790 0.402017
0.588604 0.088291 0.421513
0.715795 0.107369 0.440412
0.831075 0.124661 0.457298
0.898898 0.134835 0.466872
0.000000 0.104492 0.392033
0.096125 0.104492 0.392033
0.210610 0.108955 0.391952
0.339641 0.147558 0.391597
0.459875 0.157800 0.401327
0.591416 0.177531 0.420372
0.720363 0.196873 0.438886
0.835867 0.214198 0.455277
0.902145 0.224140 0.464211
0.000000 0.226562 0.391310
0.096481 0.226562 0.390596
0.209009 0.226562 0.389697
0.341446 0.250876 0.388652
0.464180 0.262205 0.399004
0.597378 0.282185 0.417952
0.727656 0.301726 0.436440
0.841994 0.318877 0.452550
0.905717 0.328436 0.461115
0.058209 0.364508 0.388062
0.139386 0.364198 0.386873
0.230976 0.363209 0.385641
0.336936 0.360352 0.384405
0.469485 0.376722 0.396147
0.603810 0.396870 0.415340
0.734601 0.416489 0.434101
0.846937 0.433339 0.450226
0.908192 0.442528 0.458856
0.075000 0.500000 0.401205
0.158697 0.500000 0.400214
0.256542 0.500000 0.399306
0.364308 0.500000 0.398513
0.477911 0.500000 0.399340
0.608045 0.527011 0.436493
0.738167 0.559542 0.468810
0.848576 0.576597 0.482180
0.908637 0.585019 0.489187
0.095947 0.639648 0.419104
0.180295 0.639648 0.418553
0.278641 0.639648 0.418204
0.386493 0.639648 0.418090
0.499436 0.639648 0.418090
0.614823 0.639648 0.431708
0.738225 0.664293 0.468800
0.848576 0.691880 0.496388
0.908637 0.706896 0.511403
0.116016 0.773438 0.438158
0.200479 0.773438 0.438158
0.298773 0.773438 0.438158
0.406561 0.773438 0.438158
0.519505 0.773438 0.438158
0.633266 0.773438 0.438158
0.745771 0.773438 0.463518
0.848576 0.792222 0.496388
0.908637 0.807237 0.511403
0.130940 0.872936 0.453083
0.215404 0.872936 0.453083
0.313698 0.872936 0.453083
0.421486 0.872936 0.453083
0.534430 0.872936 0.453083
0.648191 0.872936 0.453083
0.758432 0.872936 0.453083
0.854186 0.872936 0.492734
0.908637 0.881861 0.511403
0.138412 0.922745 0.460555
0.222875 0.922745 0.460555
0.321170 0.922745 0.460555
0.428958 0.922745 0.460555
0.541901 0.922745 0.460555
0.655662 0.922745 0.460555
0.765903 0.922745 0.460555
0.863072 0.922745 0.485262
0.912018 0.922745 0.509287
0.000000 0.000000 0.542919
0.096125 0.000000 0.542919
0.217608 0.016039 0.542919
0.362007 0.081438 0.542919
0.471245 0.081438 0.542919
0.588672 0.088301 0.549723
0.716056 0.107408 0.568471
0.831434 0.124715 0.585128
0.899177 0.134877 0.594397
0.000000 0.104492 0.542919
0.096126 0.104492 0.542917
0.207806 0.104492 0.542674
0.353927 0.152672 0.542066
0.472357 0.169990 0.541146
0.591943 0.177610 0.547763
0.721057 0.196977 0.565955
0.836497 0.214293 0.581968
0.902534 0.224198 0.590489
0.000000 0.226562 0.541620
0.096559 0.226562 0.540558
0.209217 0.226562 0.539267
0.334743 0.228472 0.537799
0.475452 0.273009 0.536208
0.598080 0.282290 0.544080
0.728458 0.301847 0.562215
0.842612 0.318970 0.577950
0.906052 0.328486 0.586158
0.001419 0.360818 0.536979
0.097518 0.360352 0.535347
0.211535 0.360352 0.533675
0.337343 0.360352 0.532016
0.479077 0.385863 0.530426
0.604407 0.396960 0.540275
0.735189 0.416577 0.558794
0.847298 0.433394 0.574707
0.908338 0.442550 0.583202
0.079676 0.504676 0.531173
0.163230 0.504446 0.529640
0.259724 0.504128 0.528257
0.361678 0.503056 0.527078
0.473915 0.500000 0.526158
0.608255 0.516238 0.537956
0.738222 0.535733 0.557246
0.848576 0.552286 0.573797
0.908637 0.561296 0.582806
0.095947 0.639648 0.543525
0.180333 0.639648 0.542875
0.278681 0.639648 0.542516
0.386493 0.639648 0.542458
0.499436 0.639648 0.542458
0.613198 0.639648 0.542458
0.738225 0.664293 0.578536
0.848576 0.691880 0.606124
0.908637 0.703125 0.615765
0.116016 0.773438 0.562526
0.200479 0.773438 0.562526
0.298773 0.773438 0.562526
0.406561 0.773438 0.562526
0.519505 0.773438 0.562526
0.633266 0.773438 0.562526
0.745029 0.773438 0.573254
0.848576 0.792222 0.606124
0.908637 0.807237 0.621139
0.130940 0.872936 0.577451
0.215404 0.872936 0.577451
0.313698 0.872936 0.577451
0.421486 0.872936 0.577451
0.534430 0.872936 0.577451
0.648191 0.872936 0.577451
0.758432 0.872936 0.577451
0.853983 0.872936 0.602470
0.908637 0.881861 0.621139
0.138412 0.922745 0.584923
0.222875 0.922745 0.584923
0.321170 0.922745 0.584923
0.428958 0.922745 0.584923
0.541901 0.922745 0.584923
0.655662 0.922745 0.584923
0.765903 0.922745 0.584923
0.861582 0.922745 0.594999
0.911964 0.922745 0.619023
0.000000 0.000000 0.691732
0.096125 0.000000 0.691732
0.207705 0.000000 0.691732
0.361295 0.059702 0.691732
0.493567 0.103760 0.691732
0.604208 0.103727 0.691512
0.716378 0.107457 0.694673
0.831836 0.124775 0.711095
0.899476 0.134921 0.720071
0.000000 0.104492 0.691732
0.096134 0.104492 0.691677
0.207883 0.104492 0.691214
0.342297 0.123141 0.690335
0.494870 0.192184 0.689104
0.606764 0.191956 0.687586
0.721778 0.197085 0.691235
0.837139 0.214389 0.706925
0.902924 0.224257 0.715100
0.000000 0.226562 0.689732
0.096643 0.226562 0.688343
0.209436 0.226563 0.686700
0.333876 0.226562 0.684869
0.490070 0.278528 0.682913
0.611102 0.294713 0.680898
0.729252 0.301966 0.686442
0.843213 0.319060 0.701889
0.906373 0.328534 0.709831
0.000000 0.360352 0.683858
0.097632 0.360352 0.681863
0.211792 0.360352 0.679842
0.337744 0.360352 0.677862
0.472469 0.363331 0.675986
0.615372 0.407441 0.674281
0.735735 0.416659 0.682251
0.847620 0.433442 0.698043
0.908457 0.442567 0.706491
0.029254 0.507644 0.676864
0.108907 0.503110 0.675070
0.213977 0.500000 0.673480
0.340887 0.500000 0.672162
0.474158 0.500000 0.671180
0.617737 0.525590 0.670601
0.738225 0.535734 0.680634
0.848576 0.552286 0.697186
0.908637 0.561296 0.706195
0.100740 0.644442 0.671603
0.185041 0.644325 0.670823
0.283327 0.644273 0.670481
0.389056 0.644078 0.670470
0.495355 0.642901 0.670470
0.608530 0.639648 0.670470
0.738225 0.654435 0.680634
0.848576 0.670988 0.697186
0.908637 0.679997 0.706195
0.116016 0.773438 0.685916
0.200479 0.773438 0.685916
0.298773 0.773438 0.685916
0.406561 0.773438 0.685916
0.519505 0.773438 0.685916
0.633266 0.773438 0.685916
0.743507 0.773438 0.685916
0.848576 0.792222 0.714997
0.908637 0.807237 0.730012
0.130940 0.872936 0.700840
0.215404 0.872936 0.700840
0.313698 0.872936 0.700840
0.421486 0.872936 0.700840
0.534430 0.872936 0.700840
0.648191 0.872936 0.700840
0.758432 0.872936 0.700840
0.853494 0.872936 0.711343
0.908637 0.881861 0.730012
0.138412 0.922745 0.708312
0.222875 0.922745 0.708312
0.321170 0.922745 0.708312
0.428958 0.922745 0.708312
0.541901 0.922745 0.708312
0.655662 0.922745 0.708312
0.765903 0.922745 0.708312
0.859701 0.922745 0.708312
0.911849 0.922745 0.727896
0.000000 0.000000 0.827382
0.096125 0.000000 0.827382
0.207705 0.000000 0.827382
0.349659 0.032572 0.827382
0.507507 0.109698 0.827359
0.624692 0.124051 0.827005
0.733184 0.123940 0.826264
0.832277 0.124842 0.826255
0.899793 0.134969 0.835233
0.000000 0.104492 0.827382
0.096152 0.104492 0.827225
0.207980 0.104492 0.826663
0.331086 0.104492 0.825742
0.496288 0.174391 0.824517
0.627582 0.212274 0.823039
0.737349 0.212023 0.821362
0.837790 0.214487 0.822278
0.903314 0.224315 0.830485
0.000000 0.226562 0.825137
0.096732 0.226563 0.823773
0.209663 0.226563 0.822184
0.334271 0.226563 0.820425
0.480853 0.251739 0.818551
0.632059 0.315071 0.816621
0.742735 0.314783 0.814698
0.843795 0.319147 0.817489
0.906679 0.328580 0.825465
0.000000 0.360352 0.819456
0.097747 0.360352 0.817546
0.212048 0.360352 0.815612
0.338137 0.360352 0.813717
0.471026 0.360352 0.811930
0.631505 0.417456 0.810317
0.747145 0.427642 0.808953
0.847899 0.433484 0.813906
0.908547 0.442581 0.822449
0.000000 0.500000 0.812765
0.098762 0.500000 0.811061
0.214157 0.500000 0.809569
0.341111 0.500000 0.808362
0.474358 0.500000 0.807513
0.610881 0.503681 0.807095
0.748551 0.546059 0.807063
0.848576 0.552286 0.813290
0.908637 0.561296 0.822299
0.060641 0.652276 0.807869
0.140369 0.649361 0.807236
0.232971 0.644728 0.807063
0.341818 0.639648 0.807063
0.474693 0.639648 0.807063
0.608530 0.639648 0.807063
0.748551 0.664761 0.807063
0.848576 0.670988 0.813290
0.908637 0.679997 0.822299
0.121059 0.778481 0.807063
0.205523 0.778481 0.807063
0.303817 0.778481 0.807063
0.411605 0.778481 0.807063
0.520992 0.778121 0.807063
0.628061 0.776746 0.807063
0.738225 0.773438 0.807063
0.848576 0.784708 0.813290
0.908637 0.793717 0.822299
0.130940 0.872936 0.816944
0.215404 0.872936 0.816944
0.313698 0.872936 0.816944
0.421486 0.872936 0.816944
0.534430 0.872936 0.816944
0.648191 0.872936 0.816944
0.758432 0.872936 0.816944
0.852230 0.872936 0.816944
0.908637 0.881861 0.832456
0.138412 0.922745 0.824415
0.222875 0.922745 0.824415
0.321170 0.922745 0.824415
0.428958 0.922745 0.824415
0.541901 0.922745 0.824415
0.655662 0.922745 0.824415
0.765903 0.922745 0.824415
0.859701 0.922745 0.824415
0.911476 0.922745 0.830340
0.000000 0.000000 0.903787
0.096125 0.000000 0.903787
0.207705 0.000000 0.903787
0.341058 0.017291 0.903787
0.505207 0.094466 0.903728
0.636367 0.135518 0.903451
0.745059 0.135446 0.902971
0.843190 0.135348 0.902319
0.900336 0.135228 0.901522
0.000000 0.104492 0.903781
0.096180 0.104492 0.903610
0.208096 0.104492 0.903223
0.331344 0.104492 0.902650
0.491635 0.159170 0.901919
0.639806 0.223977 0.901058
0.749808 0.223833 0.900096
0.847538 0.223678 0.899064
0.903701 0.224374 0.898850
0.000000 0.226563 0.902286
0.096826 0.226562 0.901483
0.209899 0.226562 0.900566
0.334674 0.226562 0.899563
0.472547 0.236089 0.898508
0.640066 0.316565 0.897432
0.755640 0.327034 0.896370
0.852006 0.326882 0.895360
0.906968 0.328623 0.896320
0.000000 0.360352 0.899016
0.097862 0.360352 0.897946
0.212301 0.360352 0.896873
0.338521 0.360352 0.895834
0.471502 0.360352 0.894866
0.627966 0.401020 0.894011
0.760184 0.440295 0.893308
0.854834 0.440219 0.892799
0.908607 0.442590 0.894937
0.000000 0.500000 0.895317
0.098852 0.500000 0.894403
0.214323 0.500000 0.893622
0.341308 0.500000 0.893015
0.474514 0.500000 0.892623
0.608530 0.500000 0.892488
0.761364 0.558873 0.892488
0.855163 0.558873 0.892488
0.908637 0.561296 0.894911
0.026677 0.647212 0.892781
0.106270 0.641851 0.892518
0.215009 0.639648 0.892488
0.341818 0.639648 0.892488
0.474693 0.639648 0.892488
0.608530 0.639648 0.892488
0.743458 0.648226 0.892488
0.855163 0.677574 0.892488
0.908637 0.679997 0.894911
0.107067 0.787719 0.892488
0.186562 0.786526 0.892488
0.279075 0.784695 0.892488
0.380522 0.781805 0.892488
0.486822 0.776894 0.892488
0.608530 0.773437 0.892488
0.738225 0.773438 0.892488
0.855163 0.791295 0.892488
0.908637 0.793717 0.894911
0.133873 0.875869 0.892488
0.218336 0.875869 0.892488
0.316631 0.875869 0.892488
0.424419 0.875869 0.892488
0.537362 0.875869 0.892488
0.651124 0.875869 0.892488
0.757346 0.875360 0.892488
0.848576 0.872936 0.892488
0.908637 0.878291 0.894911
0.138412 0.922745 0.897027
0.222875 0.922745 0.897027
0.321170 0.922745 0.897027
0.428958 0.922745 0.897027
0.541901 0.922745 0.897027
0.655662 0.922745 0.897027
0.765903 0.922745 0.897027
0.859701 0.922745 0.897027
0.910754 0.922745 0.897027
0.000000 0.000000 0.939882
0.096125 0.000000 0.939882
0.207705 0.000000 0.939882
0.336617 0.010073 0.939882
0.503498 0.087322 0.939809
0.642043 0.140943 0.939617
0.750923 0.140898 0.939323
0.849117 0.140841 0.938940
0.906175 0.140773 0.938484
0.000000 0.104492 0.939859
0.096217 0.104492 0.939722
0.208229 0.104492 0.939475
0.331624 0.104492 0.939133
0.489094 0.152087 0.938710
0.645921 0.229552 0.938221
0.756108 0.229471 0.937683
0.853804 0.229385 0.937112
0.908951 0.229297 0.936526
0.000000 0.226563 0.938921
0.096925 0.226563 0.938462
0.210141 0.226562 0.937945
0.335083 0.226563 0.937388
0.468451 0.228771 0.936807
0.639941 0.309222 0.936220
0.762169 0.332925 0.935647
0.858425 0.332844 0.935109
0.911347 0.332772 0.934628
0.000000 0.360352 0.937086
0.097976 0.360352 0.936499
0.212549 0.360352 0.935917
0.338892 0.360352 0.935360
0.471955 0.360352 0.934849
0.625263 0.393221 0.934407
0.766638 0.446407 0.934057
0.861147 0.446372 0.933822
0.912399 0.446357 0.933724
0.000000 0.500000 0.935086
0.098936 0.500000 0.934608
0.214474 0.500000 0.934211
0.341476 0.500000 0.933918
0.474623 0.500000 0.933752
0.608530 0.500000 0.933723
0.763552 0.556190 0.933723
0.861348 0.565058 0.933723
0.912400 0.565058 0.933723
0.010263 0.642882 0.933814
0.099368 0.639648 0.933724
0.215009 0.639648 0.933723
0.341818 0.639648 0.933723
0.474693 0.639648 0.933723
0.608530 0.639648 0.933723
0.738445 0.639979 0.933723
0.861348 0.683760 0.933723
0.912400 0.683760 0.933723
0.090573 0.788986 0.933723
0.170068 0.787019 0.933723
0.262581 0.784047 0.933723
0.364028 0.779452 0.933723
0.474693 0.773437 0.933723
0.608530 0.773437 0.933723
0.738225 0.773438 0.933723
0.855496 0.786464 0.933723
0.912400 0.797480 0.933723
0.140058 0.882054 0.933723
0.224522 0.882054 0.933723
0.322280 0.882009 0.933723
0.423727 0.881348 0.933723
0.530027 0.880264 0.933723
0.637096 0.878276 0.933723
0.740852 0.873753 0.933723
0.848576 0.872936 0.933723
0.912400 0.882054 0.933723
0.140058 0.924392 0.933723
0.224522 0.924392 0.933723
0.322816 0.924392 0.933723
0.430604 0.924392 0.933723
0.543548 0.924392 0.933723
0.657309 0.924392 0.933723
0.767550 0.924392 0.933723
0.859019 0.924092 0.933723
0.908637 0.922745 0.933723
