luts/PowerGrade Teal Orange.cube
TITLE "PowerGrade Teal Orange"
LUT_3D_SIZE 33
0.000000 0.000000 0.000000
0.021089 0.000000 0.000000
0.043610 0.000000 0.000000
0.067475 0.000000 0.000000
0.092595 0.000000 0.000000
0.118882 0.000000 0.000000
0.146247 0.000000 0.000000
0.174603 0.000000 0.000000
0.203860 0.000000 0.000000
0.233930 0.000000 0.000000
0.264726 0.000000 0.000000
0.296158 0.000000 0.000000
0.328139 0.000000 0.000000
0.360579 0.000000 0.000000
0.393391 0.000000 0.000000
0.426486 0.000000 0.000000
0.459776 0.000000 0.000000
0.493172 0.000000 0.000000
0.526586 0.000000 0.000000
0.559930 0.000000 0.000000
0.593116 0.000000 0.000000
0.626054 0.000000 0.000000
0.658657 0.000000 0.000000
0.690844 0.000000 0.000000
0.722596 0.000000 0.000000
0.753842 0.000000 0.000000
0.784494 0.000000 0.000000
0.814459 0.000000 0.000000
0.843643 0.000000 0.000000
0.871947 0.000000 0.000000
0.897802 0.000000 0.000000
0.917872 0.000000 0.000000
0.933339 0.000000 0.000000
0.000000 0.022736 0.000000
0.021089 0.022736 0.000000
0.043610 0.022736 0.000000
0.067475 0.022736 0.000000
0.092595 0.022736 0.000000
0.118882 0.022736 0.000000
0.146247 0.022736 0.000000
0.174603 0.022736 0.000000
0.203860 0.022736 0.000000
0.233930 0.022736 0.000000
0.264726 0.022736 0.000000
0.296158 0.022736 0.000000
0.328139 0.022736 0.000000
0.360579 0.022736 0.000000
0.393391 0.022736 0.000000
0.426486 0.022736 0.000000
0.459776 0.022736 0.000000
0.493172 0.022736 0.000000
0.526586 0.022736 0.000000
0.559930 0.022736 0.000000
0.593141 0.022736 0.000000
0.626188 0.022736 0.000000
0.658991 0.022736 0.000000
0.691464 0.022736 0.000000
0.723520 0.022736 0.000000
0.755068 0.022736 0.000000
0.786015 0.022736 0.000000
0.816262 0.022736 0.000000
0.845711 0.022736 0.000000
0.874257 0.022736 0.000000
0.899929 0.022736 0.000000
0.919701 0.022736 0.000000
0.934900 0.022736 0.000000
0.000000 0.047119 0.000000
0.021089 0.047119 0.000000
0.043610 0.047119 0.000000
0.067475 0.047119 0.000000
0.092595 0.047119 0.000000
0.118882 0.047119 0.000000
0.146247 0.047119 0.000000
0.174603 0.047119 0.000000
0.203860 0.047119 0.000000
0.233930 0.047119 0.000000
0.264726 0.047119 0.000000
0.296158 0.047119 0.000000
0.328139 0.047119 0.000000
0.360579 0.047119 0.000000
0.393391 0.047119 0.000000
0.426486 0.047119 0.000000
0.459776 0.047119 0.000000
0.493218 0.047119 0.000000
0.526755 0.047119 0.000000
0.560308 0.047119 0.000000
0.593793 0.047119 0.000000
0.627127 0.047119 0.000000
0.660222 0.047119 0.000000
0.692989 0.047119 0.000000
0.725336 0.047119 0.000000
0.757166 0.047119 0.000000
0.788382 0.047119 0.000000
0.818881 0.047119 0.000000
0.848558 0.047119 0.000000
0.877304 0.047119 0.000000
0.902574 0.047119 0.000000
0.921907 0.047119 0.000000
0.936733 0.047119 0.000000
0.000000 0.073041 0.000000
0.021089 0.073041 0.000000
0.043610 0.073041 0.000000
0.067475 0.073041 0.000000
0.092595 0.073041 0.000000
0.118882 0.073041 0.000000
0.146247 0.073041 0.000000
0.174603 0.073041 0.000000
0.203860 0.073041 0.000000
0.233930 0.073041 0.000000
0.264726 0.073041 0.000000
0.296158 0.073041 0.000000
0.328139 0.073041 0.000000
0.360586 0.073041 0.000000
0.393456 0.073041 0.000000
0.426677 0.073041 0.000000
0.460170 0.073041 0.000000
0.493857 0.073041 0.000000
0.527655 0.073041 0.000000
0.561481 0.073041 0.000000
0.595249 0.073041 0.000000
0.628869 0.073041 0.000000
0.662251 0.073041 0.000000
0.695301 0.073041 0.000000
0.727921 0.073041 0.000000
0.760012 0.073041 0.000000
0.791469 0.073041 0.000000
0.822187 0.073041 0.000000
0.852054 0.073041 0.000000
0.880953 0.073041 0.000000
0.905588 0.073041 0.000000
0.924372 0.073041 0.000000
0.938745 0.073041 0.000000
0.000000 0.100391 0.000000
0.021089 0.100391 0.000000
0.043610 0.100391 0.000000
0.067475 0.100391 0.000000
0.092595 0.100391 0.000000
0.118882 0.100391 0.000000
0.146247 0.100391 0.000000
0.174603 0.100391 0.000000
0.203860 0.100391 0.000000
0.233930 0.100391 0.000000
0.264741 0.100391 0.000000
0.296233 0.100391 0.000000
0.328332 0.100391 0.000000
0.360960 0.100391 0.000000
0.394038 0.100391 0.000000
0.427488 0.100391 0.000000
0.461229 0.100391 0.000000
0.495177 0.100391 0.000000
0.529248 0.100391 0.000000
0.563353 0.100391 0.000000
0.597403 0.100391 0.000000
0.631305 0.100391 0.000000
0.664964 0.100391 0.000000
0.698281 0.100391 0.000000
0.731154 0.100391 0.000000
0.763479 0.100391 0.000000
0.795148 0.100391 0.000000
0.826048 0.100391 0.000000
0.856066 0.100391 0.000000
0.884976 0.100391 0.000000
0.908833 0.100391 0.000000
0.926987 0.100391 0.000000
0.940852 0.100391 0.000000
0.000000 0.129059 0.000000
0.021089 0.129059 0.000000
0.043610 0.129059 0.000000
0.067475 0.129059 0.000000
0.092595 0.129059 0.000000
0.118882 0.129059 0.000000
0.146248 0.129059 0.000000
0.174622 0.129059 0.000000
0.203932 0.129059 0.000000
0.234103 0.129059 0.000000
0.265059 0.129059 0.000000
0.296721 0.129059 0.000000
0.329013 0.129059 0.000000
0.361855 0.129059 0.000000
0.395166 0.129059 0.000000
0.428866 0.129059 0.000000
0.462869 0.129059 0.000000
0.497089 0.129059 0.000000
0.531437 0.129059 0.000000
0.565822 0.129059 0.000000
0.600151 0.129059 0.000000
0.634326 0.129059 0.000000
0.668247 0.129059 0.000000
0.701812 0.129059 0.000000
0.734914 0.129059 0.000000
0.767445 0.129059 0.000000
0.799291 0.129059 0.000000
0.830337 0.129059 0.000000
0.860464 0.129059 0.000000
0.889179 0.129059 0.000000
0.912183 0.129059 0.000000
0.929657 0.129059 0.000000
0.942980 0.129059 0.000000
0.000000 0.158936 0.000000
0.021089 0.158936 0.000000
0.043610 0.158936 0.000000
0.067477 0.158936 0.000000
0.092611 0.158936 0.000000
0.118937 0.158936 0.000000
0.146377 0.158936 0.000000
0.174856 0.158936 0.000000
0.204296 0.158936 0.000000
0.234621 0.158936 0.000000
0.265754 0.158936 0.000000
0.297615 0.158936 0.000000
0.330126 0.158936 0.000000
0.363205 0.158936 0.000000
0.396768 0.158936 0.000000
0.430730 0.158936 0.000000
0.465005 0.158936 0.000000
0.499502 0.158936 0.000000
0.534129 0.158936 0.000000
0.568790 0.158936 0.000000
0.603387 0.158936 0.000000
0.637821 0.158936 0.000000
0.671986 0.158936 0.000000
0.705775 0.158936 0.000000
0.739079 0.158936 0.000000
0.771783 0.158936 0.000000
0.803772 0.158936 0.000000
0.834925 0.158936 0.000000
0.865120 0.158936 0.000000
0.893419 0.158936 0.000000
0.915529 0.158936 0.000000
0.932298 0.158936 0.000000
0.945066 0.158936 0.000000
0.000000 0.189911 0.000000
0.021094 0.189911 0.000000
0.043635 0.189911 0.000000
0.067544 0.189911 0.000000
0.092745 0.189911 0.000000
0.119160 0.189911 0.000000
0.146715 0.189911 0.000000
0.175331 0.189911 0.000000
0.204932 0.189911 0.000000
0.235441 0.189911 0.000000
0.266778 0.189911 0.000000
0.298862 0.189911 0.000000
0.331612 0.189911 0.000000
0.364943 0.189911 0.000000
0.398770 0.189911 0.000000
0.433004 0.189911 0.000000
0.467555 0.189911 0.000000
0.502328 0.189911 0.000000
0.537227 0.189911 0.000000
0.572155 0.189911 0.000000
0.607007 0.189911 0.000000
0.641680 0.189911 0.000000
0.676066 0.189911 0.000000
0.710053 0.189911 0.000000
0.743527 0.189911 0.000000
0.776371 0.189911 0.000000
0.808465 0.189911 0.000000
0.839686 0.189911 0.000000
0.869907 0.189911 0.000000
0.897573 0.189911 0.000000
0.918777 0.189911 0.000000
0.934841 0.189911 0.000000
0.947058 0.189911 0.000000
0.000000 0.221875 0.000000
0.021126 0.221875 0.000000
0.043718 0.221875 0.000000
0.067702 0.221875 0.000000
0.092999 0.221875 0.000000
0.119535 0.221875 0.000000
0.147233 0.221875 0.000000
0.176016 0.221875 0.000000
0.205804 0.221875 0.000000
0.236520 0.221875 0.000000
0.268082 0.221875 0.000000
0.300406 0.221875 0.000000
0.333410 0.221875 0.000000
0.367004 0.221875 0.000000
0.401102 0.221875 0.000000
0.435609 0.221875 0.000000
0.470433 0.221875 0.000000
0.505476 0.221875 0.000000
0.540638 0.221875 0.000000
0.575817 0.221875 0.000000
0.610905 0.221875 0.000000
0.645795 0.221875 0.000000
0.680375 0.221875 0.000000
0.714529 0.221875 0.000000
0.748140 0.221875 0.000000
0.781088 0.221875 0.000000
0.813248 0.221875 0.000000
0.844496 0.221875 0.000000
0.874703 0.221875 0.000000
0.901537 0.221875 0.000000
0.921853 0.221875 0.000000
0.937229 0.221875 0.000000
0.948913 0.221875 0.000000
0.000000 0.254718 0.000000
0.021182 0.254718 0.000000
0.043853 0.254718 0.000000
0.067937 0.254718 0.000000
0.093359 0.254718 0.000000
0.120041 0.254718 0.000000
0.147908 0.254718 0.000000
0.176879 0.254718 0.000000
0.206875 0.254718 0.000000
0.237816 0.254718 0.000000
0.269618 0.254718 0.000000
0.302194 0.254718 0.000000
0.335459 0.254718 0.000000
0.369321 0.254718 0.000000
0.403689 0.254718 0.000000
0.438467 0.254718 0.000000
0.473557 0.254718 0.000000
0.508858 0.254718 0.000000
0.544267 0.254718 0.000000
0.579676 0.254718 0.000000
0.614977 0.254718 0.000000
0.650056 0.254718 0.000000
0.684799 0.254718 0.000000
0.719087 0.254718 0.000000
0.752799 0.254718 0.000000
0.785812 0.254718 0.000000
0.818000 0.254718 0.000000
0.849235 0.254718 0.000000
0.879387 0.254718 0.000000
0.905229 0.254718 0.000000
0.924694 0.254718 0.000000
0.939416 0.254718 0.000000
0.950599 0.254718 0.000000
0.000000 0.288330 0.000000
0.021261 0.288330 0.000000
0.044033 0.288330 0.000000
0.068240 0.288330 0.000000
0.093808 0.288330 0.000000
0.120658 0.288330 0.000000
0.148711 0.288330 0.000000
0.177889 0.288330 0.000000
0.208108 0.288330 0.000000
0.239286 0.288330 0.000000
0.271336 0.288330 0.000000
0.304171 0.288330 0.000000
0.337699 0.288330 0.000000
0.371828 0.288330 0.000000
0.406461 0.288330 0.000000
0.441499 0.288330 0.000000
0.476841 0.288330 0.000000
0.512383 0.288330 0.000000
0.548017 0.288330 0.000000
0.583633 0.288330 0.000000
0.619118 0.288330 0.000000
0.654356 0.288330 0.000000
0.689228 0.288330 0.000000
0.723613 0.288330 0.000000
0.757388 0.288330 0.000000
0.790427 0.288330 0.000000
0.822602 0.288330 0.000000
0.853785 0.288330 0.000000
0.883782 0.288330 0.000000
0.908580 0.288330 0.000000
0.927250 0.288330 0.000000
0.941367 0.288330 0.000000
0.952087 0.288330 0.000000
0.000000 0.322601 0.000000
0.021358 0.322601 0.000000
0.044249 0.322601 0.000000
0.068599 0.322601 0.000000
0.094330 0.322601 0.000000
0.121363 0.322601 0.000000
0.149618 0.322601 0.000000
0.179014 0.322601 0.000000
0.209466 0.322601 0.000000
0.240887 0.322601 0.000000
0.273190 0.322601 0.000000
0.306282 0.322601 0.000000
0.340070 0.322601 0.000000
0.374457 0.322601 0.000000
0.409343 0.322601 0.000000
0.444627 0.322601 0.000000
0.480203 0.322601 0.000000
0.515962 0.322601 0.000000
0.551796 0.322601 0.000000
0.587588 0.322601 0.000000
0.623224 0.322601 0.000000
0.658585 0.322601 0.000000
0.693549 0.322601 0.000000
0.727993 0.322601 0.000000
0.761790 0.322601 0.000000
0.794815 0.322601 0.000000
0.826938 0.322601 0.000000
0.858029 0.322601 0.000000
0.887698 0.322601 0.000000
0.911537 0.322601 0.000000
0.929481 0.322601 0.000000
0.943052 0.322601 0.000000
0.953374 0.322601 0.000000
0.000000 0.357422 0.000000
0.021469 0.357422 0.000000
0.044496 0.357422 0.000000
0.069001 0.357422 0.000000
0.094908 0.357422 0.000000
0.122136 0.357422 0.000000
0.150603 0.357422 0.000000
0.180223 0.357422 0.000000
0.210911 0.357422 0.000000
0.242577 0.357422 0.000000
0.275129 0.357422 0.000000
0.308472 0.357422 0.000000
0.342510 0.357422 0.000000
0.377141 0.357422 0.000000
0.412264 0.357422 0.000000
0.447772 0.357422 0.000000
0.483556 0.357422 0.000000
0.519506 0.357422 0.000000
0.555507 0.357422 0.000000
0.591442 0.357422 0.000000
0.627193 0.357422 0.000000
0.662638 0.357422 0.000000
0.697653 0.357422 0.000000
0.732114 0.357422 0.000000
0.765893 0.357422 0.000000
0.798863 0.357422 0.000000
0.830893 0.357422 0.000000
0.861855 0.357422 0.000000
0.891083 0.357422 0.000000
0.914107 0.357422 0.000000
0.931464 0.357422 0.000000
0.944605 0.357422 0.000000
0.954593 0.357422 0.000000
0.000000 0.392682 0.000000
0.021593 0.392682 0.000000
0.044765 0.392682 0.000000
0.069437 0.392682 0.000000
0.095528 0.392682 0.000000
0.122957 0.392682 0.000000
0.151638 0.392682 0.000000
0.181485 0.392682 0.000000
0.212406 0.392682 0.000000
0.244311 0.392682 0.000000
0.277104 0.392682 0.000000
0.310686 0.392682 0.000000
0.344957 0.392682 0.000000
0.379814 0.392682 0.000000
0.415150 0.392682 0.000000
0.450855 0.392682 0.000000
0.486818 0.392682 0.000000
0.522924 0.392682 0.000000
0.559057 0.392682 0.000000
0.595096 0.392682 0.000000
0.630921 0.392682 0.000000
0.666408 0.392682 0.000000
0.701432 0.392682 0.000000
0.735867 0.392682 0.000000
0.769584 0.392682 0.000000
0.802486 0.392682 0.000000
0.834472 0.392682 0.000000
0.865410 0.392682 0.000000
0.894247 0.392682 0.000000
0.916562 0.392682 0.000000
0.933367 0.392682 0.000000
0.946077 0.392682 0.000000
0.955730 0.392682 0.000000
0.000000 0.428271 0.000000
0.021725 0.428271 0.000000
0.045049 0.428271 0.000000
0.069893 0.428271 0.000000
0.096172 0.428271 0.000000
0.123803 0.428271 0.000000
0.152698 0.428271 0.000000
0.182766 0.428271 0.000000
0.213914 0.428271 0.000000
0.246047 0.428271 0.000000
0.279066 0.428271 0.000000
0.312869 0.428271 0.000000
0.347352 0.428271 0.000000
0.382408 0.428271 0.000000
0.417927 0.428271 0.000000
0.453798 0.428271 0.000000
0.489903 0.428271 0.000000
0.526128 0.428271 0.000000
0.562351 0.428271 0.000000
0.598451 0.428271 0.000000
0.634306 0.428271 0.000000
0.669793 0.428271 0.000000
0.704828 0.428271 0.000000
0.739295 0.428271 0.000000
0.773069 0.428271 0.000000
0.806019 0.428271 0.000000
0.838015 0.428271 0.000000
0.868922 0.428271 0.000000
0.897235 0.428271 0.000000
0.918843 0.428271 0.000000
0.935104 0.428271 0.000000
0.947397 0.428271 0.000000
0.956730 0.428271 0.000000
0.000000 0.464081 0.000000
0.021861 0.464081 0.000000
0.045342 0.464081 0.000000
0.070358 0.464081 0.000000
0.096825 0.464081 0.000000
0.124655 0.464081 0.000000
0.153756 0.464081 0.000000
0.184036 0.464081 0.000000
0.215397 0.464081 0.000000
0.247741 0.464081 0.000000
0.280965 0.464081 0.000000
0.314964 0.464081 0.000000
0.349631 0.464081 0.000000
0.384856 0.464081 0.000000
0.420524 0.464081 0.000000
0.456521 0.464081 0.000000
0.492728 0.464081 0.000000
0.529027 0.464081 0.000000
0.565308 0.464081 0.000000
0.601483 0.464081 0.000000
0.637435 0.464081 0.000000
0.673039 0.464081 0.000000
0.708170 0.464081 0.000000
0.742701 0.464081 0.000000
0.776503 0.464081 0.000000
0.809442 0.464081 0.000000
0.841388 0.464081 0.000000
0.872205 0.464081 0.000000
0.899902 0.464081 0.000000
0.920838 0.464081 0.000000
0.936592 0.464081 0.000000
0.948502 0.464081 0.000000
0.957546 0.464081 0.000000
0.000000 0.500000 0.000000
0.021999 0.500000 0.000000
0.045635 0.500000 0.000000
0.070821 0.500000 0.000000
0.097470 0.500000 0.000000
0.125489 0.500000 0.000000
0.154786 0.500000 0.000000
0.185261 0.500000 0.000000
0.216817 0.500000 0.000000
0.249349 0.500000 0.000000
0.282752 0.500000 0.000000
0.316917 0.500000 0.000000
0.351734 0.500000 0.000000
0.387089 0.500000 0.000000
0.422865 0.500000 0.000000
0.458968 0.500000 0.000000
0.495300 0.500000 0.000000
0.531743 0.500000 0.000000
0.568179 0.500000 0.000000
0.604488 0.500000 0.000000
0.640544 0.500000 0.000000
0.676222 0.500000 0.000000
0.711394 0.500000 0.000000
0.745930 0.500000 0.000000
0.779698 0.500000 0.000000
0.812566 0.500000 0.000000
0.844403 0.500000 0.000000
0.875074 0.500000 0.000000
0.902117 0.500000 0.000000
0.922451 0.500000 0.000000
0.937782 0.500000 0.000000
0.949411 0.500000 0.000000
0.958265 0.500000 0.000000
0.000000 0.535919 0.000000
0.022135 0.535919 0.000000
0.045921 0.535919 0.000000
0.071271 0.535919 0.000000
0.098090 0.535919 0.000000
0.126286 0.535919 0.000000
0.155760 0.535919 0.000000
0.186411 0.535919 0.000000
0.218135 0.535919 0.000000
0.250827 0.535919 0.000000
0.284376 0.535919 0.000000
0.318674 0.535919 0.000000
0.353630 0.535919 0.000000
0.389140 0.535919 0.000000
0.425091 0.535919 0.000000
0.461370 0.535919 0.000000
0.497858 0.535919 0.000000
0.534436 0.535919 0.000000
0.570982 0.535919 0.000000
0.607370 0.535919 0.000000
0.643476 0.535919 0.000000
0.679168 0.535919 0.000000
0.714319 0.535919 0.000000
0.748797 0.535919 0.000000
0.782470 0.535919 0.000000
0.815206 0.535919 0.000000
0.846881 0.535919 0.000000
0.877434 0.535919 0.000000
0.903978 0.535919 0.000000
0.923929 0.535919 0.000000
0.938976 0.535919 0.000000
0.950375 0.535919 0.000000
0.959043 0.535919 0.000000
0.000000 0.571729 0.000000
0.022265 0.571729 0.000000
0.046194 0.571729 0.000000
0.071694 0.571729 0.000000
0.098670 0.571729 0.000000
0.127023 0.571729 0.000000
0.156652 0.571729 0.000000
0.187451 0.571729 0.000000
0.219320 0.571729 0.000000
0.252166 0.571729 0.000000
0.285885 0.571729 0.000000
0.320367 0.571729 0.000000
0.355505 0.571729 0.000000
0.391184 0.571729 0.000000
0.427288 0.571729 0.000000
0.463701 0.571729 0.000000
0.500299 0.571729 0.000000
0.536961 0.571729 0.000000
0.573560 0.571729 0.000000
0.609970 0.571729 0.000000
0.646061 0.571729 0.000000
0.681705 0.571729 0.000000
0.716769 0.571729 0.000000
0.751149 0.571729 0.000000
0.784778 0.571729 0.000000
0.817534 0.571729 0.000000
0.849289 0.571729 0.000000
0.879914 0.571729 0.000000
0.905979 0.571729 0.000000
0.925526 0.571729 0.000000
0.940250 0.571729 0.000000
0.951391 0.571729 0.000000
0.959853 0.571729 0.000000
0.000000 0.607318 0.000000
0.022386 0.607318 0.000000
0.046445 0.607318 0.000000
0.072080 0.607318 0.000000
0.099193 0.607318 0.000000
0.127687 0.607318 0.000000
0.157466 0.607318 0.000000
0.188430 0.607318 0.000000
0.220476 0.607318 0.000000
0.253498 0.607318 0.000000
0.287386 0.607318 0.000000
0.322030 0.607318 0.000000
0.357314 0.607318 0.000000
0.393123 0.607318 0.000000
0.429336 0.607318 0.000000
0.465831 0.607318 0.000000
0.502485 0.607318 0.000000
0.539171 0.607318 0.000000
0.575760 0.607318 0.000000
0.612125 0.607318 0.000000
0.648187 0.607318 0.000000
0.683853 0.607318 0.000000
0.719003 0.607318 0.000000
0.753513 0.607318 0.000000
0.787257 0.607318 0.000000
0.820109 0.607318 0.000000
0.851937 0.607318 0.000000
0.882582 0.607318 0.000000
0.908083 0.607318 0.000000
0.927186 0.607318 0.000000
0.941561 0.607318 0.000000
0.952428 0.607318 0.000000
0.960673 0.607318 0.000000
0.000000 0.642578 0.000000
0.022495 0.642578 0.000000
0.046672 0.642578 0.000000
0.072436 0.642578 0.000000
0.099692 0.642578 0.000000
0.128339 0.642578 0.000000
0.158277 0.642578 0.000000
0.189401 0.642578 0.000000
0.221604 0.642578 0.000000
0.254775 0.642578 0.000000
0.288802 0.642578 0.000000
0.323569 0.642578 0.000000
0.358957 0.642578 0.000000
0.394846 0.642578 0.000000
0.431113 0.642578 0.000000
0.467633 0.642578 0.000000
0.504286 0.642578 0.000000
0.540999 0.642578 0.000000
0.577666 0.642578 0.000000
0.614168 0.642578 0.000000
0.650386 0.642578 0.000000
0.686198 0.642578 0.000000
0.721479 0.642578 0.000000
0.756104 0.642578 0.000000
0.789945 0.642578 0.000000
0.822870 0.642578 0.000000
0.854748 0.642578 0.000000
0.885323 0.642578 0.000000
0.910225 0.642578 0.000000
0.928860 0.642578 0.000000
0.942873 0.642578 0.000000
0.953455 0.642578 0.000000
0.961478 0.642578 0.000000
0.000000 0.677399 0.000000
0.022600 0.677399 0.000000
0.046896 0.677399 0.000000
0.072790 0.677399 0.000000
0.100183 0.677399 0.000000
0.128972 0.677399 0.000000
0.159051 0.677399 0.000000
0.190311 0.677399 0.000000
0.222641 0.677399 0.000000
0.255926 0.677399 0.000000
0.290050 0.677399 0.000000
0.324893 0.677399 0.000000
0.360332 0.677399 0.000000
0.396263 0.677399 0.000000
0.432602 0.677399 0.000000
0.469238 0.677399 0.000000
0.506055 0.677399 0.000000
0.542939 0.677399 0.000000
0.579769 0.677399 0.000000
0.616427 0.677399 0.000000
0.652790 0.677399 0.000000
0.688733 0.677399 0.000000
0.724130 0.677399 0.000000
0.758851 0.677399 0.000000
0.792767 0.677399 0.000000
0.825744 0.677399 0.000000
0.857649 0.677399 0.000000
0.888060 0.677399 0.000000
0.912345 0.677399 0.000000
0.930505 0.677399 0.000000
0.944150 0.677399 0.000000
0.954448 0.677399 0.000000
0.962250 0.677399 0.000000
0.000000 0.711670 0.000000
0.022703 0.711670 0.000000
0.047112 0.711670 0.000000
0.073126 0.711670 0.000000
0.100641 0.711670 0.000000
0.129550 0.711670 0.000000
0.159743 0.711670 0.000000
0.191106 0.711670 0.000000
0.223525 0.711670 0.000000
0.256880 0.711670 0.000000
0.291079 0.711670 0.000000
0.326022 0.711670 0.000000
0.361599 0.711670 0.000000
0.397701 0.711670 0.000000
0.434212 0.711670 0.000000
0.471019 0.711670 0.000000
0.508005 0.711670 0.000000
0.545052 0.711670 0.000000
0.582037 0.711670 0.000000
0.618839 0.711670 0.000000
0.655332 0.711670 0.000000
0.691390 0.711670 0.000000
0.726883 0.711670 0.000000
0.761681 0.711670 0.000000
0.795650 0.711670 0.000000
0.828657 0.711670 0.000000
0.860564 0.711670 0.000000
0.890723 0.711670 0.000000
0.914392 0.711670 0.000000
0.932081 0.711670 0.000000
0.945364 0.711670 0.000000
0.955385 0.711670 0.000000
0.962972 0.711670 0.000000
0.000000 0.745282 0.000000
0.022798 0.745282 0.000000
0.047308 0.745282 0.000000
0.073424 0.745282 0.000000
0.101038 0.745282 0.000000
0.130038 0.745282 0.000000
0.160313 0.745282 0.000000
0.191767 0.745282 0.000000
0.224296 0.745282 0.000000
0.257794 0.745282 0.000000
0.292152 0.745282 0.000000
0.327260 0.745282 0.000000
0.363007 0.745282 0.000000
0.399278 0.745282 0.000000
0.435960 0.745282 0.000000
0.472934 0.745282 0.000000
0.510081 0.745282 0.000000
0.547280 0.745282 0.000000
0.584408 0.745282 0.000000
0.621339 0.745282 0.000000
0.657947 0.745282 0.000000
0.694101 0.745282 0.000000
0.729670 0.745282 0.000000
0.764522 0.745282 0.000000
0.798523 0.745282 0.000000
0.831535 0.745282 0.000000
0.863421 0.745282 0.000000
0.893252 0.745282 0.000000
0.916320 0.745282 0.000000
0.933552 0.745282 0.000000
0.946489 0.745282 0.000000
0.956244 0.745282 0.000000
0.963629 0.745282 0.000000
0.000000 0.778125 0.000000
0.022880 0.778125 0.000000
0.047471 0.778125 0.000000
0.073669 0.778125 0.000000
0.101371 0.778125 0.000000
0.130476 0.778125 0.000000
0.160878 0.778125 0.000000
0.192472 0.778125 0.000000
0.225150 0.778125 0.000000
0.258805 0.778125 0.000000
0.293325 0.778125 0.000000
0.328600 0.778125 0.000000
0.364515 0.778125 0.000000
0.400953 0.778125 0.000000
0.437799 0.778125 0.000000
0.474931 0.778125 0.000000
0.512229 0.778125 0.000000
0.549568 0.778125 0.000000
0.586823 0.778125 0.000000
0.623866 0.778125 0.000000
0.660567 0.778125 0.000000
0.696797 0.778125 0.000000
0.732420 0.778125 0.000000
0.767304 0.778125 0.000000
0.801312 0.778125 0.000000
0.834306 0.778125 0.000000
0.866148 0.778125 0.000000
0.895589 0.778125 0.000000
0.918086 0.778125 0.000000
0.934888 0.778125 0.000000
0.947500 0.778125 0.000000
0.957009 0.778125 0.000000
0.964207 0.778125 0.000000
0.000000 0.810089 0.000000
0.022950 0.810089 0.000000
0.047623 0.810089 0.000000
0.073919 0.810089 0.000000
0.101734 0.810089 0.000000
0.130963 0.810089 0.000000
0.161500 0.810089 0.000000
0.193239 0.810089 0.000000
0.226071 0.810089 0.000000
0.259884 0.810089 0.000000
0.294567 0.810089 0.000000
0.330006 0.810089 0.000000
0.366083 0.810089 0.000000
0.402682 0.810089 0.000000
0.439682 0.810089 0.000000
0.476960 0.810089 0.000000
0.514394 0.810089 0.000000
0.551856 0.810089 0.000000
0.589219 0.810089 0.000000
0.626354 0.810089 0.000000
0.663129 0.810089 0.000000
0.699410 0.810089 0.000000
0.735065 0.810089 0.000000
0.769956 0.810089 0.000000
0.803946 0.810089 0.000000
0.836899 0.810089 0.000000
0.868675 0.810089 0.000000
0.897687 0.810089 0.000000
0.919654 0.810089 0.000000
0.936061 0.810089 0.000000
0.948376 0.810089 0.000000
0.957664 0.810089 0.000000
0.964694 0.810089 0.000000
0.000000 0.841064 0.000000
0.023027 0.841064 0.000000
0.047792 0.841064 0.000000
0.074194 0.841064 0.000000
0.102127 0.841064 0.000000
0.131486 0.841064 0.000000
0.162163 0.841064 0.000000
0.194049 0.841064 0.000000
0.227034 0.841064 0.000000
0.261004 0.841064 0.000000
0.295846 0.841064 0.000000
0.331442 0.841064 0.000000
0.367674 0.841064 0.000000
0.404421 0.841064 0.000000
0.441562 0.841064 0.000000
0.478971 0.841064 0.000000
0.516522 0.841064 0.000000
0.554088 0.841064 0.000000
0.591539 0.841064 0.000000
0.628742 0.841064 0.000000
0.665565 0.841064 0.000000
0.701875 0.841064 0.000000
0.737534 0.841064 0.000000
0.772407 0.841064 0.000000
0.806356 0.841064 0.000000
0.839244 0.841064 0.000000
0.870931 0.841064 0.000000
0.899500 0.841064 0.000000
0.920991 0.841064 0.000000
