luts/PowerGrade Midnight Blue.cube
TITLE "PowerGrade Midnight Blue"
LUT_3D_SIZE 5
0.000000 0.000000 0.000000
0.207705 0.024124 0.024124
0.458597 0.068790 0.068790
0.715416 0.107312 0.107312
0.898203 0.134730 0.134730
0.028872 0.226562 0.028872
0.211809 0.226562 0.041967
0.462607 0.285574 0.115652
0.725240 0.347056 0.175236
0.904643 0.373600 0.196167
0.075000 0.500000 0.075000
0.255970 0.500000 0.075000
0.478831 0.500000 0.114031
0.737586 0.559397 0.184397
0.908637 0.602159 0.227159
0.116016 0.773438 0.116016
0.298773 0.773438 0.116016
0.519505 0.773438 0.116016
0.746387 0.773438 0.179274
0.908637 0.807237 0.227159
0.138412 0.922745 0.138412
0.321170 0.922745 0.138412
0.541901 0.922745 0.138412
0.769596 0.922745 0.156878
0.912078 0.922745 0.225043
0.000000 0.000000 0.246380
0.213016 0.033837 0.246380
0.458597 0.068790 0.278212
0.715599 0.107340 0.316706
0.898642 0.134796 0.343625
0.033758 0.229237 0.246059
0.208811 0.226562 0.245137
0.463641 0.262124 0.276788
0.726850 0.301606 0.314975
0.905369 0.328383 0.340461
0.075000 0.500000 0.280262
0.256359 0.500000 0.279037
0.478895 0.500000 0.293507
0.738040 0.559510 0.363218
0.908637 0.602159 0.405817
0.116016 0.773438 0.318495
0.298773 0.773438 0.318495
0.519505 0.773438 0.318495
0.746101 0.773438 0.357932
0.908637 0.807237 0.405817
0.138412 0.922745 0.340891
0.321170 0.922745 0.340891
0.541901 0.922745 0.340891
0.765903 0.922745 0.340891
0.912048 0.922745 0.403701
0.000000 0.000000 0.542919
0.217608 0.016039 0.542919
0.471245 0.081438 0.542919
0.716056 0.107408 0.568471
0.899177 0.134877 0.594397
0.000000 0.226562 0.541620
0.209217 0.226562 0.539267
0.475452 0.273009 0.536208
0.728458 0.301847 0.562215
0.906052 0.328486 0.586158
0.079676 0.504676 0.531173
0.259724 0.504128 0.528257
0.473915 0.500000 0.526158
0.738222 0.535733 0.557246
0.908637 0.561296 0.582806
0.116016 0.773438 0.562526
0.298773 0.773438 0.562526
0.519505 0.773438 0.562526
0.745029 0.773438 0.573254
0.908637 0.807237 0.621139
0.138412 0.922745 0.584923
0.321170 0.922745 0.584923
0.541901 0.922745 0.584923
0.765903 0.922745 0.584923
0.911964 0.922745 0.619023
0.000000 0.000000 0.827382
0.207705 0.000000 0.827382
0.507507 0.109698 0.827359
0.733184 0.123940 0.826264
0.899793 0.134969 0.835233
0.000000 0.226562 0.825137
0.209663 0.226563 0.822184
0.480853 0.251739 0.818551
0.742735 0.314783 0.814698
0.906679 0.328580 0.825465
0.000000 0.500000 0.812765
0.214157 0.500000 0.809569
0.474358 0.500000 0.807513
0.748551 0.546059 0.807063
0.908637 0.561296 0.822299
0.121059 0.778481 0.807063
0.303817 0.778481 0.807063
0.520992 0.778121 0.807063
0.738225 0.773438 0.807063
0.908637 0.793717 0.822299
0.138412 0.922745 0.824415
0.321170 0.922745 0.824415
0.541901 0.922745 0.824415
0.765903 0.922745 0.824415
0.911476 0.922745 0.830340
0.000000 0.000000 0.939882
0.207705 0.000000 0.939882
0.503498 0.087322 0.939809
0.750923 0.140898 0.939323
0.906175 0.140773 0.938484
0.000000 0.226563 0.938921
0.210141 0.226562 0.937945
0.468451 0.228771 0.936807
0.762169 0.332925 0.935647
0.911347 0.332772 0.934628
0.000000 0.500000 0.935086
0.214474 0.500000 0.934211
0.474623 0.500000 0.933752
0.763552 0.556190 0.933723
0.912400 0.565058 0.933723
0.090573 0.788986 0.933723
0.262581 0.784047 0.933723
0.474693 0.773437 0.933723
0.738225 0.773438 0.933723
0.912400 0.797480 0.933723
0.140058 0.924392 0.933723
0.322816 0.924392 0.933723
0.543548 0.924392 0.933723
0.767550 0.924392 0.933723
0.908637 0.922745 0.933723
