luts/PowerGrade Golden Hour.cube
TITLE "PowerGrade Golden Hour"
LUT_3D_SIZE 9
0.018118 0.018118 0.018118
0.137227 0.006452 0.006452
0.260547 0.000000 0.000000
0.398894 0.000000 0.000000
0.539941 0.000000 0.000000
0.680163 0.000000 0.000000
0.810376 0.000000 0.000000
0.889342 0.000000 0.000000
0.932666 0.000000 0.000000
0.007639 0.128879 0.007639
0.137227 0.127610 0.000000
0.260547 0.119039 0.000000
0.398812 0.116033 0.000000
0.539437 0.114611 0.000000
0.678761 0.113799 0.000000
0.808224 0.113301 0.000000
0.887497 0.113069 0.000000
0.931263 0.112959 0.000000
0.000000 0.242125 0.000000
0.128605 0.242125 0.000000
0.259948 0.240790 0.000000
0.397290 0.234711 0.000000
0.536787 0.231832 0.000000
0.674925 0.230186 0.000000
0.804274 0.229170 0.000000
0.884818 0.228690 0.000000
0.929535 0.228460 0.000000
0.000000 0.369141 0.000000
0.124517 0.369141 0.000000
0.252748 0.369141 0.000000
0.394691 0.367911 0.000000
0.533157 0.363371 0.000000
0.670453 0.360772 0.000000
0.800177 0.359155 0.000000
0.882468 0.358380 0.000000
0.928616 0.358007 0.000000
0.000000 0.500000 0.000000
0.122067 0.500000 0.000000
0.247633 0.500000 0.000000
0.388065 0.500000 0.000000
0.530225 0.498931 0.000000
0.668515 0.495306 0.000000
0.800832 0.493036 0.000000
0.884914 0.491954 0.000000
0.931271 0.491443 0.000000
0.000000 0.630859 0.000000
0.120533 0.630859 0.000000
0.245129 0.630859 0.000000
0.385853 0.630859 0.000000
0.531063 0.630859 0.000000
0.675812 0.629621 0.000000
0.809545 0.626769 0.000000
0.891104 0.625458 0.000000
0.935322 0.624845 0.000000
0.000000 0.759375 0.000000
0.120826 0.759375 0.000000
0.246902 0.759375 0.000000
0.389876 0.759375 0.000000
0.537258 0.759375 0.000000
0.685163 0.759375 0.000000
0.819510 0.758015 0.000000
0.897100 0.756536 0.000000
0.938725 0.755845 0.000000
0.000000 0.856363 0.000000
0.122360 0.856363 0.000000
0.250561 0.856363 0.000000
0.395719 0.856363 0.000000
0.544648 0.856363 0.000000
0.693228 0.856363 0.000000
0.825977 0.856363 0.000000
0.900570 0.855455 0.000000
0.940133 0.854716 0.000000
0.000000 0.911709 0.000000
0.124032 0.911709 0.000000
0.253957 0.911709 0.000000
0.400220 0.911709 0.000000
0.549075 0.911709 0.000000
0.696256 0.911709 0.000000
0.826418 0.911709 0.000000
0.900594 0.911709 0.000000
0.940133 0.911150 0.000000
0.018118 0.018118 0.120786
0.137227 0.006452 0.119175
0.260547 0.000000 0.110340
0.398894 0.000000 0.107552
0.539941 0.000000 0.106232
0.680163 0.000000 0.105477
0.810292 0.000000 0.105043
0.889230 0.000000 0.104911
0.932565 0.000000 0.104935
0.007639 0.128879 0.120020
0.137227 0.126835 0.116760
0.260546 0.115713 0.106810
0.398743 0.101893 0.093031
0.539267 0.087841 0.079076
0.678472 0.073920 0.065300
0.807900 0.060977 0.052538
0.887261 0.053041 0.044812
0.931102 0.048657 0.040656
0.000000 0.242125 0.111026
0.126555 0.242125 0.108814
0.259833 0.237698 0.086381
0.397071 0.203389 0.052285
0.536460 0.176053 0.028272
0.674497 0.163972 0.021717
0.803863 0.154605 0.015606
0.884558 0.149316 0.011926
0.929378 0.146534 0.010023
0.000000 0.369141 0.108483
0.113186 0.369141 0.096709
0.247213 0.369141 0.096942
0.394427 0.362819 0.053773
0.532813 0.328223 0.019444
0.670060 0.301940 0.000000
0.799843 0.291245 0.000000
0.882413 0.286317 0.000000
0.928715 0.284086 0.000000
0.000000 0.500000 0.107730
0.099260 0.500000 0.084373
0.232296 0.500000 0.084592
0.372658 0.500000 0.055268
0.530207 0.492448 0.020705
0.668824 0.462142 0.000000
0.801422 0.445743 0.000000
0.885437 0.438488 0.000000
0.931641 0.435333 0.000000
0.000000 0.630859 0.107530
0.085630 0.630859 0.071773
0.218896 0.630859 0.071632
0.369539 0.630859 0.071321
0.511884 0.630859 0.001322
0.676807 0.620827 0.000000
0.810517 0.599401 0.000000
0.891726 0.590204 0.000000
0.935698 0.586145 0.000000
0.000000 0.759375 0.106542
0.073900 0.759375 0.057920
0.209526 0.759375 0.057382
0.363339 0.759375 0.056803
0.511630 0.759375 0.025956
0.674651 0.759375 0.000000
0.820367 0.749018 0.000000
0.897573 0.738330 0.000000
0.938965 0.733504 0.000000
0.000000 0.856363 0.104668
0.066245 0.856363 0.046395
0.204521 0.856363 0.045809
0.361027 0.856363 0.045256
0.520754 0.856363 0.042959
0.671921 0.856363 0.000000
0.822342 0.856363 0.000000
0.900695 0.849697 0.000000
0.940133 0.844376 0.000000
0.000000 0.911709 0.102828
0.062638 0.911709 0.039141
0.202839 0.911709 0.038744
0.360551 0.911709 0.038456
0.520909 0.911709 0.038301
0.669240 0.911709 0.000000
0.815723 0.911709 0.000000
0.899200 0.911709 0.000000
0.940133 0.907642 0.000000
0.018118 0.018118 0.224641
0.129558 0.000000 0.224641
0.260547 0.000000 0.221957
0.398894 0.000000 0.216349
0.539941 0.000000 0.213693
0.680150 0.000000 0.212179
0.810178 0.000000 0.211346
0.889102 0.000000 0.211122
0.932454 0.000000 0.211214
0.018118 0.128879 0.224641
0.137227 0.128879 0.224641
0.260532 0.115714 0.221066
0.398656 0.101902 0.207379
0.539076 0.087860 0.193578
0.678163 0.073951 0.180004
0.807560 0.061011 0.167473
0.887019 0.053066 0.159991
0.930938 0.048674 0.156097
0.000000 0.242125 0.223401
0.126508 0.242125 0.223329
0.259711 0.237729 0.216768
0.396844 0.225499 0.207353
0.536125 0.212725 0.195173
0.674065 0.198931 0.181880
0.803451 0.185993 0.169454
0.884300 0.177908 0.161872
0.929225 0.173415 0.157851
0.000000 0.369141 0.218420
0.113108 0.369141 0.211964
0.247032 0.369141 0.212469
0.394165 0.362885 0.185431
0.532476 0.328307 0.151419
0.669679 0.296505 0.121319
0.799533 0.283994 0.115437
0.882424 0.277254 0.111477
0.928852 0.273634 0.108743
0.000000 0.500000 0.217010
0.099184 0.500000 0.200485
0.232141 0.500000 0.200940
0.379761 0.500000 0.198386
0.530273 0.492432 0.153075
0.669230 0.457693 0.117941
0.802095 0.424476 0.083919
0.885982 0.403505 0.061813
0.932019 0.391995 0.049004
0.000000 0.630859 0.216613
0.085657 0.630859 0.188244
0.219088 0.630859 0.187826
0.370044 0.630859 0.187052
0.515507 0.630859 0.142196
0.677828 0.619117 0.112293
0.811494 0.585701 0.077461
0.892343 0.565489 0.055800
0.936067 0.554558 0.043442
0.000000 0.759375 0.214226
0.074076 0.759375 0.172956
0.209958 0.759375 0.171772
0.364060 0.759375 0.170517
0.520778 0.759375 0.164151
0.671454 0.759375 0.087353
0.821195 0.743920 0.070572
0.898020 0.724714 0.050187
0.939185 0.714423 0.038920
0.000000 0.856363 0.210159
0.066448 0.856363 0.159304
0.204956 0.856363 0.158069
0.361659 0.856363 0.156923
0.522223 0.856363 0.155916
0.666183 0.856363 0.090732
0.820122 0.856363 0.058808
0.900777 0.845259 0.047370
0.940133 0.835420 0.037501
0.000000 0.911709 0.206306
0.062785 0.911709 0.150211
0.203092 0.911709 0.149432
0.360801 0.911709 0.148901
0.521003 0.911709 0.148666
0.665199 0.911709 0.101941
0.807214 0.911709 0.044607
0.898091 0.911709 0.044607
0.940133 0.904603 0.037501
0.018118 0.018118 0.340364
0.127507 0.002700 0.340364
0.256059 0.000000 0.340364
0.398894 0.000000 0.337579
0.539941 0.000000 0.333435
0.680101 0.000000 0.331100
0.810036 0.000000 0.329869
0.888959 0.000000 0.329589
0.932336 0.000000 0.329800
0.018118 0.128879 0.340364
0.137227 0.128879 0.340364
0.252514 0.107725 0.340423
0.398551 0.101912 0.334881
0.538865 0.087881 0.321299
0.677834 0.073984 0.307999
0.807207 0.061047 0.295771
0.886770 0.053090 0.288603
0.930772 0.048690 0.285038
0.018118 0.242125 0.340734
0.136972 0.242125 0.341171
0.259582 0.242125 0.341735
0.396608 0.226677 0.336974
0.535783 0.212760 0.323857
0.673630 0.198975 0.310913
0.803041 0.186034 0.298818
0.884047 0.177933 0.291538
0.929077 0.173430 0.287795
0.000000 0.369141 0.341155
0.113029 0.369141 0.340678
0.246851 0.369141 0.341522
0.393904 0.362950 0.332524
0.532145 0.348620 0.322046
0.669312 0.339123 0.313905
0.799313 0.326123 0.301496
0.882499 0.317805 0.293175
0.929026 0.313152 0.287876
0.000000 0.500000 0.339113
0.099109 0.500000 0.330238
0.231993 0.500000 0.330966
0.380825 0.500000 0.331478
0.530421 0.492395 0.300748
0.669729 0.457568 0.265055
0.802846 0.424288 0.230248
0.886545 0.413738 0.221927
0.932404 0.408760 0.216709
0.000000 0.630859 0.338424
0.085703 0.630859 0.318168
0.219318 0.630859 0.317292
0.370596 0.630859 0.315850
0.521714 0.630859 0.298873
0.678870 0.618857 0.256610
0.812473 0.585456 0.220833
0.892953 0.565336 0.198307
0.936427 0.554468 0.185097
0.000000 0.759375 0.334049
0.074259 0.759375 0.300850
0.210398 0.759375 0.298842
0.364786 0.759375 0.296740
0.523782 0.759375 0.294627
0.672734 0.759375 0.228933
0.821990 0.743721 0.211137
0.898441 0.724608 0.190154
0.939385 0.714372 0.178413
0.000000 0.856363 0.327239
0.066648 0.856363 0.284535
0.205380 0.856363 0.282517
0.362266 0.856363 0.280671
0.522906 0.856363 0.279079
0.671756 0.856363 0.241009
0.820477 0.856363 0.197987
0.900813 0.845250 0.186500
0.940133 0.835420 0.176668
0.000000 0.911709 0.320974
0.062922 0.911709 0.273279
0.203318 0.911709 0.272099
0.360999 0.911709 0.271354
0.521020 0.911709 0.271126
0.672573 0.911709 0.252242
0.807214 0.911709 0.183774
0.898091 0.911709 0.183774
0.940133 0.904603 0.176668
0.018118 0.018118 0.461213
0.134789 0.014784 0.461213
0.252342 0.000000 0.461213
0.396346 0.000000 0.461213
0.539941 0.000000 0.458479
0.680018 0.000000 0.455331
0.809868 0.000000 0.453709
0.888801 0.000000 0.453376
0.932211 0.000000 0.453702
0.018118 0.128879 0.461213
0.137227 0.128879 0.461213
0.248753 0.109493 0.461367
0.392095 0.095590 0.461771
0.538636 0.087904 0.454757
0.677488 0.074019 0.441728
0.806842 0.061083 0.429787
0.886517 0.053116 0.422909
0.930605 0.048707 0.419637
0.018118 0.242125 0.461871
0.136922 0.242125 0.462517
0.259447 0.242125 0.463323
0.389577 0.219913 0.464247
0.535437 0.212794 0.458229
0.673195 0.199018 0.445595
0.802634 0.186074 0.433787
0.883799 0.177958 0.426758
0.928935 0.173444 0.423235
0.011603 0.367750 0.464431
0.136239 0.369141 0.465442
0.257804 0.369141 0.466482
0.393647 0.369141 0.467510
0.531823 0.352872 0.462151
0.668961 0.339159 0.449406
0.799198 0.326135 0.436993
0.882636 0.317791 0.428375
0.929236 0.313131 0.422593
0.000000 0.500000 0.466485
0.099036 0.500000 0.465525
0.231852 0.500000 0.466469
0.380790 0.500000 0.466929
0.530649 0.492338 0.454258
0.670319 0.475482 0.439307
0.803650 0.466734 0.429609
0.887125 0.461040 0.421763
0.932793 0.456721 0.414770
0.000000 0.630859 0.465162
0.085767 0.630859 0.453225
0.219586 0.630859 0.451801
0.371179 0.630859 0.449671
0.527591 0.630859 0.447167
0.679928 0.618592 0.406747
0.813451 0.585211 0.370132
0.893554 0.565186 0.346869
0.936777 0.554380 0.332952
0.000000 0.759375 0.458556
0.074447 0.759375 0.433814
0.210844 0.759375 0.431053
0.365513 0.759375 0.428197
0.524736 0.759375 0.425361
0.676299 0.759375 0.387117
0.822750 0.743531 0.358099
0.898834 0.724510 0.336687
0.939564 0.714328 0.324647
0.000000 0.856363 0.449199
0.066846 0.856363 0.415138
0.205794 0.856363 0.412471
0.362847 0.856363 0.410068
0.523541 0.856363 0.408044
0.680331 0.856363 0.398636
0.820749 0.856363 0.344109
0.900815 0.845249 0.332728
0.940133 0.835420 0.322899
0.000000 0.911709 0.440908
0.063048 0.911709 0.402179
0.203515 0.911709 0.400750
0.361143 0.911709 0.399946
0.521020 0.911709 0.399809
0.679421 0.911709 0.399809
0.807865 0.911709 0.333626
0.898091 0.911709 0.330005
0.940133 0.904603 0.322899
0.018118 0.018118 0.582655
0.137227 0.018118 0.582655
0.250209 0.000000 0.582655
0.392996 0.000000 0.582655
0.538566 0.000000 0.582660
0.679903 0.000000 0.580235
0.809674 0.000000 0.578248
0.888631 0.000000 0.577879
0.932079 0.000000 0.578330
0.018118 0.128879 0.582655
0.137222 0.128879 0.582678
0.255297 0.121674 0.582971
0.379764 0.083412 0.583557
0.533789 0.083329 0.584388
0.677126 0.074055 0.576240
0.806466 0.061121 0.564588
0.886260 0.053141 0.557989
0.930438 0.048724 0.554995
0.018118 0.242125 0.583697
0.136868 0.242125 0.584568
0.259306 0.242125 0.585622
0.381109 0.214997 0.586808
0.529788 0.207530 0.588075
0.672759 0.199062 0.581032
0.802232 0.186115 0.569487
0.883557 0.177982 0.562678
0.928798 0.173458 0.559341
0.018118 0.369141 0.587042
0.136165 0.369141 0.588318
0.257640 0.369141 0.589615
0.393394 0.369141 0.590880
0.525456 0.346848 0.592063
0.668627 0.339192 0.585562
0.799186 0.326136 0.572948
0.882834 0.317771 0.563912
0.929481 0.313107 0.557545
0.000000 0.497119 0.591111
0.126648 0.498228 0.592273
0.256117 0.500000 0.593270
0.391658 0.500000 0.593475
0.528882 0.496886 0.592682
0.670997 0.482900 0.582964
0.804490 0.469551 0.566888
0.887719 0.461228 0.555406
0.933185 0.456682 0.547431
0.000000 0.630859 0.592292
0.085848 0.630859 0.588583
0.219890 0.630859 0.586515
0.371788 0.630859 0.583682
0.528497 0.630859 0.580461
0.681000 0.618324 0.557119
0.814424 0.597294 0.535543
0.894145 0.590229 0.526267
0.937115 0.586095 0.519098
0.000000 0.759375 0.583238
0.074639 0.759375 0.566971
0.211294 0.759375 0.563478
0.366238 0.759375 0.559910
0.525676 0.759375 0.556406
0.682974 0.759375 0.546635
0.823471 0.743351 0.505603
0.899196 0.724420 0.483872
0.939720 0.714289 0.471655
0.000000 0.856363 0.571404
0.067041 0.856363 0.546065
0.206196 0.856363 0.542822
0.363398 0.856363 0.539952
0.524125 0.856363 0.537596
0.683841 0.856363 0.535894
0.820937 0.856363 0.491164
0.900815 0.845249 0.479925
0.940133 0.835420 0.470095
0.000000 0.911709 0.561309
0.063164 0.911709 0.531685
0.203681 0.911709 0.530123
0.361229 0.911709 0.529383
0.521020 0.911709 0.529342
0.679421 0.911709 0.529342
0.810917 0.911709 0.492598
0.898091 0.911709 0.477201
0.940133 0.904603 0.470095
0.018118 0.018118 0.702830
0.137227 0.018118 0.702830
0.248844 0.000000 0.702830
0.390851 0.000000 0.702830
0.535593 0.000000 0.702878
0.679135 0.000000 0.703265
0.809457 0.000000 0.701578
0.888448 0.000000 0.701182
0.931942 0.000000 0.701753
0.018118 0.128879 0.702830
0.137212 0.128879 0.702922
0.260353 0.128879 0.703378
0.371447 0.078705 0.704164
0.521418 0.071246 0.705217
0.673776 0.071119 0.706480
0.806080 0.061159 0.698071
0.885999 0.053168 0.691727
0.930270 0.048740 0.688979
0.018118 0.242125 0.704344
0.136811 0.242125 0.705441
0.259161 0.242125 0.706736
0.385885 0.227234 0.708168
0.517240 0.195370 0.709676
0.668439 0.195218 0.711200
0.801836 0.186154 0.703766
0.883322 0.178006 0.697132
0.928673 0.173471 0.693918
0.018118 0.369141 0.708448
0.136091 0.369141 0.709964
0.257477 0.369141 0.711485
0.393146 0.369141 0.712951
0.515131 0.338829 0.714301
0.663664 0.334513 0.715416
0.799273 0.326127 0.707141
0.883092 0.317746 0.697591
0.929759 0.313079 0.690574
0.018118 0.500000 0.713216
0.135362 0.500000 0.714538
0.256045 0.500000 0.715528
0.391752 0.500000 0.715403
0.531340 0.500000 0.714131
0.667759 0.478820 0.711801
0.805361 0.469464 0.699045
0.888324 0.461168 0.686915
0.933578 0.456642 0.678288
0.000000 0.628666 0.715248
0.110820 0.627323 0.713770
0.244347 0.628518 0.711255
0.395586 0.630778 0.708078
0.538645 0.630859 0.704536
0.680211 0.623868 0.700778
0.815387 0.612407 0.685110
0.894722 0.604473 0.673064
0.937442 0.600201 0.664939
0.000000 0.759375 0.706164
0.074835 0.759375 0.698285
0.211748 0.759375 0.694125
0.366960 0.759375 0.689923
0.526598 0.759375 0.685847
0.686331 0.759375 0.682061
0.824151 0.743181 0.651543
0.899526 0.724337 0.629628
0.939853 0.717819 0.622469
0.000000 0.856363 0.692048
0.067232 0.856363 0.675406
0.206582 0.856363 0.671694
0.363918 0.856363 0.668472
0.524656 0.856363 0.665906
0.684243 0.856363 0.664164
0.821036 0.856363 0.637100
0.900815 0.845249 0.625968
0.940133 0.835420 0.616138
0.000000 0.911709 0.680467
0.063268 0.911709 0.659974
0.203816 0.911709 0.658406
0.361257 0.911709 0.657860
0.521020 0.911709 0.657860
0.679421 0.911709 0.657860
0.817024 0.911709 0.650324
0.898091 0.911709 0.623244
0.940133 0.904603 0.616138
0.018118 0.018118 0.812992
0.137227 0.018118 0.812992
0.248395 0.000634 0.812992
0.389455 0.000000 0.812992
0.533618 0.000000 0.813102
0.676529 0.000000 0.813538
0.809102 0.000000 0.814254
0.888253 0.000000 0.813672
0.931798 0.000000 0.814012
0.018118 0.128879 0.812992
0.137196 0.128879 0.813160
0.260279 0.128879 0.813653
0.374228 0.089797 0.814416
0.510095 0.060228 0.815392
0.662343 0.060115 0.816526
0.804479 0.059991 0.817764
0.885736 0.053194 0.812384
0.930103 0.048757 0.809363
0.018118 0.242125 0.814585
0.136751 0.242125 0.815595
0.259010 0.242125 0.816753
0.392816 0.238321 0.818005
0.505888 0.184408 0.819297
0.657029 0.184280 0.820578
0.799412 0.184158 0.821797
0.883096 0.178028 0.816888
0.928587 0.173479 0.813288
0.018118 0.369141 0.818247
0.136017 0.369141 0.819541
0.257316 0.369141 0.820814
0.392904 0.369141 0.822016
0.518488 0.349825 0.823100
0.652657 0.323671 0.823840
0.797043 0.323692 0.823623
0.883406 0.317714 0.816370
0.930068 0.313048 0.809454
0.018118 0.500000 0.822231
0.135303 0.500000 0.823287
0.256013 0.500000 0.823874
0.391905 0.500000 0.823475
0.531798 0.500000 0.822144
0.657861 0.468005 0.819949
0.805165 0.468280 0.817204
0.888937 0.461106 0.806629
0.933972 0.456603 0.798470
0.014574 0.630012 0.823293
0.135590 0.630859 0.821793
0.257884 0.630859 0.819463
0.396508 0.630859 0.816644
0.539502 0.630859 0.813499
0.681046 0.627865 0.810145
0.816339 0.612311 0.805749
0.895285 0.604417 0.794139
0.937755 0.600170 0.786401
0.000000 0.758088 0.816072
0.091085 0.755719 0.812878
0.227241 0.756198 0.809500
0.381682 0.756871 0.806065
0.540502 0.757997 0.802715
0.693874 0.759375 0.799597
0.824787 0.752834 0.794079
0.899823 0.745330 0.784190
0.939962 0.741316 0.778586
0.000000 0.856363 0.804321
0.067418 0.856363 0.796678
0.206953 0.856363 0.793316
0.364404 0.856363 0.790419
0.525128 0.856363 0.788169
0.684559 0.856363 0.786750
0.825288 0.856363 0.786333
0.900815 0.845249 0.765670
0.940133 0.835420 0.755841
0.000000 0.911709 0.793631
0.063359 0.911709 0.782298
0.203917 0.911709 0.781056
0.361257 0.911709 0.780798
0.521020 0.911709 0.780798
0.679421 0.911709 0.780798
0.819753 0.911709 0.780798
0.898091 0.911709 0.762946
0.940133 0.904603 0.755841
0.018118 0.018118 0.882756
0.137227 0.018118 0.882756
0.252986 0.007611 0.882756
0.388754 0.000000 0.882757
0.532570 0.000000 0.882899
0.675107 0.000000 0.883257
0.807389 0.000000 0.883793
0.888048 0.000000 0.884395
0.931650 0.000000 0.884329
0.018118 0.128879 0.882766
0.137175 0.128879 0.882951
0.260195 0.128879 0.883346
0.377147 0.096819 0.883911
0.502853 0.053306 0.884610
0.655014 0.053227 0.885404
0.797189 0.053142 0.886257
0.885306 0.053054 0.887132
0.929937 0.048774 0.883800
0.018118 0.242125 0.884034
0.136689 0.242125 0.884754
0.258856 0.242125 0.885562
0.395345 0.242125 0.886421
0.505420 0.189882 0.887296
0.649805 0.177523 0.888153
0.792279 0.177442 0.888957
0.882199 0.177370 0.889677
0.928544 0.173483 0.886271
0.018118 0.369141 0.886586
0.135943 0.369141 0.887460
0.257157 0.369141 0.888309
0.392669 0.369141 0.889100
0.521998 0.356605 0.889800
0.645982 0.317042 0.890123
0.790736 0.317077 0.889779
0.883272 0.317174 0.888812
0.930397 0.313015 0.882959
0.018118 0.500000 0.889240
0.135249 0.500000 0.889914
0.256022 0.500000 0.890108
0.392117 0.500000 0.889643
0.532328 0.500000 0.888562
0.656540 0.469304 0.886936
0.799400 0.461500 0.884998
0.889557 0.461044 0.882172
0.934364 0.456564 0.875170
0.018118 0.630859 0.889485
0.135710 0.630859 0.888292
0.258225 0.630859 0.886591
0.397119 0.630859 0.884606
0.540371 0.630859 0.882419
0.684255 0.630859 0.880110
0.811225 0.606169 0.877768
0.895830 0.604362 0.873454
0.938053 0.600140 0.866908
0.000000 0.756764 0.884206
0.112020 0.755190 0.881990
0.248747 0.756722 0.879668
0.403766 0.759335 0.877330
0.549378 0.759375 0.875074
0.694737 0.759375 0.873005
0.820791 0.748189 0.871235
0.900085 0.745304 0.866861
0.940045 0.741308 0.861961
0.000000 0.855929 0.876895
0.073089 0.854714 0.874666
0.212191 0.854909 0.872644
0.369227 0.855089 0.870944
0.529535 0.855257 0.869682
0.688569 0.855479 0.868974
0.828113 0.856363 0.868861
0.900815 0.851917 0.865666
0.940133 0.847986 0.861734
0.000000 0.911709 0.869837
0.063437 0.911709 0.865281
0.203982 0.911709 0.864632
0.361257 0.911709 0.864577
0.521020 0.911709 0.864577
0.679421 0.911709 0.864577
0.819753 0.911709 0.864577
0.898664 0.911709 0.860401
0.940133 0.904603 0.851044
